(O1001)
(opening 72x27mm with dogbone DIA .125)
(T1 D=1.587 CR=0.794 - ZMIN=-4.7 - ball end mill)
G90 G94
G17
G21


(Contouring opening 72x27)
S10000 M3
G17 G90 G94
G54
G0 Z15
X-30.721 Y-15.794
G0 Z1
G1 Z0.399 F333.3
X-30.729 Z0.35 F1524
X-30.752 Z0.305
X-30.787 Z0.27
X-30.831 Z0.248
X-30.88 Z0.24
X-31.039
X-33.755 Z0.145 F333.3
G2 X-34.316 Y-15.561 Z0.123 I0 J0.794
G3 X-35.439 Y-15.561 Z0.08 I-0.561 J-0.561
X-35.439 Y-16.684 Z0.036 I0.561 J-0.561
G2 X-35.206 Y-17.245 Z0.015 I-0.561 J-0.561
G1 Y-39.755 Z-0.772
G2 X-35.439 Y-40.316 Z-0.793 I-0.794 J0
G3 X-35.439 Y-41.439 Z-0.837 I0.561 J-0.561
X-34.316 Y-41.439 Z-0.88 I0.561 J0.561
G2 X-33.755 Y-41.206 Z-0.902 I0.561 J-0.561
G1 X33.755 Z-3.26
G2 X34.316 Y-41.439 Z-3.281 I0 J-0.794
G3 X35.439 Y-41.439 Z-3.325 I0.561 J0.561
X35.439 Y-40.316 Z-3.369 I-0.561 J0.561
G2 X35.206 Y-39.755 Z-3.39 I0.561 J0.561
G1 Y-17.245 Z-4.176
G2 X35.439 Y-16.684 Z-4.198 I0.794 J0
G3 X35.439 Y-15.561 Z-4.242 I-0.561 J0.561
X34.316 Y-15.561 Z-4.285 I-0.561 J-0.561
G2 X33.755 Y-15.794 Z-4.307 I-0.561 J0.561
G1 X22.5 Z-4.7
X-33.755 F1524
G2 X-34.316 Y-15.561 I0 J0.794
G3 X-35.439 Y-15.561 I-0.561 J-0.561
X-35.439 Y-16.684 I0.561 J-0.561
G2 X-35.206 Y-17.245 I-0.561 J-0.561
G1 Y-39.755
G2 X-35.439 Y-40.316 I-0.794 J0
G3 X-35.439 Y-41.439 I0.561 J-0.561
X-34.316 Y-41.439 I0.561 J0.561
G2 X-33.755 Y-41.206 I0.561 J-0.561
G1 X33.755
G2 X34.316 Y-41.439 I0 J-0.794
G3 X35.439 Y-41.439 I0.561 J0.561
X35.439 Y-40.316 I-0.561 J0.561
G2 X35.206 Y-39.755 I0.561 J0.561
G1 Y-17.245
G2 X35.439 Y-16.684 I0.794 J0
G3 X35.439 Y-15.561 I-0.561 J0.561
X34.316 Y-15.561 I-0.561 J-0.561
G2 X33.755 Y-15.794 I-0.561 J0.561
G1 X22.5
X22.4
X22.241
X22.192 Z-4.692
X22.148 Z-4.67
X22.113 Z-4.635
X22.09 Z-4.59
X22.083 Z-4.541
G0 Z15

(C-sink for M3)
M8
G0 X-40 Y-16
Z15
Z2
G1 Z0 F600
X-36.738 Y-16.159
X-36.688 Y-16.151
X-36.644 Y-16.128
X-36.609 Y-16.093
X-36.587 Y-16.049
X-36.579 Y-16
X-36.588 Y-15.766 Z-0.002
X-36.614 Y-15.534 Z-0.003
X-36.655 Y-15.304 Z-0.005
X-36.712 Y-15.078 Z-0.006
X-36.784 Y-14.856 Z-0.008
X-36.871 Y-14.639 Z-0.009
X-36.972 Y-14.429 Z-0.011
X-37.088 Y-14.227 Z-0.012
X-37.217 Y-14.033 Z-0.014
X-37.359 Y-13.849 Z-0.015
X-37.514 Y-13.674 Z-0.017
X-37.679 Y-13.511 Z-0.018
X-37.856 Y-13.359 Z-0.02
X-38.042 Y-13.22 Z-0.021
X-38.237 Y-13.094 Z-0.023
X-38.441 Y-12.982 Z-0.024
X-38.651 Y-12.884 Z-0.026
X-38.867 Y-12.8 Z-0.027
X-39.089 Y-12.732 Z-0.029
X-39.315 Y-12.679 Z-0.03
X-39.543 Y-12.641 Z-0.032
X-39.774 Y-12.619 Z-0.033
X-40.005 Y-12.613 Z-0.035
X-40.237 Y-12.623 Z-0.036
X-40.467 Y-12.649 Z-0.038
X-40.694 Y-12.69 Z-0.039
X-40.918 Y-12.747 Z-0.041
X-41.138 Y-12.818 Z-0.042
X-41.352 Y-12.905 Z-0.044
X-41.56 Y-13.006 Z-0.045
X-41.76 Y-13.121 Z-0.047
X-41.951 Y-13.249 Z-0.048
X-42.134 Y-13.39 Z-0.05
X-42.306 Y-13.543 Z-0.051
X-42.467 Y-13.707 Z-0.053
X-42.617 Y-13.882 Z-0.054
X-42.755 Y-14.066 Z-0.056
X-42.879 Y-14.26 Z-0.057
X-42.99 Y-14.461 Z-0.059
X-43.086 Y-14.67 Z-0.06
X-43.169 Y-14.884 Z-0.062
X-43.236 Y-15.104 Z-0.063
X-43.288 Y-15.327 Z-0.065
X-43.325 Y-15.553 Z-0.066
X-43.346 Y-15.782 Z-0.068
X-43.352 Y-16.011 Z-0.069
X-43.342 Y-16.24 Z-0.071
X-43.316 Y-16.467 Z-0.072
X-43.275 Y-16.692 Z-0.074
X-43.219 Y-16.914 Z-0.075
X-43.147 Y-17.131 Z-0.077
X-43.061 Y-17.343 Z-0.078
X-42.961 Y-17.548 Z-0.08
X-42.847 Y-17.746 Z-0.081
X-42.72 Y-17.936 Z-0.083
X-42.58 Y-18.116 Z-0.084
X-42.428 Y-18.286 Z-0.086
X-42.266 Y-18.446 Z-0.087
X-42.092 Y-18.594 Z-0.089
X-41.909 Y-18.729 Z-0.09
X-41.718 Y-18.852 Z-0.092
X-41.518 Y-18.961 Z-0.093
X-41.312 Y-19.057 Z-0.095
X-41.099 Y-19.138 Z-0.096
X-40.882 Y-19.204 Z-0.098
X-40.661 Y-19.255 Z-0.099
X-40.437 Y-19.291 Z-0.101
X-40.211 Y-19.312 Z-0.102
X-39.984 Y-19.317 Z-0.104
X-39.757 Y-19.307 Z-0.106
X-39.532 Y-19.281 Z-0.107
X-39.31 Y-19.24 Z-0.109
X-39.09 Y-19.184 Z-0.11
X-38.875 Y-19.113 Z-0.112
X-38.666 Y-19.027 Z-0.113
X-38.463 Y-18.928 Z-0.115
X-38.267 Y-18.815 Z-0.116
X-38.08 Y-18.688 Z-0.118
X-37.902 Y-18.55 Z-0.119
X-37.734 Y-18.4 Z-0.121
X-37.576 Y-18.238 Z-0.122
X-37.43 Y-18.066 Z-0.124
X-37.296 Y-17.885 Z-0.125
X-37.175 Y-17.695 Z-0.127
X-37.067 Y-17.498 Z-0.128
X-36.973 Y-17.293 Z-0.13
X-36.893 Y-17.083 Z-0.131
X-36.828 Y-16.868 Z-0.133
X-36.778 Y-16.649 Z-0.134
X-36.742 Y-16.427 Z-0.136
X-36.722 Y-16.203 Z-0.137
X-36.718 Y-15.979 Z-0.139
X-36.728 Y-15.755 Z-0.14
X-36.754 Y-15.532 Z-0.142
X-36.795 Y-15.312 Z-0.143
X-36.851 Y-15.095 Z-0.145
X-36.922 Y-14.882 Z-0.146
X-37.007 Y-14.675 Z-0.148
X-37.105 Y-14.474 Z-0.149
X-37.218 Y-14.281 Z-0.151
X-37.343 Y-14.096 Z-0.152
X-37.48 Y-13.92 Z-0.154
X-37.629 Y-13.754 Z-0.155
X-37.789 Y-13.598 Z-0.157
X-37.96 Y-13.454 Z-0.158
X-38.139 Y-13.322 Z-0.16
X-38.327 Y-13.202 Z-0.161
X-38.523 Y-13.096 Z-0.163
X-38.725 Y-13.003 Z-0.164
X-38.934 Y-12.924 Z-0.166
X-39.147 Y-12.86 Z-0.167
X-39.363 Y-12.811 Z-0.169
X-39.583 Y-12.776 Z-0.17
X-39.804 Y-12.757 Z-0.172
X-40.026 Y-12.752 Z-0.173
X-40.248 Y-12.763 Z-0.175
X-40.468 Y-12.789 Z-0.176
X-40.686 Y-12.83 Z-0.178
X-40.901 Y-12.886 Z-0.179
X-41.111 Y-12.956 Z-0.181
X-41.316 Y-13.04 Z-0.182
X-41.514 Y-13.139 Z-0.184
X-41.705 Y-13.25 Z-0.185
X-41.888 Y-13.374 Z-0.187
X-42.062 Y-13.51 Z-0.188
X-42.226 Y-13.658 Z-0.19
X-42.38 Y-13.817 Z-0.191
X-42.522 Y-13.985 Z-0.193
X-42.653 Y-14.163 Z-0.194
X-42.771 Y-14.349 Z-0.196
X-42.876 Y-14.543 Z-0.197
X-42.967 Y-14.744 Z-0.199
X-43.045 Y-14.95 Z-0.2
X-43.108 Y-15.161 Z-0.202
X-43.157 Y-15.375 Z-0.203
X-43.19 Y-15.593 Z-0.205
X-43.209 Y-15.812 Z-0.207
X-43.213 Y-16.031 Z-0.208
X-43.202 Y-16.251 Z-0.21
X-43.176 Y-16.468 Z-0.211
X-43.135 Y-16.684 Z-0.213
X-43.079 Y-16.896 Z-0.214
X-43.01 Y-17.104 Z-0.216
X-42.926 Y-17.306 Z-0.217
X-42.828 Y-17.502 Z-0.219
X-42.718 Y-17.691 Z-0.22
X-42.595 Y-17.872 Z-0.222
X-42.46 Y-18.044 Z-0.223
X-42.313 Y-18.206 Z-0.225
X-42.156 Y-18.358 Z-0.226
X-41.989 Y-18.499 Z-0.228
X-41.813 Y-18.627 Z-0.229
X-41.628 Y-18.744 Z-0.231
X-41.436 Y-18.847 Z-0.232
X-41.238 Y-18.937 Z-0.234
X-41.034 Y-19.014 Z-0.235
X-40.825 Y-19.076 Z-0.237
X-40.613 Y-19.123 Z-0.238
X-40.398 Y-19.157 Z-0.24
X-40.181 Y-19.175 Z-0.241
X-39.964 Y-19.178 Z-0.243
X-39.747 Y-19.167 Z-0.244
X-39.532 Y-19.141 Z-0.246
X-39.318 Y-19.1 Z-0.247
X-39.109 Y-19.045 Z-0.249
X-38.903 Y-18.975 Z-0.25
X-38.703 Y-18.892 Z-0.252
X-38.509 Y-18.795 Z-0.253
X-38.323 Y-18.686 Z-0.255
X-38.144 Y-18.564 Z-0.256
X-37.974 Y-18.43 Z-0.258
X-37.814 Y-18.285 Z-0.259
X-37.664 Y-18.129 Z-0.261
X-37.525 Y-17.963 Z-0.262
X-37.398 Y-17.789 Z-0.264
X-37.283 Y-17.606 Z-0.265
X-37.181 Y-17.416 Z-0.267
X-37.093 Y-17.22 Z-0.268
X-37.017 Y-17.018 Z-0.27
X-36.956 Y-16.811 Z-0.271
X-36.91 Y-16.601 Z-0.273
X-36.877 Y-16.389 Z-0.274
X-36.859 Y-16.174 Z-0.276
X-36.856 Y-15.959 Z-0.277
X-36.868 Y-15.745 Z-0.279
X-36.894 Y-15.532 Z-0.28
X-36.935 Y-15.321 Z-0.282
X-36.99 Y-15.114 Z-0.283
X-37.059 Y-14.911 Z-0.285
X-37.142 Y-14.713 Z-0.286
X-37.238 Y-14.521 Z-0.288
X-37.346 Y-14.337 Z-0.289
X-37.467 Y-14.16 Z-0.291
X-37.6 Y-13.993 Z-0.292
X-37.744 Y-13.834 Z-0.294
X-37.898 Y-13.686 Z-0.295
X-38.062 Y-13.549 Z-0.297
X-38.235 Y-13.424 Z-0.298
X-38.416 Y-13.311 Z-0.3
X-38.604 Y-13.21 Z-0.301
X-38.798 Y-13.123 Z-0.303
X-38.998 Y-13.049 Z-0.304
X-39.202 Y-12.989 Z-0.306
X-39.41 Y-12.943 Z-0.307
X-39.621 Y-12.911 Z-0.309
X-39.833 Y-12.894 Z-0.311
X-40.045 Y-12.891 Z-0.312
X-40.257 Y-12.903 Z-0.314
X-40.468 Y-12.929 Z-0.315
X-40.677 Y-12.97 Z-0.317
X-40.881 Y-13.025 Z-0.318
X-41.082 Y-13.093 Z-0.32
X-41.278 Y-13.175 Z-0.321
X-41.467 Y-13.271 Z-0.323
X-41.649 Y-13.378 Z-0.324
X-41.823 Y-13.498 Z-0.326
X-41.989 Y-13.63 Z-0.327
X-42.145 Y-13.772 Z-0.329
X-42.291 Y-13.925 Z-0.33
X-42.427 Y-14.088 Z-0.332
X-42.55 Y-14.259 Z-0.333
X-42.662 Y-14.438 Z-0.335
X-42.761 Y-14.624 Z-0.336
X-42.847 Y-14.816 Z-0.338
X-42.92 Y-15.014 Z-0.339
X-42.979 Y-15.216 Z-0.341
X-43.024 Y-15.422 Z-0.342
X-43.055 Y-15.63 Z-0.344
X-43.072 Y-15.84 Z-0.345
X-43.074 Y-16.05 Z-0.347
X-43.062 Y-16.26 Z-0.348
X-43.036 Y-16.468 Z-0.35
X-42.995 Y-16.674 Z-0.351
X-42.941 Y-16.876 Z-0.353
X-42.873 Y-17.075 Z-0.354
X-42.791 Y-17.268 Z-0.356
X-42.697 Y-17.455 Z-0.357
X-42.59 Y-17.635 Z-0.359
X-42.471 Y-17.807 Z-0.36
X-42.34 Y-17.971 Z-0.362
X-42.199 Y-18.125 Z-0.363
X-42.048 Y-18.269 Z-0.365
X-41.887 Y-18.402 Z-0.366
X-41.718 Y-18.524 Z-0.368
X-41.541 Y-18.635 Z-0.369
X-41.356 Y-18.732 Z-0.371
X-41.166 Y-18.817 Z-0.372
X-40.97 Y-18.889 Z-0.374
X-40.77 Y-18.947 Z-0.375
X-40.567 Y-18.991 Z-0.377
X-40.361 Y-19.021 Z-0.378
X-40.154 Y-19.037 Z-0.38
X-39.946 Y-19.039 Z-0.381
X-39.739 Y-19.027 Z-0.383
X-39.533 Y-19.001 Z-0.384
X-39.329 Y-18.96 Z-0.386
X-39.129 Y-18.906 Z-0.387
X-38.933 Y-18.838 Z-0.389
X-38.742 Y-18.757 Z-0.39
X-38.557 Y-18.664 Z-0.392
X-38.38 Y-18.558 Z-0.393
X-38.21 Y-18.44 Z-0.395
X-38.048 Y-18.311 Z-0.396
X-37.896 Y-18.171 Z-0.398
X-37.754 Y-18.021 Z-0.399
X-37.622 Y-17.862 Z-0.401
X-37.501 Y-17.694 Z-0.402
X-37.393 Y-17.519 Z-0.404
X-37.297 Y-17.337 Z-0.405
X-37.213 Y-17.148 Z-0.407
X-37.142 Y-16.955 Z-0.408
X-37.085 Y-16.757 Z-0.41
X-37.042 Y-16.556 Z-0.412
X-37.012 Y-16.352 Z-0.413
X-36.997 Y-16.147 Z-0.415
X-36.995 Y-15.942 Z-0.416
X-37.008 Y-15.737 Z-0.418
X-37.034 Y-15.533 Z-0.419
X-37.075 Y-15.332 Z-0.421
X-37.129 Y-15.134 Z-0.422
X-37.196 Y-14.94 Z-0.424
X-37.276 Y-14.752 Z-0.425
X-37.369 Y-14.57 Z-0.427
X-37.474 Y-14.394 Z-0.428
X-37.591 Y-14.226 Z-0.43
X-37.719 Y-14.067 Z-0.431
X-37.857 Y-13.916 Z-0.433
X-38.006 Y-13.776 Z-0.434
X-38.163 Y-13.646 Z-0.436
X-38.329 Y-13.527 Z-0.437
X-38.503 Y-13.42 Z-0.439
X-38.683 Y-13.326 Z-0.44
X-38.87 Y-13.243 Z-0.442
X-39.061 Y-13.174 Z-0.443
X-39.257 Y-13.118 Z-0.445
X-39.456 Y-13.075 Z-0.446
X-39.657 Y-13.046 Z-0.448
X-39.859 Y-13.031 Z-0.449
X-40.062 Y-13.03 Z-0.451
X-40.265 Y-13.043 Z-0.452
X-40.466 Y-13.069 Z-0.454
X-40.665 Y-13.11 Z-0.455
X-40.86 Y-13.163 Z-0.457
X-41.052 Y-13.23 Z-0.458
X-41.238 Y-13.31 Z-0.46
X-41.418 Y-13.402 Z-0.461
X-41.591 Y-13.506 Z-0.463
X-41.757 Y-13.622 Z-0.464
X-41.915 Y-13.749 Z-0.466
X-42.063 Y-13.886 Z-0.467
X-42.201 Y-14.032 Z-0.469
X-42.329 Y-14.188 Z-0.47
X-42.446 Y-14.353 Z-0.472
X-42.552 Y-14.524 Z-0.473
X-42.645 Y-14.703 Z-0.475
X-42.727 Y-14.887 Z-0.476
X-42.795 Y-15.076 Z-0.478
X-42.85 Y-15.27 Z-0.479
X-42.892 Y-15.467 Z-0.481
X-42.92 Y-15.665 Z-0.482
X-42.934 Y-15.866 Z-0.484
X-42.935 Y-16.067 Z-0.485
X-42.922 Y-16.267 Z-0.487
X-42.896 Y-16.465 Z-0.488
X-42.856 Y-16.662 Z-0.49
X-42.802 Y-16.855 Z-0.491
X-42.736 Y-17.044 Z-0.493
X-42.657 Y-17.228 Z-0.494
X-42.565 Y-17.406 Z-0.496
X-42.462 Y-17.577 Z-0.497
X-42.348 Y-17.74 Z-0.499
X-42.222 Y-17.896 Z-0.5
X-42.086 Y-18.042 Z-0.502
X-41.941 Y-18.179 Z-0.503
X-41.787 Y-18.305 Z-0.505
X-41.624 Y-18.42 Z-0.506
X-41.454 Y-18.524 Z-0.508
X-41.278 Y-18.616 Z-0.509
X-41.095 Y-18.696 Z-0.511
X-40.908 Y-18.763 Z-0.512
X-40.717 Y-18.817 Z-0.514
X-40.523 Y-18.858 Z-0.516
X-40.326 Y-18.886 Z-0.517
X-40.128 Y-18.9 Z-0.519
X-39.93 Z-0.52
X-39.732 Y-18.887 Z-0.522
X-39.535 Y-18.861 Z-0.523
X-39.341 Y-18.821 Z-0.525
X-39.151 Y-18.768 Z-0.526
X-38.964 Y-18.702 Z-0.528
X-38.783 Y-18.623 Z-0.529
X-38.607 Y-18.533 Z-0.531
X-38.438 Y-18.43 Z-0.532
X-38.277 Y-18.317 Z-0.534
X-38.123 Y-18.193 Z-0.535
X-37.979 Y-18.058 Z-0.537
X-37.844 Y-17.914 Z-0.538
X-37.72 Y-17.762 Z-0.54
X-37.606 Y-17.601 Z-0.541
X-37.503 Y-17.433 Z-0.543
X-37.413 Y-17.258 Z-0.544
X-37.334 Y-17.078 Z-0.546
X-37.268 Y-16.893 Z-0.547
X-37.215 Y-16.704 Z-0.549
X-37.175 Y-16.512 Z-0.55
X-37.148 Y-16.317 Z-0.552
X-37.135 Y-16.122 Z-0.553
X-37.134 Y-15.926 Z-0.555
X-37.148 Y-15.73 Z-0.556
X-37.174 Y-15.536 Z-0.558
X-37.214 Y-15.345 Z-0.559
X-37.267 Y-15.156 Z-0.561
X-37.332 Y-14.972 Z-0.562
X-37.41 Y-14.793 Z-0.564
X-37.5 Y-14.62 Z-0.565
X-37.601 Y-14.453 Z-0.567
X-37.714 Y-14.294 Z-0.568
X-37.837 Y-14.142 Z-0.57
X-37.97 Y-14 Z-0.571
X-38.112 Y-13.867 Z-0.573
X-38.263 Y-13.744 Z-0.574
X-38.422 Y-13.632 Z-0.576
X-38.588 Y-13.531 Z-0.577
X-38.761 Y-13.442 Z-0.579
X-38.939 Y-13.365 Z-0.58
X-39.122 Y-13.3 Z-0.582
X-39.309 Y-13.248 Z-0.583
X-39.499 Y-13.208 Z-0.585
X-39.691 Y-13.182 Z-0.586
X-39.884 Y-13.169 Z-0.588
X-40.078 Z-0.589
X-40.271 Y-13.183 Z-0.591
X-40.463 Y-13.209 Z-0.592
X-40.652 Y-13.249 Z-0.594
X-40.838 Y-13.301 Z-0.595
X-41.02 Y-13.366 Z-0.597
X-41.196 Y-13.443 Z-0.598
X-41.368 Y-13.532 Z-0.6
X-41.532 Y-13.633 Z-0.601
X-41.689 Y-13.744 Z-0.603
X-41.839 Y-13.866 Z-0.604
X-41.979 Y-13.998 Z-0.606
X-42.11 Y-14.139 Z-0.607
X-42.231 Y-14.288 Z-0.609
X-42.342 Y-14.445 Z-0.61
X-42.441 Y-14.61 Z-0.612
X-42.529 Y-14.78 Z-0.613
X-42.605 Y-14.956 Z-0.615
X-42.669 Y-15.137 Z-0.616
X-42.72 Y-15.322 Z-0.618
X-42.758 Y-15.51 Z-0.62
X-42.784 Y-15.699 Z-0.621
X-42.797 Y-15.89 Z-0.623
X-42.796 Y-16.081 Z-0.624
X-42.782 Y-16.272 Z-0.626
X-42.756 Y-16.461 Z-0.627
X-42.716 Y-16.648 Z-0.629
X-42.664 Y-16.832 Z-0.63
X-42.6 Y-17.011 Z-0.632
X-42.523 Y-17.186 Z-0.633
X-42.435 Y-17.355 Z-0.635
X-42.336 Y-17.517 Z-0.636
X-42.225 Y-17.672 Z-0.638
X-42.105 Y-17.819 Z-0.639
X-41.975 Y-17.958 Z-0.641
X-41.835 Y-18.087 Z-0.642
X-41.687 Y-18.206 Z-0.644
X-41.532 Y-18.315 Z-0.645
X-41.369 Y-18.413 Z-0.647
X-41.201 Y-18.5 Z-0.648
X-41.027 Y-18.574 Z-0.65
X-40.848 Y-18.637 Z-0.651
X-40.665 Y-18.687 Z-0.653
X-40.48 Y-18.725 Z-0.654
X-40.293 Y-18.75 Z-0.656
X-40.104 Y-18.762 Z-0.657
X-39.915 Y-18.761 Z-0.659
X-39.727 Y-18.747 Z-0.66
X-39.54 Y-18.721 Z-0.662
X-39.356 Y-18.682 Z-0.663
X-39.174 Y-18.63 Z-0.665
X-38.997 Y-18.566 Z-0.666
X-38.825 Y-18.49 Z-0.668
X-38.658 Y-18.403 Z-0.669
X-38.498 Y-18.304 Z-0.671
X-38.345 Y-18.195 Z-0.672
X-38.2 Y-18.076 Z-0.674
X-38.063 Y-17.947 Z-0.675
X-37.936 Y-17.809 Z-0.677
X-37.819 Y-17.663 Z-0.678
X-37.711 Y-17.509 Z-0.68
X-37.615 Y-17.348 Z-0.681
X-37.53 Y-17.182 Z-0.683
X-37.456 Y-17.01 Z-0.684
X-37.395 Y-16.833 Z-0.686
X-37.345 Y-16.653 Z-0.687
X-37.308 Y-16.47 Z-0.689
X-37.284 Y-16.284 Z-0.69
X-37.272 Y-16.098 Z-0.692
X-37.274 Y-15.912 Z-0.693
X-37.287 Y-15.726 Z-0.695
X-37.314 Y-15.541 Z-0.696
X-37.353 Y-15.359 Z-0.698
X-37.404 Y-15.181 Z-0.699
X-37.468 Y-15.006 Z-0.701
X-37.543 Y-14.836 Z-0.702
X-37.63 Y-14.671 Z-0.704
X-37.727 Y-14.513 Z-0.705
X-37.835 Y-14.362 Z-0.707
X-37.953 Y-14.219 Z-0.708
X-38.081 Y-14.085 Z-0.71
X-38.217 Y-13.959 Z-0.711
X-38.362 Y-13.843 Z-0.713
X-38.514 Y-13.738 Z-0.714
X-38.672 Y-13.643 Z-0.716
X-38.837 Y-13.559 Z-0.717
X-39.007 Y-13.487 Z-0.719
X-39.182 Y-13.426 Z-0.721
X-39.36 Y-13.378 Z-0.722
X-39.541 Y-13.342 Z-0.724
X-39.723 Y-13.318 Z-0.725
X-39.907 Y-13.307 Z-0.727
X-40.092 Y-13.308 Z-0.728
X-40.275 Y-13.322 Z-0.73
X-40.457 Y-13.349 Z-0.731
X-40.637 Y-13.388 Z-0.733
X-40.813 Y-13.439 Z-0.734
X-40.986 Y-13.502 Z-0.736
X-41.153 Y-13.576 Z-0.737
X-41.316 Y-13.662 Z-0.739
X-41.471 Y-13.759 Z-0.74
X-41.62 Y-13.866 Z-0.742
X-41.761 Y-13.982 Z-0.743
X-41.894 Y-14.109 Z-0.745
X-42.017 Y-14.243 Z-0.746
X-42.132 Y-14.386 Z-0.748
X-42.236 Y-14.536 Z-0.749
X-42.329 Y-14.693 Z-0.751
X-42.411 Y-14.856 Z-0.752
X-42.483 Y-15.024 Z-0.754
X-42.542 Y-15.196 Z-0.755
X-42.59 Y-15.372 Z-0.757
X-42.625 Y-15.551 Z-0.758
X-42.648 Y-15.731 Z-0.76
X-42.659 Y-15.913 Z-0.761
X-42.657 Y-16.095 Z-0.763
X-42.643 Y-16.276 Z-0.764
X-42.616 Y-16.455 Z-0.766
X-42.577 Y-16.633 Z-0.767
X-42.527 Y-16.807 Z-0.769
X-42.464 Y-16.977 Z-0.77
X-42.391 Y-17.142 Z-0.772
X-42.306 Y-17.302 Z-0.773
X-42.21 Y-17.456 Z-0.775
X-42.104 Y-17.603 Z-0.776
X-41.989 Y-17.742 Z-0.778
X-41.864 Y-17.872 Z-0.779
X-41.731 Y-17.994 Z-0.781
X-41.59 Y-18.106 Z-0.782
X-41.441 Y-18.209 Z-0.784
X-41.286 Y-18.301 Z-0.785
X-41.125 Y-18.382 Z-0.787
X-40.959 Y-18.452 Z-0.788
X-40.789 Y-18.51 Z-0.79
X-40.616 Y-18.557 Z-0.791
X-40.439 Y-18.591 Z-0.793
X-40.261 Y-18.614 Z-0.794
X-40.082 Y-18.624 Z-0.796
X-39.902 Y-18.622 Z-0.797
X-39.724 Y-18.608 Z-0.799
X-39.546 Y-18.581 Z-0.8
X-39.371 Y-18.543 Z-0.802
X-39.2 Y-18.492 Z-0.803
X-39.032 Y-18.431 Z-0.805
X-38.869 Y-18.357 Z-0.806
X-38.711 Y-18.273 Z-0.808
X-38.56 Y-18.179 Z-0.809
X-38.415 Y-18.074 Z-0.811
X-38.278 Y-17.96 Z-0.812
X-38.149 Y-17.837 Z-0.814
X-38.029 Y-17.705 Z-0.815
X-37.919 Y-17.565 Z-0.817
X-37.818 Y-17.419 Z-0.818
X-37.727 Y-17.266 Z-0.82
X-37.648 Y-17.107 Z-0.821
X-37.579 Y-16.943 Z-0.823
X-37.522 Y-16.775 Z-0.825
X-37.476 Y-16.603 Z-0.826
X-37.442 Y-16.429 Z-0.828
X-37.42 Y-16.253 Z-0.829
X-37.41 Y-16.076 Z-0.831
X-37.413 Y-15.899 Z-0.832
X-37.427 Y-15.723 Z-0.834
X-37.454 Y-15.548 Z-0.835
X-37.492 Y-15.376 Z-0.837
X-37.542 Y-15.206 Z-0.838
X-37.603 Y-15.041 Z-0.84
X-37.676 Y-14.88 Z-0.841
X-37.759 Y-14.725 Z-0.843
X-37.853 Y-14.575 Z-0.844
X-37.956 Y-14.433 Z-0.846
X-38.069 Y-14.298 Z-0.847
X-38.191 Y-14.171 Z-0.849
X-38.321 Y-14.053 Z-0.85
X-38.459 Y-13.944 Z-0.852
X-38.604 Y-13.845 Z-0.853
X-38.755 Y-13.756 Z-0.855
X-38.912 Y-13.677 Z-0.856
X-39.074 Y-13.61 Z-0.858
X-39.24 Y-13.553 Z-0.859
X-39.409 Y-13.509 Z-0.861
X-39.581 Y-13.476 Z-0.862
X-39.754 Y-13.454 Z-0.864
X-39.929 Y-13.445 Z-0.865
X-40.103 Y-13.448 Z-0.867
X-40.277 Y-13.462 Z-0.868
X-40.45 Y-13.488 Z-0.87
X-40.62 Y-13.527 Z-0.871
X-40.787 Y-13.576 Z-0.873
X-40.95 Y-13.637 Z-0.874
X-41.109 Y-13.709 Z-0.876
X-41.262 Y-13.791 Z-0.877
X-41.409 Y-13.884 Z-0.879
X-41.549 Y-13.986 Z-0.88
X-41.682 Y-14.098 Z-0.882
X-41.807 Y-14.218 Z-0.883
X-41.924 Y-14.347 Z-0.885
X-42.031 Y-14.483 Z-0.886
X-42.128 Y-14.626 Z-0.888
X-42.216 Y-14.775 Z-0.889
X-42.293 Y-14.93 Z-0.891
X-42.359 Y-15.09 Z-0.892
X-42.415 Y-15.254 Z-0.894
X-42.459 Y-15.421 Z-0.895
X-42.491 Y-15.59 Z-0.897
X-42.512 Y-15.762 Z-0.898
X-42.52 Y-15.934 Z-0.9
X-42.518 Y-16.106 Z-0.901
X-42.503 Y-16.278 Z-0.903
X-42.477 Y-16.448 Z-0.904
X-42.439 Y-16.615 Z-0.906
X-42.39 Y-16.78 Z-0.907
X-42.329 Y-16.941 Z-0.909
X-42.258 Y-17.097 Z-0.91
X-42.177 Y-17.248 Z-0.912
X-42.085 Y-17.393 Z-0.913
X-41.984 Y-17.531 Z-0.915
X-41.874 Y-17.662 Z-0.916
X-41.755 Y-17.785 Z-0.918
X-41.628 Y-17.9 Z-0.919
X-41.493 Y-18.005 Z-0.921
X-41.352 Y-18.102 Z-0.922
X-41.204 Y-18.188 Z-0.924
X-41.051 Y-18.263 Z-0.925
X-40.894 Y-18.329 Z-0.927
X-40.732 Y-18.383 Z-0.929
X-40.567 Y-18.426 Z-0.93
X-40.4 Y-18.457 Z-0.932
X-40.231 Y-18.477 Z-0.933
X-40.061 Y-18.486 Z-0.935
X-39.891 Y-18.483 Z-0.936
X-39.722 Y-18.468 Z-0.938
X-39.555 Y-18.442 Z-0.939
X-39.389 Y-18.404 Z-0.941
X-39.227 Y-18.355 Z-0.942
X-39.068 Y-18.296 Z-0.944
X-38.914 Y-18.225 Z-0.945
X-38.766 Y-18.145 Z-0.947
X-38.623 Y-18.054 Z-0.948
X-38.487 Y-17.954 Z-0.95
X-38.358 Y-17.845 Z-0.951
X-38.237 Y-17.727 Z-0.953
X-38.124 Y-17.602 Z-0.954
X-38.02 Y-17.469 Z-0.956
X-37.925 Y-17.33 Z-0.957
X-37.841 Y-17.184 Z-0.959
X-37.766 Y-17.033 Z-0.96
X-37.702 Y-16.878 Z-0.962
X-37.649 Y-16.718 Z-0.963
X-37.607 Y-16.556 Z-0.965
X-37.576 Y-16.391 Z-0.966
X-37.557 Y-16.224 Z-0.968
X-37.549 Y-16.057 Z-0.969
X-37.552 Y-15.889 Z-0.971
X-37.567 Y-15.722 Z-0.972
X-37.593 Y-15.557 Z-0.974
X-37.63 Y-15.394 Z-0.975
X-37.679 Y-15.234 Z-0.977
X-37.738 Y-15.078 Z-0.978
X-37.807 Y-14.926 Z-0.98
X-37.887 Y-14.779 Z-0.981
X-37.977 Y-14.639 Z-0.983
X-38.076 Y-14.505 Z-0.984
X-38.184 Y-14.378 Z-0.986
X-38.3 Y-14.259 Z-0.987
X-38.424 Y-14.148 Z-0.989
X-38.555 Y-14.045 Z-0.99
X-38.692 Y-13.953 Z-0.992
X-38.836 Y-13.869 Z-0.993
X-38.985 Y-13.796 Z-0.995
X-39.138 Y-13.733 Z-0.996
X-39.296 Y-13.681 Z-0.998
X-39.456 Y-13.64 Z-0.999
X-39.619 Y-13.61 Z-1.001
X-39.783 Y-13.591 Z-1.002
X-39.948 Y-13.583 Z-1.004
X-40.113 Y-13.587 Z-1.005
X-40.278 Y-13.602 Z-1.007
X-40.441 Y-13.628 Z-1.008
X-40.601 Y-13.665 Z-1.01
X-40.759 Y-13.713 Z-1.011
X-40.913 Y-13.771 Z-1.013
X-41.062 Y-13.84 Z-1.014
X-41.207 Y-13.919 Z-1.016
X-41.345 Y-14.008 Z-1.017
X-41.477 Y-14.106 Z-1.019
X-41.602 Y-14.212 Z-1.02
X-41.719 Y-14.327 Z-1.022
X-41.829 Y-14.449 Z-1.023
X-41.929 Y-14.578 Z-1.025
X-42.02 Y-14.714 Z-1.026
X-42.102 Y-14.856 Z-1.028
X-42.174 Y-15.003 Z-1.03
X-42.236 Y-15.154 Z-1.031
X-42.287 Y-15.309 Z-1.033
X-42.327 Y-15.468 Z-1.034
X-42.357 Y-15.628 Z-1.036
X-42.375 Y-15.79 Z-1.037
X-42.382 Y-15.953 Z-1.039
X-42.378 Y-16.116 Z-1.04
X-42.363 Y-16.278 Z-1.042
X-42.337 Y-16.438 Z-1.043
X-42.301 Y-16.596 Z-1.045
X-42.253 Y-16.752 Z-1.046
X-42.195 Y-16.903 Z-1.048
X-42.127 Y-17.05 Z-1.049
X-42.049 Y-17.193 Z-1.051
X-41.961 Y-17.329 Z-1.052
X-41.865 Y-17.459 Z-1.054
X-41.76 Y-17.582 Z-1.055
X-41.646 Y-17.697 Z-1.057
X-41.526 Y-17.805 Z-1.058
X-41.398 Y-17.903 Z-1.06
X-41.264 Y-17.993 Z-1.061
X-41.124 Y-18.073 Z-1.063
X-40.979 Y-18.144 Z-1.064
X-40.83 Y-18.205 Z-1.066
X-40.677 Y-18.255 Z-1.067
X-40.521 Y-18.294 Z-1.069
X-40.363 Y-18.323 Z-1.07
X-40.203 Y-18.341 Z-1.072
X-40.043 Y-18.348 Z-1.073
X-39.882 Y-18.344 Z-1.075
X-39.723 Y-18.329 Z-1.076
X-39.565 Y-18.303 Z-1.078
X-39.409 Y-18.266 Z-1.079
X-39.256 Y-18.219 Z-1.081
X-39.106 Y-18.162 Z-1.082
X-38.962 Y-18.094 Z-1.084
X-38.822 Y-18.017 Z-1.085
X-38.687 Y-17.931 Z-1.087
X-38.56 Y-17.835 Z-1.088
X-38.439 Y-17.731 Z-1.09
X-38.325 Y-17.62 Z-1.091
X-38.219 Y-17.5 Z-1.093
X-38.122 Y-17.374 Z-1.094
X-38.034 Y-17.242 Z-1.096
X-37.955 Y-17.104 Z-1.097
X-37.886 Y-16.961 Z-1.099
X-37.827 Y-16.814 Z-1.1
X-37.778 Y-16.663 Z-1.102
X-37.739 Y-16.51 Z-1.103
X-37.711 Y-16.354 Z-1.105
X-37.694 Y-16.196 Z-1.106
X-37.687 Y-16.038 Z-1.108
X-37.691 Y-15.88 Z-1.109
X-37.706 Y-15.723 Z-1.111
X-37.732 Y-15.567 Z-1.112
X-37.768 Y-15.414 Z-1.114
X-37.815 Y-15.263 Z-1.115
X-37.872 Y-15.116 Z-1.117
X-37.939 Y-14.974 Z-1.118
X-38.015 Y-14.836 Z-1.12
X-38.1 Y-14.704 Z-1.121
X-38.194 Y-14.578 Z-1.123
X-38.297 Y-14.459 Z-1.124
X-38.407 Y-14.347 Z-1.126
X-38.525 Y-14.244 Z-1.127
X-38.649 Y-14.148 Z-1.129
X-38.78 Y-14.061 Z-1.13
X-38.916 Y-13.984 Z-1.132
X-39.056 Y-13.916 Z-1.134
X-39.202 Y-13.858 Z-1.135
X-39.35 Y-13.81 Z-1.137
X-39.502 Y-13.772 Z-1.138
X-39.655 Y-13.745 Z-1.14
X-39.81 Y-13.728 Z-1.141
X-39.966 Y-13.722 Z-1.143
X-40.122 Y-13.726 Z-1.144
X-40.276 Y-13.741 Z-1.146
X-40.43 Y-13.767 Z-1.147
X-40.581 Y-13.803 Z-1.149
X-40.729 Y-13.849 Z-1.15
X-40.874 Y-13.905 Z-1.152
X-41.014 Y-13.971 Z-1.153
X-41.15 Y-14.047 Z-1.155
X-41.28 Y-14.131 Z-1.156
X-41.403 Y-14.224 Z-1.158
X-41.52 Y-14.325 Z-1.159
X-41.63 Y-14.434 Z-1.161
X-41.732 Y-14.55 Z-1.162
X-41.826 Y-14.672 Z-1.164
X-41.911 Y-14.801 Z-1.165
X-41.987 Y-14.935 Z-1.167
X-42.054 Y-15.074 Z-1.168
X-42.111 Y-15.217 Z-1.17
X-42.158 Y-15.363 Z-1.171
X-42.195 Y-15.513 Z-1.173
X-42.222 Y-15.664 Z-1.174
X-42.238 Y-15.817 Z-1.176
X-42.244 Y-15.97 Z-1.177
X-42.239 Y-16.123 Z-1.179
X-42.224 Y-16.276 Z-1.18
X-42.198 Y-16.427 Z-1.182
X-42.163 Y-16.576 Z-1.183
X-42.117 Y-16.722 Z-1.185
X-42.061 Y-16.864 Z-1.186
X-41.996 Y-17.002 Z-1.188
X-41.922 Y-17.135 Z-1.189
X-41.838 Y-17.263 Z-1.191
X-41.747 Y-17.385 Z-1.192
X-41.647 Y-17.5 Z-1.194
X-41.54 Y-17.608 Z-1.195
X-41.425 Y-17.708 Z-1.197
X-41.304 Y-17.8 Z-1.198
X-41.177 Y-17.884 Z-1.2
X-41.045 Y-17.958 Z-1.201
X-40.908 Y-18.024 Z-1.203
X-40.768 Y-18.08 Z-1.204
X-40.623 Y-18.126 Z-1.206
X-40.476 Y-18.162 Z-1.207
X-40.327 Y-18.188 Z-1.209
X-40.177 Y-18.204 Z-1.21
X-40.026 Y-18.209 Z-1.212
X-39.875 Y-18.204 Z-1.213
X-39.725 Y-18.189 Z-1.215
X-39.576 Y-18.164 Z-1.216
X-39.43 Y-18.128 Z-1.218
X-39.286 Y-18.083 Z-1.219
X-39.146 Y-18.028 Z-1.221
X-39.01 Y-17.964 Z-1.222
X-38.879 Y-17.89 Z-1.224
X-38.754 Y-17.808 Z-1.225
X-38.634 Y-17.717 Z-1.227
X-38.521 Y-17.619 Z-1.228
X-38.415 Y-17.513 Z-1.23
X-38.316 Y-17.4 Z-1.231
X-38.226 Y-17.281 Z-1.233
X-38.144 Y-17.156 Z-1.235
X-38.071 Y-17.026 Z-1.236
X-38.006 Y-16.891 Z-1.238
X-37.952 Y-16.752 Z-1.239
X-37.906 Y-16.61 Z-1.241
X-37.871 Y-16.465 Z-1.242
X-37.846 Y-16.319 Z-1.244
X-37.831 Y-16.171 Z-1.245
X-37.825 Y-16.022 Z-1.247
X-37.831 Y-15.873 Z-1.248
X-37.846 Y-15.726 Z-1.25
X-37.871 Y-15.58 Z-1.251
X-37.906 Y-15.435 Z-1.253
X-37.951 Y-15.294 Z-1.254
X-38.005 Y-15.156 Z-1.256
X-38.069 Y-15.023 Z-1.257
X-38.142 Y-14.894 Z-1.259
X-38.223 Y-14.771 Z-1.26
X-38.312 Y-14.653 Z-1.262
X-38.409 Y-14.542 Z-1.263
X-38.513 Y-14.438 Z-1.265
X-38.625 Y-14.341 Z-1.266
X-38.742 Y-14.252 Z-1.268
X-38.865 Y-14.171 Z-1.269
X-38.994 Y-14.1 Z-1.271
X-39.126 Y-14.037 Z-1.272
X-39.263 Y-13.983 Z-1.274
X-39.403 Y-13.939 Z-1.275
X-39.545 Y-13.904 Z-1.277
X-39.69 Y-13.88 Z-1.278
X-39.836 Y-13.865 Z-1.28
X-39.982 Y-13.86 Z-1.281
X-40.128 Y-13.865 Z-1.283
X-40.273 Y-13.881 Z-1.284
X-40.417 Y-13.906 Z-1.286
X-40.559 Y-13.941 Z-1.287
X-40.698 Y-13.985 Z-1.289
X-40.833 Y-14.039 Z-1.29
X-40.965 Y-14.102 Z-1.292
X-41.091 Y-14.173 Z-1.293
X-41.213 Y-14.253 Z-1.295
X-41.328 Y-14.341 Z-1.296
X-41.437 Y-14.437 Z-1.298
X-41.54 Y-14.54 Z-1.299
X-41.635 Y-14.649 Z-1.301
X-41.722 Y-14.765 Z-1.302
X-41.801 Y-14.886 Z-1.304
X-41.871 Y-15.013 Z-1.305
X-41.933 Y-15.144 Z-1.307
X-41.986 Y-15.278 Z-1.308
X-42.029 Y-15.416 Z-1.31
X-42.063 Y-15.556 Z-1.311
X-42.087 Y-15.698 Z-1.313
X-42.101 Y-15.842 Z-1.314
X-42.105 Y-15.986 Z-1.316
X-42.1 Y-16.129 Z-1.317
X-42.085 Y-16.272 Z-1.319
X-42.06 Y-16.414 Z-1.32
X-42.025 Y-16.553 Z-1.322
X-41.981 Y-16.69 Z-1.323
X-41.928 Y-16.823 Z-1.325
X-41.866 Y-16.952 Z-1.326
X-41.795 Y-17.076 Z-1.328
X-41.716 Y-17.196 Z-1.329
X-41.63 Y-17.309 Z-1.331
X-41.535 Y-17.416 Z-1.332
X-41.434 Y-17.517 Z-1.334
X-41.326 Y-17.61 Z-1.335
X-41.212 Y-17.696 Z-1.337
X-41.092 Y-17.773 Z-1.339
X-40.968 Y-17.842 Z-1.34
X-40.839 Y-17.903 Z-1.342
X-40.707 Y-17.954 Z-1.343
X-40.571 Y-17.997 Z-1.345
X-40.433 Y-18.029 Z-1.346
X-40.293 Y-18.053 Z-1.348
X-40.152 Y-18.067 Z-1.349
X-40.011 Y-18.071 Z-1.351
X-39.869 Y-18.065 Z-1.352
X-39.729 Y-18.05 Z-1.354
X-39.59 Y-18.025 Z-1.355
X-39.453 Y-17.991 Z-1.357
X-39.319 Y-17.947 Z-1.358
X-39.188 Y-17.895 Z-1.36
X-39.061 Y-17.834 Z-1.361
X-38.939 Y-17.764 Z-1.363
X-38.821 Y-17.686 Z-1.364
X-38.71 Y-17.6 Z-1.366
X-38.605 Y-17.507 Z-1.367
X-38.506 Y-17.408 Z-1.369
X-38.415 Y-17.301 Z-1.37
X-38.331 Y-17.189 Z-1.372
X-38.255 Y-17.071 Z-1.373
X-38.187 Y-16.949 Z-1.375
X-38.128 Y-16.822 Z-1.376
X-38.077 Y-16.692 Z-1.378
X-38.036 Y-16.559 Z-1.379
X-38.004 Y-16.423 Z-1.381
X-37.981 Y-16.285 Z-1.382
X-37.968 Y-16.147 Z-1.384
X-37.964 Y-16.007 Z-1.385
X-37.97 Y-15.868 Z-1.387
X-37.985 Y-15.73 Z-1.388
X-38.01 Y-15.593 Z-1.39
X-38.043 Y-15.459 Z-1.391
X-38.086 Y-15.327 Z-1.393
X-38.138 Y-15.198 Z-1.394
X-38.199 Y-15.074 Z-1.396
X-38.267 Y-14.954 Z-1.397
X-38.344 Y-14.839 Z-1.399
X-38.429 Y-14.729 Z-1.4
X-38.52 Y-14.626 Z-1.402
X-38.619 Y-14.529 Z-1.403
X-38.723 Y-14.439 Z-1.405
X-38.834 Y-14.357 Z-1.406
X-38.949 Y-14.282 Z-1.408
X-39.07 Y-14.216 Z-1.409
X-39.195 Y-14.158 Z-1.411
X-39.323 Y-14.109 Z-1.412
X-39.454 Y-14.068 Z-1.414
X-39.588 Y-14.037 Z-1.415
X-39.723 Y-14.015 Z-1.417
X-39.859 Y-14.002 Z-1.418
X-39.996 Y-13.999 Z-1.42
X-40.133 Y-14.005 Z-1.421
X-40.268 Y-14.02 Z-1.423
X-40.403 Y-14.044 Z-1.424
X-40.535 Y-14.078 Z-1.426
X-40.665 Y-14.12 Z-1.427
X-40.791 Y-14.171 Z-1.429
X-40.913 Y-14.231 Z-1.43
X-41.031 Y-14.299 Z-1.432
X-41.144 Y-14.374 Z-1.433
X-41.251 Y-14.458 Z-1.435
X-41.353 Y-14.548 Z-1.436
X-41.448 Y-14.645 Z-1.438
X-41.536 Y-14.748 Z-1.439
X-41.617 Y-14.856 Z-1.441
X-41.69 Y-14.97 Z-1.443
X-41.755 Y-15.089 Z-1.444
X-41.811 Y-15.211 Z-1.446
X-41.86 Y-15.337 Z-1.447
X-41.899 Y-15.466 Z-1.449
X-41.93 Y-15.598 Z-1.45
X-41.951 Y-15.731 Z-1.452
X-41.964 Y-15.865 Z-1.453
X-41.967 Y-15.999 Z-1.455
X-41.961 Y-16.133 Z-1.456
X-41.945 Y-16.267 Z-1.458
X-41.921 Y-16.399 Z-1.459
X-41.888 Y-16.529 Z-1.461
X-41.846 Y-16.656 Z-1.462
X-41.796 Y-16.78 Z-1.464
X-41.737 Y-16.9 Z-1.465
X-41.67 Y-17.016 Z-1.467
X-41.595 Y-17.127 Z-1.468
X-41.513 Y-17.232 Z-1.47
X-41.425 Y-17.332 Z-1.471
X-41.329 Y-17.425 Z-1.473
X-41.228 Y-17.511 Z-1.474
X-41.121 Y-17.59 Z-1.476
X-41.009 Y-17.662 Z-1.477
X-40.892 Y-17.725 Z-1.479
X-40.772 Y-17.781 Z-1.48
X-40.648 Y-17.828 Z-1.482
X-40.521 Y-17.867 Z-1.483
X-40.392 Y-17.896 Z-1.485
X-40.261 Y-17.917 Z-1.486
X-40.13 Y-17.929 Z-1.488
X-39.998 Y-17.932 Z-1.489
X-39.866 Y-17.926 Z-1.491
X-39.735 Y-17.911 Z-1.492
X-39.605 Y-17.887 Z-1.494
X-39.478 Y-17.854 Z-1.495
X-39.353 Y-17.812 Z-1.497
X-39.231 Y-17.762 Z-1.498
X-39.113 Y-17.704 Z-1.5
X-39 Y-17.639 Z-1.501
X-38.891 Y-17.565 Z-1.503
X-38.787 Y-17.485 Z-1.504
X-38.69 Y-17.397 Z-1.506
X-38.599 Y-17.303 Z-1.507
X-38.514 Y-17.204 Z-1.509
X-38.436 Y-17.099 Z-1.51
X-38.366 Y-16.988 Z-1.512
X-38.304 Y-16.874 Z-1.513
X-38.25 Y-16.755 Z-1.515
X-38.204 Y-16.633 Z-1.516
X-38.166 Y-16.509 Z-1.518
X-38.137 Y-16.382 Z-1.519
X-38.117 Y-16.254 Z-1.521
X-38.105 Y-16.124 Z-1.522
X-38.103 Y-15.995 Z-1.524
X-38.109 Y-15.865 Z-1.525
X-38.124 Y-15.736 Z-1.527
X-38.148 Y-15.609 Z-1.528
X-38.18 Y-15.484 Z-1.53
X-38.221 Y-15.361 Z-1.531
X-38.271 Y-15.242 Z-1.533
X-38.328 Y-15.126 Z-1.534
X-38.393 Y-15.015 Z-1.536
X-38.465 Y-14.908 Z-1.537
X-38.544 Y-14.807 Z-1.539
X-38.63 Y-14.711 Z-1.54
X-38.722 Y-14.622 Z-1.542
X-38.82 Y-14.539 Z-1.544
X-38.924 Y-14.463 Z-1.545
X-39.032 Y-14.394 Z-1.547
X-39.145 Y-14.333 Z-1.548
X-39.261 Y-14.28 Z-1.55
X-39.381 Y-14.235 Z-1.551
X-39.503 Y-14.199 Z-1.553
X-39.628 Y-14.17 Z-1.554
X-39.754 Y-14.151 Z-1.556
X-39.881 Y-14.14 Z-1.557
X-40.008 Y-14.137 Z-1.559
X-40.135 Y-14.144 Z-1.56
X-40.262 Y-14.159 Z-1.562
X-40.387 Y-14.183 Z-1.563
X-40.509 Y-14.215 Z-1.565
X-40.63 Y-14.255 Z-1.566
X-40.747 Y-14.303 Z-1.568
X-40.86 Y-14.36 Z-1.569
X-40.969 Y-14.424 Z-1.571
X-41.074 Y-14.495 Z-1.572
X-41.173 Y-14.573 Z-1.574
X-41.267 Y-14.657 Z-1.575
X-41.355 Y-14.748 Z-1.577
X-41.436 Y-14.845 Z-1.578
X-41.51 Y-14.946 Z-1.58
X-41.577 Y-15.053 Z-1.581
X-41.637 Y-15.163 Z-1.583
X-41.689 Y-15.278 Z-1.584
X-41.733 Y-15.395 Z-1.586
X-41.769 Y-15.515 Z-1.587
X-41.796 Y-15.638 Z-1.589
X-41.815 Y-15.761 Z-1.59
X-41.826 Y-15.886 Z-1.592
X-41.828 Y-16.011 Z-1.593
X-41.821 Y-16.136 Z-1.595
X-41.806 Y-16.26 Z-1.596
X-41.783 Y-16.382 Z-1.598
X-41.751 Y-16.503 Z-1.599
X-41.711 Y-16.621 Z-1.601
X-41.664 Y-16.735 Z-1.602
X-41.608 Y-16.847 Z-1.604
X-41.545 Y-16.954 Z-1.605
X-41.475 Y-17.056 Z-1.607
X-41.398 Y-17.154 Z-1.608
X-41.315 Y-17.245 Z-1.61
X-41.226 Y-17.331 Z-1.611
X-41.131 Y-17.411 Z-1.613
X-41.032 Y-17.483 Z-1.614
X-40.927 Y-17.549 Z-1.616
X-40.818 Y-17.608 Z-1.617
X-40.706 Y-17.658 Z-1.619
X-40.591 Y-17.701 Z-1.62
X-40.473 Y-17.736 Z-1.622
X-40.353 Y-17.763 Z-1.623
X-40.231 Y-17.781 Z-1.625
X-40.109 Y-17.792 Z-1.626
X-39.986 Y-17.793 Z-1.628
X-39.864 Y-17.787 Z-1.629
X-39.742 Y-17.772 Z-1.631
X-39.622 Y-17.748 Z-1.632
X-39.504 Y-17.717 Z-1.634
X-39.388 Y-17.678 Z-1.635
X-39.276 Y-17.631 Z-1.637
X-39.167 Y-17.576 Z-1.638
X-39.062 Y-17.514 Z-1.64
X-38.962 Y-17.445 Z-1.641
X-38.866 Y-17.37 Z-1.643
X-38.776 Y-17.288 Z-1.644
X-38.692 Y-17.201 Z-1.646
X-38.615 Y-17.107 Z-1.648
X-38.543 Y-17.009 Z-1.649
X-38.479 Y-16.907 Z-1.651
X-38.422 Y-16.8 Z-1.652
X-38.372 Y-16.69 Z-1.654
X-38.331 Y-16.577 Z-1.655
X-38.297 Y-16.461 Z-1.657
X-38.271 Y-16.343 Z-1.658
X-38.253 Y-16.224 Z-1.66
X-38.243 Y-16.104 Z-1.661
X-38.241 Y-15.984 Z-1.663
X-38.248 Y-15.864 Z-1.664
X-38.263 Y-15.745 Z-1.666
X-38.286 Y-15.627 Z-1.667
X-38.317 Y-15.511 Z-1.669
X-38.356 Y-15.398 Z-1.67
X-38.402 Y-15.287 Z-1.672
X-38.456 Y-15.181 Z-1.673
X-38.517 Y-15.078 Z-1.675
X-38.584 Y-14.98 Z-1.676
X-38.659 Y-14.886 Z-1.678
X-38.739 Y-14.798 Z-1.679
X-38.825 Y-14.716 Z-1.681
X-38.916 Y-14.64 Z-1.682
X-39.013 Y-14.57 Z-1.684
X-39.113 Y-14.507 Z-1.685
X-39.218 Y-14.452 Z-1.687
X-39.326 Y-14.403 Z-1.688
X-39.437 Y-14.362 Z-1.69
X-39.551 Y-14.329 Z-1.691
X-39.666 Y-14.304 Z-1.693
X-39.783 Y-14.287 Z-1.694
X-39.901 Y-14.277 Z-1.696
X-40.019 Y-14.276 Z-1.697
X-40.136 Y-14.283 Z-1.699
X-40.253 Y-14.298 Z-1.7
X-40.369 Y-14.321 Z-1.702
X-40.482 Y-14.351 Z-1.703
X-40.593 Y-14.389 Z-1.705
X-40.701 Y-14.435 Z-1.706
X-40.806 Y-14.488 Z-1.708
X-40.906 Y-14.548 Z-1.709
X-41.002 Y-14.614 Z-1.711
X-41.094 Y-14.687 Z-1.712
X-41.18 Y-14.766 Z-1.714
X-41.26 Y-14.85 Z-1.715
X-41.335 Y-14.94 Z-1.717
X-41.403 Y-15.035 Z-1.718
X-41.464 Y-15.133 Z-1.72
X-41.519 Y-15.236 Z-1.721
X-41.566 Y-15.342 Z-1.723
X-41.606 Y-15.451 Z-1.724
X-41.638 Y-15.563 Z-1.726
X-41.663 Y-15.676 Z-1.727
X-41.679 Y-15.79 Z-1.729
X-41.688 Y-15.906 Z-1.73
X-41.689 Y-16.021 Z-1.732
X-41.682 Y-16.136 Z-1.733
X-41.668 Y-16.251 Z-1.735
X-41.645 Y-16.364 Z-1.736
X-41.615 Y-16.475 Z-1.738
X-41.577 Y-16.584 Z-1.739
X-41.532 Y-16.689 Z-1.741
X-41.48 Y-16.792 Z-1.742
X-41.422 Y-16.89 Z-1.744
X-41.356 Y-16.984 Z-1.745
X-41.285 Y-17.074 Z-1.747
X-41.207 Y-17.158 Z-1.748
X-41.124 Y-17.237 Z-1.75
X-41.036 Y-17.309 Z-1.752
X-40.943 Y-17.376 Z-1.753
X-40.847 Y-17.436 Z-1.755
X-40.746 Y-17.489 Z-1.756
X-40.642 Y-17.535 Z-1.758
X-40.535 Y-17.574 Z-1.759
X-40.426 Y-17.605 Z-1.761
X-40.315 Y-17.629 Z-1.762
X-40.203 Y-17.645 Z-1.764
X-40.09 Y-17.654 Z-1.765
X-39.977 Z-1.767
X-39.864 Y-17.647 Z-1.768
X-39.752 Y-17.633 Z-1.77
X-39.641 Y-17.611 Z-1.771
X-39.532 Y-17.581 Z-1.773
X-39.426 Y-17.544 Z-1.774
X-39.322 Y-17.5 Z-1.776
X-39.222 Y-17.449 Z-1.777
X-39.126 Y-17.391 Z-1.779
X-39.034 Y-17.327 Z-1.78
X-38.946 Y-17.256 Z-1.782
X-38.864 Y-17.18 Z-1.783
X-38.787 Y-17.099 Z-1.785
X-38.716 Y-17.013 Z-1.786
X-38.651 Y-16.922 Z-1.788
X-38.593 Y-16.827 Z-1.789
X-38.541 Y-16.728 Z-1.791
X-38.496 Y-16.626 Z-1.792
X-38.458 Y-16.521 Z-1.794
X-38.428 Y-16.414 Z-1.795
X-38.405 Y-16.306 Z-1.797
X-38.389 Y-16.196 Z-1.798
X-38.381 Y-16.085 Z-1.8
X-38.38 Y-15.974 Z-1.801
X-38.387 Y-15.864 Z-1.803
X-38.402 Y-15.754 Z-1.804
X-38.424 Y-15.646 Z-1.806
X-38.453 Y-15.54 Z-1.807
X-38.49 Y-15.436 Z-1.809
X-38.533 Y-15.334 Z-1.81
X-38.583 Y-15.236 Z-1.812
X-38.64 Y-15.142 Z-1.813
X-38.703 Y-15.052 Z-1.815
X-38.772 Y-14.967 Z-1.816
X-38.846 Y-14.886 Z-1.818
X-38.926 Y-14.811 Z-1.819
X-39.011 Y-14.742 Z-1.821
X-39.1 Y-14.679 Z-1.822
X-39.193 Y-14.621 Z-1.824
X-39.29 Y-14.571 Z-1.825
X-39.39 Y-14.527 Z-1.827
X-39.492 Y-14.49 Z-1.828
X-39.597 Y-14.461 Z-1.83
X-39.703 Y-14.438 Z-1.831
X-39.811 Y-14.423 Z-1.833
X-39.919 Y-14.415 Z-1.834
X-40.028 Z-1.836
X-40.136 Y-14.422 Z-1.837
X-40.243 Y-14.436 Z-1.839
X-40.349 Y-14.458 Z-1.84
X-40.453 Y-14.487 Z-1.842
X-40.555 Y-14.523 Z-1.843
X-40.654 Y-14.566 Z-1.845
X-40.749 Y-14.615 Z-1.846
X-40.841 Y-14.671 Z-1.848
X-40.929 Y-14.733 Z-1.849
X-41.013 Y-14.8 Z-1.851
X-41.091 Y-14.873 Z-1.853
X-41.165 Y-14.951 Z-1.854
X-41.232 Y-15.034 Z-1.856
X-41.294 Y-15.122 Z-1.857
X-41.35 Y-15.213 Z-1.859
X-41.399 Y-15.308 Z-1.86
X-41.442 Y-15.405 Z-1.862
X-41.478 Y-15.506 Z-1.863
X-41.507 Y-15.608 Z-1.865
X-41.528 Y-15.712 Z-1.866
X-41.543 Y-15.818 Z-1.868
X-41.55 Y-15.923 Z-1.869
Y-16.029 Z-1.871
X-41.543 Y-16.135 Z-1.872
X-41.529 Y-16.24 Z-1.874
X-41.507 Y-16.344 Z-1.875
X-41.479 Y-16.445 Z-1.877
X-41.444 Y-16.545 Z-1.878
X-41.402 Y-16.642 Z-1.88
X-41.353 Y-16.735 Z-1.881
X-41.299 Y-16.825 Z-1.883
X-41.238 Y-16.911 Z-1.884
X-41.172 Y-16.992 Z-1.886
X-41.1 Y-17.069 Z-1.887
X-41.024 Y-17.141 Z-1.889
X-40.942 Y-17.207 Z-1.89
X-40.857 Y-17.267 Z-1.892
X-40.768 Y-17.321 Z-1.893
X-40.675 Y-17.369 Z-1.895
X-40.579 Y-17.411 Z-1.896
X-40.481 Y-17.446 Z-1.898
X-40.381 Y-17.474 Z-1.899
X-40.279 Y-17.495 Z-1.901
X-40.176 Y-17.509 Z-1.902
X-40.072 Y-17.516 Z-1.904
X-39.969 Z-1.905
X-39.865 Y-17.508 Z-1.907
X-39.763 Y-17.494 Z-1.908
X-39.662 Y-17.473 Z-1.91
X-39.562 Y-17.445 Z-1.911
X-39.465 Y-17.41 Z-1.913
X-39.371 Y-17.369 Z-1.914
X-39.279 Y-17.322 Z-1.916
X-39.192 Y-17.268 Z-1.917
X-39.108 Y-17.209 Z-1.919
X-39.028 Y-17.144 Z-1.92
X-38.953 Y-17.074 Z-1.922
X-38.884 Y-16.999 Z-1.923
X-38.819 Y-16.919 Z-1.925
X-38.76 Y-16.835 Z-1.926
X-38.708 Y-16.748 Z-1.928
X-38.661 Y-16.657 Z-1.929
X-38.62 Y-16.564 Z-1.931
X-38.587 Y-16.468 Z-1.932
X-38.559 Y-16.37 Z-1.934
X-38.539 Y-16.27 Z-1.935
X-38.525 Y-16.17 Z-1.937
X-38.519 Y-16.068 Z-1.938
Y-15.967 Z-1.94
X-38.526 Y-15.866 Z-1.941
X-38.54 Y-15.766 Z-1.943
X-38.561 Y-15.667 Z-1.944
X-38.589 Y-15.57 Z-1.946
X-38.623 Y-15.475 Z-1.947
X-38.663 Y-15.383 Z-1.949
X-38.71 Y-15.294 Z-1.95
X-38.762 Y-15.208 Z-1.952
X-38.821 Y-15.126 Z-1.953
X-38.884 Y-15.049 Z-1.955
X-38.953 Y-14.976 Z-1.957
X-39.026 Y-14.908 Z-1.958
X-39.104 Y-14.845 Z-1.96
X-39.186 Y-14.788 Z-1.961
X-39.271 Y-14.736 Z-1.963
X-39.36 Y-14.691 Z-1.964
X-39.452 Y-14.652 Z-1.966
X-39.545 Y-14.619 Z-1.967
X-39.641 Y-14.592 Z-1.969
X-39.738 Y-14.573 Z-1.97
X-39.837 Y-14.56 Z-1.972
X-39.936 Y-14.553 Z-1.973
X-40.035 Y-14.554 Z-1.975
X-40.133 Y-14.561 Z-1.976
X-40.231 Y-14.575 Z-1.978
X-40.327 Y-14.596 Z-1.979
X-40.422 Y-14.623 Z-1.981
X-40.515 Y-14.656 Z-1.982
X-40.605 Y-14.696 Z-1.984
X-40.692 Y-14.741 Z-1.985
X-40.775 Y-14.793 Z-1.987
X-40.855 Y-14.85 Z-1.988
X-40.93 Y-14.912 Z-1.99
X-41.002 Y-14.979 Z-1.991
X-41.068 Y-15.051 Z-1.993
X-41.129 Y-15.127 Z-1.994
X-41.185 Y-15.207 Z-1.996
X-41.235 Y-15.291 Z-1.997
X-41.279 Y-15.377 Z-1.999
X-41.317 Y-15.467 Z-2
X-41.349 Y-15.558 Z-2.002
X-41.375 Y-15.652 Z-2.003
X-41.394 Y-15.747 Z-2.005
X-41.406 Y-15.843 Z-2.006
X-41.412 Y-15.939 Z-2.008
X-41.411 Y-16.036 Z-2.009
X-41.404 Y-16.132 Z-2.011
X-41.39 Y-16.228 Z-2.012
X-41.37 Y-16.322 Z-2.014
X-41.344 Y-16.414 Z-2.015
X-41.311 Y-16.504 Z-2.017
X-41.272 Y-16.592 Z-2.018
X-41.227 Y-16.677 Z-2.02
X-41.177 Y-16.758 Z-2.021
X-41.121 Y-16.836 Z-2.023
X-41.06 Y-16.91 Z-2.024
X-40.994 Y-16.979 Z-2.026
X-40.924 Y-17.043 Z-2.027
X-40.85 Y-17.103 Z-2.029
X-40.772 Y-17.157 Z-2.03
X-40.69 Y-17.206 Z-2.032
X-40.605 Y-17.249 Z-2.033
X-40.518 Y-17.286 Z-2.035
X-40.429 Y-17.317 Z-2.036
X-40.337 Y-17.342 Z-2.038
X-40.245 Y-17.36 Z-2.039
X-40.151 Y-17.372 Z-2.041
X-40.057 Y-17.378 Z-2.042
X-39.963 Y-17.377 Z-2.044
X-39.869 Y-17.37 Z-2.045
X-39.776 Y-17.356 Z-2.047
X-39.684 Y-17.336 Z-2.048
X-39.594 Y-17.31 Z-2.05
X-39.506 Y-17.278 Z-2.051
X-39.421 Y-17.239 Z-2.053
X-39.338 Y-17.196 Z-2.054
X-39.259 Y-17.146 Z-2.056
X-39.183 Y-17.092 Z-2.058
X-39.111 Y-17.032 Z-2.059
X-39.044 Y-16.968 Z-2.061
X-38.981 Y-16.9 Z-2.062
X-38.923 Y-16.827 Z-2.064
X-38.871 Y-16.751 Z-2.065
X-38.823 Y-16.671 Z-2.067
X-38.781 Y-16.588 Z-2.068
X-38.745 Y-16.503 Z-2.07
X-38.715 Y-16.416 Z-2.071
X-38.692 Y-16.327 Z-2.073
X-38.674 Y-16.236 Z-2.074
X-38.662 Y-16.145 Z-2.076
X-38.657 Y-16.053 Z-2.077
X-38.658 Y-15.961 Z-2.079
X-38.665 Y-15.87 Z-2.08
X-38.679 Y-15.779 Z-2.082
X-38.698 Y-15.69 Z-2.083
X-38.724 Y-15.602 Z-2.085
X-38.756 Y-15.517 Z-2.086
X-38.793 Y-15.433 Z-2.088
X-38.836 Y-15.353 Z-2.089
X-38.884 Y-15.276 Z-2.091
X-38.937 Y-15.202 Z-2.092
X-38.995 Y-15.132 Z-2.094
X-39.058 Y-15.067 Z-2.095
X-39.125 Y-15.006 Z-2.097
X-39.196 Y-14.949 Z-2.098
X-39.27 Y-14.898 Z-2.1
X-39.348 Y-14.852 Z-2.101
X-39.429 Y-14.812 Z-2.103
X-39.512 Y-14.777 Z-2.104
X-39.597 Y-14.748 Z-2.106
X-39.684 Y-14.725 Z-2.107
X-39.772 Y-14.708 Z-2.109
X-39.861 Y-14.696 Z-2.11
X-39.95 Y-14.691 Z-2.112
X-40.04 Y-14.693 Z-2.113
X-40.129 Y-14.7 Z-2.115
X-40.217 Y-14.713 Z-2.116
X-40.304 Y-14.733 Z-2.118
X-40.389 Y-14.758 Z-2.119
X-40.473 Y-14.789 Z-2.121
X-40.554 Y-14.825 Z-2.122
X-40.632 Y-14.867 Z-2.124
X-40.707 Y-14.914 Z-2.125
X-40.779 Y-14.966 Z-2.127
X-40.847 Y-15.023 Z-2.128
X-40.91 Y-15.084 Z-2.13
X-40.97 Y-15.149 Z-2.131
X-41.024 Y-15.219 Z-2.133
X-41.074 Y-15.291 Z-2.134
X-41.119 Y-15.367 Z-2.136
X-41.158 Y-15.446 Z-2.137
X-41.192 Y-15.526 Z-2.139
X-41.22 Y-15.609 Z-2.14
X-41.242 Y-15.694 Z-2.142
X-41.259 Y-15.78 Z-2.143
X-41.269 Y-15.867 Z-2.145
X-41.274 Y-15.954 Z-2.146
X-41.273 Y-16.041 Z-2.148
X-41.265 Y-16.127 Z-2.149
X-41.252 Y-16.213 Z-2.151
X-41.233 Y-16.298 Z-2.152
X-41.209 Y-16.381 Z-2.154
X-41.178 Y-16.462 Z-2.155
X-41.143 Y-16.541 Z-2.157
X-41.102 Y-16.617 Z-2.158
X-41.056 Y-16.69 Z-2.16
X-41.005 Y-16.76 Z-2.162
X-40.95 Y-16.825 Z-2.163
X-40.89 Y-16.887 Z-2.165
X-40.826 Y-16.945 Z-2.166
X-40.759 Y-16.998 Z-2.168
X-40.688 Y-17.046 Z-2.169
X-40.614 Y-17.089 Z-2.171
X-40.538 Y-17.128 Z-2.172
X-40.459 Y-17.16 Z-2.174
X-40.378 Y-17.187 Z-2.175
X-40.296 Y-17.209 Z-2.177
X-40.212 Y-17.225 Z-2.178
X-40.128 Y-17.235 Z-2.18
X-40.043 Y-17.239 Z-2.181
X-39.958 Y-17.238 Z-2.183
X-39.874 Y-17.231 Z-2.184
X-39.791 Y-17.218 Z-2.186
X-39.708 Y-17.199 Z-2.187
X-39.627 Y-17.175 Z-2.189
X-39.549 Y-17.145 Z-2.19
X-39.472 Y-17.11 Z-2.192
X-39.398 Y-17.07 Z-2.193
X-39.327 Y-17.026 Z-2.195
X-39.26 Y-16.976 Z-2.196
X-39.196 Y-16.922 Z-2.198
X-39.136 Y-16.864 Z-2.199
X-39.08 Y-16.802 Z-2.201
X-39.028 Y-16.736 Z-2.202
X-38.982 Y-16.667 Z-2.204
X-38.94 Y-16.595 Z-2.205
X-38.903 Y-16.521 Z-2.207
X-38.871 Y-16.444 Z-2.208
X-38.845 Y-16.366 Z-2.21
X-38.824 Y-16.286 Z-2.211
X-38.809 Y-16.204 Z-2.213
X-38.799 Y-16.122 Z-2.214
X-38.795 Y-16.04 Z-2.216
X-38.797 Y-15.958 Z-2.217
X-38.804 Y-15.876 Z-2.219
X-38.817 Y-15.795 Z-2.22
X-38.835 Y-15.715 Z-2.222
X-38.859 Y-15.636 Z-2.223
X-38.888 Y-15.56 Z-2.225
X-38.922 Y-15.485 Z-2.226
X-38.961 Y-15.413 Z-2.228
X-39.004 Y-15.345 Z-2.229
X-39.053 Y-15.279 Z-2.231
X-39.105 Y-15.217 Z-2.232
X-39.162 Y-15.159 Z-2.234
X-39.222 Y-15.105 Z-2.235
X-39.286 Y-15.055 Z-2.237
X-39.353 Y-15.01 Z-2.238
X-39.423 Y-14.969 Z-2.24
X-39.496 Y-14.933 Z-2.241
X-39.57 Y-14.903 Z-2.243
X-39.647 Y-14.878 Z-2.244
X-39.724 Y-14.857 Z-2.246
X-39.803 Y-14.843 Z-2.247
X-39.883 Y-14.834 Z-2.249
X-39.963 Y-14.83 Z-2.25
X-40.043 Y-14.832 Z-2.252
X-40.123 Y-14.839 Z-2.253
X-40.201 Y-14.851 Z-2.255
X-40.279 Y-14.869 Z-2.256
X-40.355 Y-14.892 Z-2.258
X-40.429 Y-14.921 Z-2.259
X-40.502 Y-14.954 Z-2.261
X-40.571 Y-14.992 Z-2.262
X-40.638 Y-15.034 Z-2.264
X-40.701 Y-15.081 Z-2.266
X-40.761 Y-15.133 Z-2.267
X-40.818 Y-15.188 Z-2.269
X-40.87 Y-15.246 Z-2.27
X-40.919 Y-15.309 Z-2.272
X-40.962 Y-15.374 Z-2.273
X-41.002 Y-15.442 Z-2.275
X-41.036 Y-15.512 Z-2.276
X-41.066 Y-15.585 Z-2.278
X-41.09 Y-15.659 Z-2.279
X-41.109 Y-15.734 Z-2.281
X-41.123 Y-15.811 Z-2.282
X-41.132 Y-15.888 Z-2.284
X-41.136 Y-15.966 Z-2.285
X-41.134 Y-16.044 Z-2.287
X-41.127 Y-16.121 Z-2.288
X-41.114 Y-16.197 Z-2.29
X-41.097 Y-16.273 Z-2.291
X-41.074 Y-16.346 Z-2.293
X-41.047 Y-16.418 Z-2.294
X-41.014 Y-16.488 Z-2.296
X-40.977 Y-16.556 Z-2.297
X-40.936 Y-16.62 Z-2.299
X-40.89 Y-16.682 Z-2.3
X-40.84 Y-16.74 Z-2.302
X-40.787 Y-16.795 Z-2.303
X-40.729 Y-16.845 Z-2.305
X-40.669 Y-16.892 Z-2.306
X-40.606 Y-16.934 Z-2.308
X-40.54 Y-16.972 Z-2.309
X-40.471 Y-17.005 Z-2.311
X-40.401 Y-17.034 Z-2.312
X-40.329 Y-17.057 Z-2.314
X-40.256 Y-17.076 Z-2.315
X-40.181 Y-17.089 Z-2.317
X-40.106 Y-17.098 Z-2.318
X-40.031 Y-17.101 Z-2.32
X-39.956 Y-17.099 Z-2.321
X-39.881 Y-17.092 Z-2.323
X-39.807 Y-17.08 Z-2.324
X-39.734 Y-17.063 Z-2.326
X-39.663 Y-17.041 Z-2.327
X-39.593 Y-17.014 Z-2.329
X-39.525 Y-16.982 Z-2.33
X-39.46 Y-16.946 Z-2.332
X-39.397 Y-16.906 Z-2.333
X-39.338 Y-16.861 Z-2.335
X-39.282 Y-16.813 Z-2.336
X-39.229 Y-16.761 Z-2.338
X-39.18 Y-16.705 Z-2.339
X-39.135 Y-16.647 Z-2.341
X-39.094 Y-16.585 Z-2.342
X-39.057 Y-16.521 Z-2.344
X-39.025 Y-16.455 Z-2.345
X-38.998 Y-16.387 Z-2.347
X-38.975 Y-16.317 Z-2.348
X-38.957 Y-16.246 Z-2.35
X-38.944 Y-16.174 Z-2.351
X-38.937 Y-16.101 Z-2.353
X-38.934 Y-16.028 Z-2.354
X-38.936 Y-15.956 Z-2.356
X-38.943 Y-15.883 Z-2.357
X-38.955 Y-15.811 Z-2.359
X-38.971 Y-15.741 Z-2.36
X-38.993 Y-15.672 Z-2.362
X-39.019 Y-15.604 Z-2.363
X-39.05 Y-15.539 Z-2.365
X-39.085 Y-15.476 Z-2.367
X-39.124 Y-15.415 Z-2.368
X-39.167 Y-15.358 Z-2.37
X-39.214 Y-15.303 Z-2.371
X-39.265 Y-15.252 Z-2.373
X-39.318 Y-15.205 Z-2.374
X-39.375 Y-15.161 Z-2.376
X-39.435 Y-15.122 Z-2.377
X-39.497 Y-15.087 Z-2.379
X-39.561 Y-15.056 Z-2.38
X-39.627 Y-15.03 Z-2.382
X-39.695 Y-15.008 Z-2.383
X-39.764 Y-14.991 Z-2.385
X-39.833 Y-14.978 Z-2.386
X-39.904 Y-14.971 Z-2.388
X-39.974 Y-14.968 Z-2.389
X-40.045 Y-14.97 Z-2.391
X-40.115 Y-14.977 Z-2.392
X-40.184 Y-14.989 Z-2.394
X-40.252 Y-15.005 Z-2.395
X-40.319 Y-15.026 Z-2.397
X-40.384 Y-15.052 Z-2.398
X-40.448 Y-15.082 Z-2.4
X-40.508 Y-15.116 Z-2.401
X-40.567 Y-15.154 Z-2.403
X-40.622 Y-15.196 Z-2.404
X-40.675 Y-15.241 Z-2.406
X-40.724 Y-15.29 Z-2.407
X-40.77 Y-15.342 Z-2.409
X-40.812 Y-15.397 Z-2.41
X-40.85 Y-15.455 Z-2.412
X-40.884 Y-15.515 Z-2.413
X-40.913 Y-15.577 Z-2.415
X-40.939 Y-15.641 Z-2.416
X-40.96 Y-15.706 Z-2.418
X-40.976 Y-15.773 Z-2.419
X-40.988 Y-15.84 Z-2.421
X-40.995 Y-15.908 Z-2.422
X-40.997 Y-15.977 Z-2.424
X-40.995 Y-16.045 Z-2.425
X-40.988 Y-16.112 Z-2.427
X-40.977 Y-16.179 Z-2.428
X-40.961 Y-16.245 Z-2.43
X-40.94 Y-16.31 Z-2.431
X-40.915 Y-16.373 Z-2.433
X-40.886 Y-16.434 Z-2.434
X-40.853 Y-16.493 Z-2.436
X-40.817 Y-16.549 Z-2.437
X-40.776 Y-16.602 Z-2.439
X-40.732 Y-16.653 Z-2.44
X-40.684 Y-16.7 Z-2.442
X-40.634 Y-16.744 Z-2.443
X-40.581 Y-16.785 Z-2.445
X-40.525 Y-16.821 Z-2.446
X-40.467 Y-16.854 Z-2.448
X-40.407 Y-16.883 Z-2.449
X-40.345 Y-16.907 Z-2.451
X-40.282 Y-16.927 Z-2.452
X-40.218 Y-16.942 Z-2.454
X-40.152 Y-16.954 Z-2.455
X-40.087 Y-16.96 Z-2.457
X-40.021 Y-16.963 Z-2.458
X-39.955 Y-16.96 Z-2.46
X-39.89 Y-16.953 Z-2.461
X-39.825 Y-16.942 Z-2.463
X-39.762 Y-16.927 Z-2.464
X-39.7 Y-16.907 Z-2.466
X-39.639 Y-16.883 Z-2.467
X-39.58 Y-16.855 Z-2.469
X-39.523 Y-16.823 Z-2.471
X-39.469 Y-16.787 Z-2.472
X-39.418 Y-16.748 Z-2.474
X-39.369 Y-16.705 Z-2.475
X-39.323 Y-16.659 Z-2.477
X-39.281 Y-16.61 Z-2.478
X-39.242 Y-16.559 Z-2.48
X-39.207 Y-16.505 Z-2.481
X-39.176 Y-16.449 Z-2.483
X-39.148 Y-16.391 Z-2.484
X-39.125 Y-16.331 Z-2.486
X-39.106 Y-16.27 Z-2.487
X-39.091 Y-16.208 Z-2.489
X-39.08 Y-16.146 Z-2.49
X-39.074 Y-16.082 Z-2.492
X-39.072 Y-16.019 Z-2.493
X-39.074 Y-15.955 Z-2.495
X-39.081 Y-15.892 Z-2.496
X-39.092 Y-15.83 Z-2.498
X-39.107 Y-15.769 Z-2.499
X-39.127 Y-15.709 Z-2.501
X-39.15 Y-15.651 Z-2.502
X-39.177 Y-15.594 Z-2.504
X-39.208 Y-15.54 Z-2.505
X-39.243 Y-15.487 Z-2.507
X-39.281 Y-15.438 Z-2.508
X-39.322 Y-15.391 Z-2.51
X-39.366 Y-15.347 Z-2.511
X-39.413 Y-15.306 Z-2.513
X-39.463 Y-15.269 Z-2.514
X-39.515 Y-15.235 Z-2.516
X-39.569 Y-15.205 Z-2.517
X-39.625 Y-15.179 Z-2.519
X-39.682 Y-15.157 Z-2.52
X-39.741 Y-15.139 Z-2.522
X-39.801 Y-15.124 Z-2.523
X-39.861 Y-15.114 Z-2.525
X-39.922 Y-15.108 Z-2.526
X-39.983 Y-15.107 Z-2.528
X-40.044 Y-15.109 Z-2.529
X-40.105 Y-15.116 Z-2.531
X-40.165 Y-15.127 Z-2.532
X-40.224 Y-15.141 Z-2.534
X-40.281 Y-15.16 Z-2.535
X-40.338 Y-15.183 Z-2.537
X-40.392 Y-15.209 Z-2.538
X-40.444 Y-15.239 Z-2.54
X-40.494 Y-15.272 Z-2.541
X-40.542 Y-15.309 Z-2.543
X-40.587 Y-15.349 Z-2.544
X-40.629 Y-15.391 Z-2.546
X-40.668 Y-15.437 Z-2.547
X-40.704 Y-15.484 Z-2.549
X-40.736 Y-15.535 Z-2.55
X-40.765 Y-15.587 Z-2.552
X-40.79 Y-15.64 Z-2.553
X-40.811 Y-15.696 Z-2.555
X-40.829 Y-15.752 Z-2.556
X-40.842 Y-15.81 Z-2.558
X-40.852 Y-15.868 Z-2.559
X-40.857 Y-15.927 Z-2.561
X-40.859 Y-15.985 Z-2.562
X-40.856 Y-16.044 Z-2.564
X-40.85 Y-16.102 Z-2.565
X-40.839 Y-16.16 Z-2.567
X-40.825 Y-16.216 Z-2.568
X-40.807 Y-16.272 Z-2.57
X-40.785 Y-16.326 Z-2.572
X-40.759 Y-16.378 Z-2.573
X-40.731 Y-16.428 Z-2.575
X-40.698 Y-16.476 Z-2.576
X-40.663 Y-16.522 Z-2.578
X-40.625 Y-16.565 Z-2.579
X-40.584 Y-16.605 Z-2.581
X-40.54 Y-16.642 Z-2.582
X-40.494 Y-16.677 Z-2.584
X-40.446 Y-16.707 Z-2.585
X-40.396 Y-16.735 Z-2.587
X-40.344 Y-16.759 Z-2.588
X-40.291 Y-16.779 Z-2.59
X-40.236 Y-16.796 Z-2.591
X-40.181 Y-16.809 Z-2.593
X-40.125 Y-16.818 Z-2.594
X-40.069 Y-16.823 Z-2.596
X-40.013 Y-16.824 Z-2.597
X-39.956 Y-16.821 Z-2.599
X-39.901 Y-16.815 Z-2.6
X-39.845 Y-16.805 Z-2.602
X-39.791 Y-16.791 Z-2.603
X-39.738 Y-16.773 Z-2.605
X-39.686 Y-16.752 Z-2.606
X-39.636 Y-16.728 Z-2.608
X-39.588 Y-16.7 Z-2.609
X-39.542 Y-16.669 Z-2.611
X-39.499 Y-16.635 Z-2.612
X-39.457 Y-16.598 Z-2.614
X-39.419 Y-16.559 Z-2.615
X-39.383 Y-16.517 Z-2.617
X-39.351 Y-16.472 Z-2.618
X-39.321 Y-16.426 Z-2.62
X-39.295 Y-16.378 Z-2.621
X-39.272 Y-16.328 Z-2.623
X-39.253 Y-16.277 Z-2.624
X-39.237 Y-16.225 Z-2.626
X-39.225 Y-16.172 Z-2.627
X-39.217 Y-16.119 Z-2.629
X-39.212 Y-16.065 Z-2.63
X-39.211 Y-16.011 Z-2.632
X-39.213 Y-15.957 Z-2.633
X-39.22 Y-15.904 Z-2.635
X-39.229 Y-15.851 Z-2.636
X-39.243 Y-15.799 Z-2.638
X-39.26 Y-15.748 Z-2.639
X-39.28 Y-15.699 Z-2.641
X-39.304 Y-15.651 Z-2.642
X-39.331 Y-15.605 Z-2.644
X-39.36 Y-15.561 Z-2.645
X-39.393 Y-15.519 Z-2.647
X-39.428 Y-15.48 Z-2.648
X-39.466 Y-15.443 Z-2.65
X-39.507 Y-15.409 Z-2.651
X-39.549 Y-15.378 Z-2.653
X-39.593 Y-15.35 Z-2.654
X-39.639 Y-15.325 Z-2.656
X-39.687 Y-15.303 Z-2.657
X-39.736 Y-15.285 Z-2.659
X-39.786 Y-15.27 Z-2.66
X-39.836 Y-15.259 Z-2.662
X-39.888 Y-15.251 Z-2.663
X-39.939 Y-15.246 Z-2.665
X-39.991 Y-15.245 Z-2.666
X-40.042 Y-15.248 Z-2.668
X-40.093 Y-15.254 Z-2.669
X-40.144 Y-15.264 Z-2.671
X-40.193 Y-15.277 Z-2.672
X-40.242 Y-15.293 Z-2.674
X-40.289 Y-15.313 Z-2.676
X-40.335 Y-15.335 Z-2.677
X-40.379 Y-15.361 Z-2.679
X-40.42 Y-15.39 Z-2.68
X-40.46 Y-15.421 Z-2.682
X-40.498 Y-15.455 Z-2.683
X-40.533 Y-15.491 Z-2.685
X-40.565 Y-15.53 Z-2.686
X-40.595 Y-15.57 Z-2.688
X-40.621 Y-15.613 Z-2.689
X-40.645 Y-15.657 Z-2.691
X-40.666 Y-15.702 Z-2.692
X-40.683 Y-15.749 Z-2.694
X-40.697 Y-15.797 Z-2.695
X-40.708 Y-15.845 Z-2.697
X-40.715 Y-15.894 Z-2.698
X-40.719 Y-15.943 Z-2.7
X-40.72 Y-15.992 Z-2.701
X-40.717 Y-16.042 Z-2.703
X-40.711 Y-16.09 Z-2.704
X-40.702 Y-16.138 Z-2.706
X-40.69 Y-16.186 Z-2.707
X-40.674 Y-16.232 Z-2.709
X-40.655 Y-16.277 Z-2.71
X-40.633 Y-16.32 Z-2.712
X-40.609 Y-16.362 Z-2.713
X-40.581 Y-16.402 Z-2.715
X-40.551 Y-16.44 Z-2.716
X-40.519 Y-16.475 Z-2.718
X-40.484 Y-16.508 Z-2.719
X-40.447 Y-16.539 Z-2.721
X-40.409 Y-16.567 Z-2.722
X-40.368 Y-16.592 Z-2.724
X-40.326 Y-16.615 Z-2.725
X-40.283 Y-16.634 Z-2.727
X-40.238 Y-16.651 Z-2.728
X-40.193 Y-16.664 Z-2.73
X-40.147 Y-16.674 Z-2.731
X-40.1 Y-16.681 Z-2.733
X-40.053 Y-16.685 Z-2.734
X-40.006 Z-2.736
X-39.959 Y-16.683 Z-2.737
X-39.913 Y-16.677 Z-2.739
X-39.867 Y-16.668 Z-2.74
X-39.822 Y-16.656 Z-2.742
X-39.778 Y-16.641 Z-2.743
X-39.736 Y-16.623 Z-2.745
X-39.695 Y-16.602 Z-2.746
X-39.655 Y-16.578 Z-2.748
X-39.617 Y-16.552 Z-2.749
X-39.581 Y-16.523 Z-2.751
X-39.547 Y-16.492 Z-2.752
X-39.516 Y-16.459 Z-2.754
X-39.487 Y-16.424 Z-2.755
X-39.46 Y-16.387 Z-2.757
X-39.436 Y-16.349 Z-2.758
X-39.415 Y-16.309 Z-2.76
X-39.397 Y-16.268 Z-2.761
X-39.381 Y-16.225 Z-2.763
X-39.369 Y-16.182 Z-2.764
X-39.359 Y-16.138 Z-2.766
X-39.353 Y-16.094 Z-2.767
X-39.35 Y-16.049 Z-2.769
X-39.349 Y-16.005 Z-2.77
X-39.352 Y-15.96 Z-2.772
X-39.358 Y-15.916 Z-2.773
X-39.366 Y-15.873 Z-2.775
X-39.378 Y-15.83 Z-2.776
X-39.392 Y-15.789 Z-2.778
X-39.41 Y-15.748 Z-2.78
X-39.43 Y-15.709 Z-2.781
X-39.452 Y-15.672 Z-2.783
X-39.477 Y-15.636 Z-2.784
X-39.504 Y-15.602 Z-2.786
X-39.534 Y-15.57 Z-2.787
X-39.565 Y-15.54 Z-2.789
X-39.599 Y-15.513 Z-2.79
X-39.634 Y-15.488 Z-2.792
X-39.67 Y-15.465 Z-2.793
X-39.708 Y-15.445 Z-2.795
X-39.747 Y-15.428 Z-2.796
X-39.788 Y-15.414 Z-2.798
X-39.829 Y-15.402 Z-2.799
X-39.87 Y-15.393 Z-2.801
X-39.912 Y-15.387 Z-2.802
X-39.954 Y-15.384 Z-2.804
X-39.997 Z-2.805
X-40.039 Y-15.387 Z-2.807
X-40.08 Y-15.392 Z-2.808
X-40.121 Y-15.401 Z-2.81
X-40.161 Y-15.412 Z-2.811
X-40.201 Y-15.426 Z-2.813
X-40.239 Y-15.442 Z-2.814
X-40.276 Y-15.461 Z-2.816
X-40.311 Y-15.482 Z-2.817
X-40.345 Y-15.506 Z-2.819
X-40.377 Y-15.532 Z-2.82
X-40.407 Y-15.56 Z-2.822
X-40.435 Y-15.59 Z-2.823
X-40.461 Y-15.621 Z-2.825
X-40.484 Y-15.655 Z-2.826
X-40.506 Y-15.689 Z-2.828
X-40.524 Y-15.725 Z-2.829
X-40.541 Y-15.762 Z-2.831
X-40.554 Y-15.8 Z-2.832
X-40.565 Y-15.839 Z-2.834
X-40.573 Y-15.878 Z-2.835
X-40.579 Y-15.918 Z-2.837
X-40.581 Y-15.958 Z-2.838
Y-15.998 Z-2.84
X-40.579 Y-16.037 Z-2.841
X-40.573 Y-16.077 Z-2.843
X-40.565 Y-16.115 Z-2.844
X-40.555 Y-16.153 Z-2.846
X-40.541 Y-16.19 Z-2.847
X-40.526 Y-16.226 Z-2.849
X-40.508 Y-16.261 Z-2.85
X-40.487 Y-16.294 Z-2.852
X-40.465 Y-16.326 Z-2.853
X-40.441 Y-16.356 Z-2.855
X-40.414 Y-16.384 Z-2.856
X-40.386 Y-16.41 Z-2.858
X-40.356 Y-16.435 Z-2.859
X-40.325 Y-16.457 Z-2.861
X-40.292 Y-16.477 Z-2.862
X-40.258 Y-16.494 Z-2.864
X-40.223 Y-16.509 Z-2.865
X-40.187 Y-16.522 Z-2.867
X-40.151 Y-16.532 Z-2.868
X-40.114 Y-16.539 Z-2.87
X-40.076 Y-16.544 Z-2.871
X-40.039 Y-16.547 Z-2.873
X-40.001 Z-2.874
X-39.964 Y-16.544 Z-2.876
X-39.927 Y-16.539 Z-2.877
X-39.891 Y-16.531 Z-2.879
X-39.855 Y-16.521 Z-2.881
X-39.82 Y-16.508 Z-2.882
X-39.787 Y-16.494 Z-2.884
X-39.754 Y-16.477 Z-2.885
X-39.723 Y-16.457 Z-2.887
X-39.693 Y-16.436 Z-2.888
X-39.665 Y-16.413 Z-2.89
X-39.639 Y-16.388 Z-2.891
X-39.614 Y-16.361 Z-2.893
X-39.592 Y-16.333 Z-2.894
X-39.571 Y-16.304 Z-2.896
X-39.553 Y-16.273 Z-2.897
X-39.536 Y-16.241 Z-2.899
X-39.522 Y-16.208 Z-2.9
X-39.511 Y-16.175 Z-2.902
X-39.501 Y-16.14 Z-2.903
X-39.494 Y-16.106 Z-2.905
X-39.49 Y-16.071 Z-2.906
X-39.488 Y-16.035 Z-2.908
Y-16 Z-2.909
X-39.491 Y-15.966 Z-2.911
X-39.496 Y-15.931 Z-2.912
X-39.503 Y-15.897 Z-2.914
X-39.513 Y-15.864 Z-2.915
X-39.525 Y-15.831 Z-2.917
X-39.539 Y-15.8 Z-2.918
X-39.555 Y-15.769 Z-2.92
X-39.573 Y-15.74 Z-2.921
X-39.593 Y-15.713 Z-2.923
X-39.614 Y-15.686 Z-2.924
X-39.638 Y-15.662 Z-2.926
X-39.663 Y-15.639 Z-2.927
X-39.689 Y-15.618 Z-2.929
X-39.717 Y-15.599 Z-2.93
X-39.746 Y-15.582 Z-2.932
X-39.776 Y-15.567 Z-2.933
X-39.806 Y-15.554 Z-2.935
X-39.838 Y-15.543 Z-2.936
X-39.87 Y-15.534 Z-2.938
X-39.902 Y-15.528 Z-2.939
X-39.935 Y-15.524 Z-2.941
X-39.968 Y-15.522 Z-2.942
X-40 Y-15.523 Z-2.944
X-40.033 Y-15.525 Z-2.945
X-40.065 Y-15.53 Z-2.947
X-40.097 Y-15.537 Z-2.948
X-40.128 Y-15.546 Z-2.95
X-40.158 Y-15.557 Z-2.951
X-40.187 Y-15.571 Z-2.953
X-40.215 Y-15.586 Z-2.954
X-40.242 Y-15.603 Z-2.956
X-40.268 Y-15.621 Z-2.957
X-40.292 Y-15.642 Z-2.959
X-40.315 Y-15.664 Z-2.96
X-40.336 Y-15.687 Z-2.962
X-40.356 Y-15.712 Z-2.963
X-40.373 Y-15.738 Z-2.965
X-40.389 Y-15.764 Z-2.966
X-40.403 Y-15.792 Z-2.968
X-40.415 Y-15.821 Z-2.969
X-40.425 Y-15.85 Z-2.971
X-40.432 Y-15.88 Z-2.972
X-40.438 Y-15.91 Z-2.974
X-40.442 Y-15.94 Z-2.975
X-40.443 Y-15.971 Z-2.977
Y-16.001 Z-2.978
X-40.44 Y-16.031 Z-2.98
X-40.435 Y-16.061 Z-2.981
X-40.429 Y-16.09 Z-2.983
X-40.42 Y-16.119 Z-2.985
X-40.41 Y-16.147 Z-2.986
X-40.397 Y-16.174 Z-2.988
X-40.383 Y-16.2 Z-2.989
X-40.367 Y-16.225 Z-2.991
X-40.35 Y-16.249 Z-2.992
X-40.331 Y-16.271 Z-2.994
X-40.311 Y-16.292 Z-2.995
X-40.289 Y-16.311 Z-2.997
X-40.266 Y-16.329 Z-2.998
X-40.242 Y-16.345 Z-3
X-40.217 Y-16.36 Z-3.001
X-40.191 Y-16.372 Z-3.003
X-40.165 Y-16.383 Z-3.004
X-40.138 Y-16.392 Z-3.006
X-40.11 Y-16.399 Z-3.007
X-40.082 Y-16.404 Z-3.009
X-40.054 Y-16.407 Z-3.01
X-40.026 Y-16.409 Z-3.012
X-39.998 Y-16.408 Z-3.013
X-39.971 Y-16.405 Z-3.015
X-39.943 Y-16.401 Z-3.016
X-39.916 Y-16.395 Z-3.018
X-39.89 Y-16.387 Z-3.019
X-39.864 Y-16.377 Z-3.021
X-39.839 Y-16.365 Z-3.022
X-39.816 Y-16.352 Z-3.024
X-39.793 Y-16.337 Z-3.025
X-39.771 Y-16.321 Z-3.027
X-39.751 Y-16.304 Z-3.028
X-39.731 Y-16.285 Z-3.03
X-39.714 Y-16.265 Z-3.031
X-39.697 Y-16.244 Z-3.033
X-39.683 Y-16.222 Z-3.034
X-39.67 Y-16.199 Z-3.036
X-39.658 Y-16.175 Z-3.037
X-39.648 Y-16.151 Z-3.039
X-39.64 Y-16.126 Z-3.04
X-39.634 Y-16.1 Z-3.042
X-39.63 Y-16.075 Z-3.043
X-39.627 Y-16.049 Z-3.045
X-39.626 Y-16.023 Z-3.046
X-39.627 Y-15.998 Z-3.048
X-39.629 Y-15.972 Z-3.049
X-39.633 Y-15.947 Z-3.051
X-39.639 Y-15.923 Z-3.052
X-39.647 Y-15.899 Z-3.054
X-39.656 Y-15.875 Z-3.055
X-39.667 Y-15.853 Z-3.057
X-39.679 Y-15.831 Z-3.058
X-39.692 Y-15.81 Z-3.06
X-39.707 Y-15.791 Z-3.061
X-39.723 Y-15.772 Z-3.063
X-39.741 Y-15.755 Z-3.064
X-39.759 Y-15.739 Z-3.066
X-39.779 Y-15.724 Z-3.067
X-39.799 Y-15.711 Z-3.069
X-39.82 Y-15.699 Z-3.07
X-39.841 Y-15.689 Z-3.072
X-39.864 Y-15.68 Z-3.073
X-39.886 Y-15.673 Z-3.075
X-39.909 Y-15.667 Z-3.076
X-39.933 Y-15.663 Z-3.078
X-39.956 Y-15.661 Z-3.079
X-39.979 Y-15.66 Z-3.081
X-40.002 Y-15.661 Z-3.082
G3 X-39.998 Y-16.339 I0.002 J-0.339
X-40.002 Y-15.661 I-0.002 J0.339
G1 X-40.051 Y-15.669
X-40.096 Y-15.692
X-40.13 Y-15.728
X-40.153 Y-15.772
X-40.16 Y-15.821
X-40 Y-16
G0 Z5
Y-41
Z2
G1 Z0 F600
X-36.738 Y-41.159
X-36.688 Y-41.151
X-36.644 Y-41.128
X-36.609 Y-41.093
X-36.587 Y-41.049
X-36.579 Y-41
X-36.588 Y-40.766 Z-0.002
X-36.614 Y-40.534 Z-0.003
X-36.655 Y-40.304 Z-0.005
X-36.712 Y-40.078 Z-0.006
X-36.784 Y-39.856 Z-0.008
X-36.871 Y-39.639 Z-0.009
X-36.972 Y-39.429 Z-0.011
X-37.088 Y-39.227 Z-0.012
X-37.217 Y-39.033 Z-0.014
X-37.359 Y-38.849 Z-0.015
X-37.514 Y-38.674 Z-0.017
X-37.679 Y-38.511 Z-0.018
X-37.856 Y-38.359 Z-0.02
X-38.042 Y-38.22 Z-0.021
X-38.237 Y-38.094 Z-0.023
X-38.441 Y-37.982 Z-0.024
X-38.651 Y-37.884 Z-0.026
X-38.867 Y-37.8 Z-0.027
X-39.089 Y-37.732 Z-0.029
X-39.315 Y-37.679 Z-0.03
X-39.543 Y-37.641 Z-0.032
X-39.774 Y-37.619 Z-0.033
X-40.005 Y-37.613 Z-0.035
X-40.237 Y-37.623 Z-0.036
X-40.467 Y-37.649 Z-0.038
X-40.694 Y-37.69 Z-0.039
X-40.918 Y-37.747 Z-0.041
X-41.138 Y-37.818 Z-0.042
X-41.352 Y-37.905 Z-0.044
X-41.56 Y-38.006 Z-0.045
X-41.76 Y-38.121 Z-0.047
X-41.951 Y-38.249 Z-0.048
X-42.134 Y-38.39 Z-0.05
X-42.306 Y-38.543 Z-0.051
X-42.467 Y-38.707 Z-0.053
X-42.617 Y-38.882 Z-0.054
X-42.755 Y-39.066 Z-0.056
X-42.879 Y-39.26 Z-0.057
X-42.99 Y-39.461 Z-0.059
X-43.086 Y-39.67 Z-0.06
X-43.169 Y-39.884 Z-0.062
X-43.236 Y-40.104 Z-0.063
X-43.288 Y-40.327 Z-0.065
X-43.325 Y-40.553 Z-0.066
X-43.346 Y-40.782 Z-0.068
X-43.352 Y-41.011 Z-0.069
X-43.342 Y-41.24 Z-0.071
X-43.316 Y-41.467 Z-0.072
X-43.275 Y-41.692 Z-0.074
X-43.219 Y-41.914 Z-0.075
X-43.147 Y-42.131 Z-0.077
X-43.061 Y-42.343 Z-0.078
X-42.961 Y-42.548 Z-0.08
X-42.847 Y-42.746 Z-0.081
X-42.72 Y-42.936 Z-0.083
X-42.58 Y-43.116 Z-0.084
X-42.428 Y-43.286 Z-0.086
X-42.266 Y-43.446 Z-0.087
X-42.092 Y-43.594 Z-0.089
X-41.909 Y-43.729 Z-0.09
X-41.718 Y-43.852 Z-0.092
X-41.518 Y-43.961 Z-0.093
X-41.312 Y-44.057 Z-0.095
X-41.099 Y-44.138 Z-0.096
X-40.882 Y-44.204 Z-0.098
X-40.661 Y-44.255 Z-0.099
X-40.437 Y-44.291 Z-0.101
X-40.211 Y-44.312 Z-0.102
X-39.984 Y-44.317 Z-0.104
X-39.757 Y-44.307 Z-0.106
X-39.532 Y-44.281 Z-0.107
X-39.31 Y-44.24 Z-0.109
X-39.09 Y-44.184 Z-0.11
X-38.875 Y-44.113 Z-0.112
X-38.666 Y-44.027 Z-0.113
X-38.463 Y-43.928 Z-0.115
X-38.267 Y-43.815 Z-0.116
X-38.08 Y-43.688 Z-0.118
X-37.902 Y-43.55 Z-0.119
X-37.734 Y-43.4 Z-0.121
X-37.576 Y-43.238 Z-0.122
X-37.43 Y-43.066 Z-0.124
X-37.296 Y-42.885 Z-0.125
X-37.175 Y-42.695 Z-0.127
X-37.067 Y-42.498 Z-0.128
X-36.973 Y-42.293 Z-0.13
X-36.893 Y-42.083 Z-0.131
X-36.828 Y-41.868 Z-0.133
X-36.778 Y-41.649 Z-0.134
X-36.742 Y-41.427 Z-0.136
X-36.722 Y-41.203 Z-0.137
X-36.718 Y-40.979 Z-0.139
X-36.728 Y-40.755 Z-0.14
X-36.754 Y-40.532 Z-0.142
X-36.795 Y-40.312 Z-0.143
X-36.851 Y-40.095 Z-0.145
X-36.922 Y-39.882 Z-0.146
X-37.007 Y-39.675 Z-0.148
X-37.105 Y-39.474 Z-0.149
X-37.218 Y-39.281 Z-0.151
X-37.343 Y-39.096 Z-0.152
X-37.48 Y-38.92 Z-0.154
X-37.629 Y-38.754 Z-0.155
X-37.789 Y-38.598 Z-0.157
X-37.96 Y-38.454 Z-0.158
X-38.139 Y-38.322 Z-0.16
X-38.327 Y-38.202 Z-0.161
X-38.523 Y-38.096 Z-0.163
X-38.725 Y-38.003 Z-0.164
X-38.934 Y-37.924 Z-0.166
X-39.147 Y-37.86 Z-0.167
X-39.363 Y-37.811 Z-0.169
X-39.583 Y-37.776 Z-0.17
X-39.804 Y-37.757 Z-0.172
X-40.026 Y-37.752 Z-0.173
X-40.248 Y-37.763 Z-0.175
X-40.468 Y-37.789 Z-0.176
X-40.686 Y-37.83 Z-0.178
X-40.901 Y-37.886 Z-0.179
X-41.111 Y-37.956 Z-0.181
X-41.316 Y-38.04 Z-0.182
X-41.514 Y-38.139 Z-0.184
X-41.705 Y-38.25 Z-0.185
X-41.888 Y-38.374 Z-0.187
X-42.062 Y-38.51 Z-0.188
X-42.226 Y-38.658 Z-0.19
X-42.38 Y-38.817 Z-0.191
X-42.522 Y-38.985 Z-0.193
X-42.653 Y-39.163 Z-0.194
X-42.771 Y-39.349 Z-0.196
X-42.876 Y-39.543 Z-0.197
X-42.967 Y-39.744 Z-0.199
X-43.045 Y-39.95 Z-0.2
X-43.108 Y-40.161 Z-0.202
X-43.157 Y-40.375 Z-0.203
X-43.19 Y-40.593 Z-0.205
X-43.209 Y-40.812 Z-0.207
X-43.213 Y-41.031 Z-0.208
X-43.202 Y-41.251 Z-0.21
X-43.176 Y-41.468 Z-0.211
X-43.135 Y-41.684 Z-0.213
X-43.079 Y-41.896 Z-0.214
X-43.01 Y-42.104 Z-0.216
X-42.926 Y-42.306 Z-0.217
X-42.828 Y-42.502 Z-0.219
X-42.718 Y-42.691 Z-0.22
X-42.595 Y-42.872 Z-0.222
X-42.46 Y-43.044 Z-0.223
X-42.313 Y-43.206 Z-0.225
X-42.156 Y-43.358 Z-0.226
X-41.989 Y-43.499 Z-0.228
X-41.813 Y-43.627 Z-0.229
X-41.628 Y-43.744 Z-0.231
X-41.436 Y-43.847 Z-0.232
X-41.238 Y-43.937 Z-0.234
X-41.034 Y-44.014 Z-0.235
X-40.825 Y-44.076 Z-0.237
X-40.613 Y-44.123 Z-0.238
X-40.398 Y-44.157 Z-0.24
X-40.181 Y-44.175 Z-0.241
X-39.964 Y-44.178 Z-0.243
X-39.747 Y-44.167 Z-0.244
X-39.532 Y-44.141 Z-0.246
X-39.318 Y-44.1 Z-0.247
X-39.109 Y-44.045 Z-0.249
X-38.903 Y-43.975 Z-0.25
X-38.703 Y-43.892 Z-0.252
X-38.509 Y-43.795 Z-0.253
X-38.323 Y-43.686 Z-0.255
X-38.144 Y-43.564 Z-0.256
X-37.974 Y-43.43 Z-0.258
X-37.814 Y-43.285 Z-0.259
X-37.664 Y-43.129 Z-0.261
X-37.525 Y-42.963 Z-0.262
X-37.398 Y-42.789 Z-0.264
X-37.283 Y-42.606 Z-0.265
X-37.181 Y-42.416 Z-0.267
X-37.093 Y-42.22 Z-0.268
X-37.017 Y-42.018 Z-0.27
X-36.956 Y-41.811 Z-0.271
X-36.91 Y-41.601 Z-0.273
X-36.877 Y-41.389 Z-0.274
X-36.859 Y-41.174 Z-0.276
X-36.856 Y-40.959 Z-0.277
X-36.868 Y-40.745 Z-0.279
X-36.894 Y-40.532 Z-0.28
X-36.935 Y-40.321 Z-0.282
X-36.99 Y-40.114 Z-0.283
X-37.059 Y-39.911 Z-0.285
X-37.142 Y-39.713 Z-0.286
X-37.238 Y-39.521 Z-0.288
X-37.346 Y-39.337 Z-0.289
X-37.467 Y-39.16 Z-0.291
X-37.6 Y-38.993 Z-0.292
X-37.744 Y-38.834 Z-0.294
X-37.898 Y-38.686 Z-0.295
X-38.062 Y-38.549 Z-0.297
X-38.235 Y-38.424 Z-0.298
X-38.416 Y-38.311 Z-0.3
X-38.604 Y-38.21 Z-0.301
X-38.798 Y-38.123 Z-0.303
X-38.998 Y-38.049 Z-0.304
X-39.202 Y-37.989 Z-0.306
X-39.41 Y-37.943 Z-0.307
X-39.621 Y-37.911 Z-0.309
X-39.833 Y-37.894 Z-0.311
X-40.045 Y-37.891 Z-0.312
X-40.257 Y-37.903 Z-0.314
X-40.468 Y-37.929 Z-0.315
X-40.677 Y-37.97 Z-0.317
X-40.881 Y-38.025 Z-0.318
X-41.082 Y-38.093 Z-0.32
X-41.278 Y-38.175 Z-0.321
X-41.467 Y-38.271 Z-0.323
X-41.649 Y-38.378 Z-0.324
X-41.823 Y-38.498 Z-0.326
X-41.989 Y-38.63 Z-0.327
X-42.145 Y-38.772 Z-0.329
X-42.291 Y-38.925 Z-0.33
X-42.427 Y-39.088 Z-0.332
X-42.55 Y-39.259 Z-0.333
X-42.662 Y-39.438 Z-0.335
X-42.761 Y-39.624 Z-0.336
X-42.847 Y-39.816 Z-0.338
X-42.92 Y-40.014 Z-0.339
X-42.979 Y-40.216 Z-0.341
X-43.024 Y-40.422 Z-0.342
X-43.055 Y-40.63 Z-0.344
X-43.072 Y-40.84 Z-0.345
X-43.074 Y-41.05 Z-0.347
X-43.062 Y-41.26 Z-0.348
X-43.036 Y-41.468 Z-0.35
X-42.995 Y-41.674 Z-0.351
X-42.941 Y-41.876 Z-0.353
X-42.873 Y-42.075 Z-0.354
X-42.791 Y-42.268 Z-0.356
X-42.697 Y-42.455 Z-0.357
X-42.59 Y-42.635 Z-0.359
X-42.471 Y-42.807 Z-0.36
X-42.34 Y-42.971 Z-0.362
X-42.199 Y-43.125 Z-0.363
X-42.048 Y-43.269 Z-0.365
X-41.887 Y-43.402 Z-0.366
X-41.718 Y-43.524 Z-0.368
X-41.541 Y-43.635 Z-0.369
X-41.356 Y-43.732 Z-0.371
X-41.166 Y-43.817 Z-0.372
X-40.97 Y-43.889 Z-0.374
X-40.77 Y-43.947 Z-0.375
X-40.567 Y-43.991 Z-0.377
X-40.361 Y-44.021 Z-0.378
X-40.154 Y-44.037 Z-0.38
X-39.946 Y-44.039 Z-0.381
X-39.739 Y-44.027 Z-0.383
X-39.533 Y-44.001 Z-0.384
X-39.329 Y-43.96 Z-0.386
X-39.129 Y-43.906 Z-0.387
X-38.933 Y-43.838 Z-0.389
X-38.742 Y-43.757 Z-0.39
X-38.557 Y-43.664 Z-0.392
X-38.38 Y-43.558 Z-0.393
X-38.21 Y-43.44 Z-0.395
X-38.048 Y-43.311 Z-0.396
X-37.896 Y-43.171 Z-0.398
X-37.754 Y-43.021 Z-0.399
X-37.622 Y-42.862 Z-0.401
X-37.501 Y-42.694 Z-0.402
X-37.393 Y-42.519 Z-0.404
X-37.297 Y-42.337 Z-0.405
X-37.213 Y-42.148 Z-0.407
X-37.142 Y-41.955 Z-0.408
X-37.085 Y-41.757 Z-0.41
X-37.042 Y-41.556 Z-0.412
X-37.012 Y-41.352 Z-0.413
X-36.997 Y-41.147 Z-0.415
X-36.995 Y-40.942 Z-0.416
X-37.008 Y-40.737 Z-0.418
X-37.034 Y-40.533 Z-0.419
X-37.075 Y-40.332 Z-0.421
X-37.129 Y-40.134 Z-0.422
X-37.196 Y-39.94 Z-0.424
X-37.276 Y-39.752 Z-0.425
X-37.369 Y-39.57 Z-0.427
X-37.474 Y-39.394 Z-0.428
X-37.591 Y-39.226 Z-0.43
X-37.719 Y-39.067 Z-0.431
X-37.857 Y-38.916 Z-0.433
X-38.006 Y-38.776 Z-0.434
X-38.163 Y-38.646 Z-0.436
X-38.329 Y-38.527 Z-0.437
X-38.503 Y-38.42 Z-0.439
X-38.683 Y-38.326 Z-0.44
X-38.87 Y-38.243 Z-0.442
X-39.061 Y-38.174 Z-0.443
X-39.257 Y-38.118 Z-0.445
X-39.456 Y-38.075 Z-0.446
X-39.657 Y-38.046 Z-0.448
X-39.859 Y-38.031 Z-0.449
X-40.062 Y-38.03 Z-0.451
X-40.265 Y-38.043 Z-0.452
X-40.466 Y-38.069 Z-0.454
X-40.665 Y-38.11 Z-0.455
X-40.86 Y-38.163 Z-0.457
X-41.052 Y-38.23 Z-0.458
X-41.238 Y-38.31 Z-0.46
X-41.418 Y-38.402 Z-0.461
X-41.591 Y-38.506 Z-0.463
X-41.757 Y-38.622 Z-0.464
X-41.915 Y-38.749 Z-0.466
X-42.063 Y-38.886 Z-0.467
X-42.201 Y-39.032 Z-0.469
X-42.329 Y-39.188 Z-0.47
X-42.446 Y-39.353 Z-0.472
X-42.552 Y-39.524 Z-0.473
X-42.645 Y-39.703 Z-0.475
X-42.727 Y-39.887 Z-0.476
X-42.795 Y-40.076 Z-0.478
X-42.85 Y-40.27 Z-0.479
X-42.892 Y-40.467 Z-0.481
X-42.92 Y-40.665 Z-0.482
X-42.934 Y-40.866 Z-0.484
X-42.935 Y-41.067 Z-0.485
X-42.922 Y-41.267 Z-0.487
X-42.896 Y-41.465 Z-0.488
X-42.856 Y-41.662 Z-0.49
X-42.802 Y-41.855 Z-0.491
X-42.736 Y-42.044 Z-0.493
X-42.657 Y-42.228 Z-0.494
X-42.565 Y-42.406 Z-0.496
X-42.462 Y-42.577 Z-0.497
X-42.348 Y-42.74 Z-0.499
X-42.222 Y-42.896 Z-0.5
X-42.086 Y-43.042 Z-0.502
X-41.941 Y-43.179 Z-0.503
X-41.787 Y-43.305 Z-0.505
X-41.624 Y-43.42 Z-0.506
X-41.454 Y-43.524 Z-0.508
X-41.278 Y-43.616 Z-0.509
X-41.095 Y-43.696 Z-0.511
X-40.908 Y-43.763 Z-0.512
X-40.717 Y-43.817 Z-0.514
X-40.523 Y-43.858 Z-0.516
X-40.326 Y-43.886 Z-0.517
X-40.128 Y-43.9 Z-0.519
X-39.93 Z-0.52
X-39.732 Y-43.887 Z-0.522
X-39.535 Y-43.861 Z-0.523
X-39.341 Y-43.821 Z-0.525
X-39.151 Y-43.768 Z-0.526
X-38.964 Y-43.702 Z-0.528
X-38.783 Y-43.623 Z-0.529
X-38.607 Y-43.533 Z-0.531
X-38.438 Y-43.43 Z-0.532
X-38.277 Y-43.317 Z-0.534
X-38.123 Y-43.193 Z-0.535
X-37.979 Y-43.058 Z-0.537
X-37.844 Y-42.914 Z-0.538
X-37.72 Y-42.762 Z-0.54
X-37.606 Y-42.601 Z-0.541
X-37.503 Y-42.433 Z-0.543
X-37.413 Y-42.258 Z-0.544
X-37.334 Y-42.078 Z-0.546
X-37.268 Y-41.893 Z-0.547
X-37.215 Y-41.704 Z-0.549
X-37.175 Y-41.512 Z-0.55
X-37.148 Y-41.317 Z-0.552
X-37.135 Y-41.122 Z-0.553
X-37.134 Y-40.926 Z-0.555
X-37.148 Y-40.73 Z-0.556
X-37.174 Y-40.536 Z-0.558
X-37.214 Y-40.345 Z-0.559
X-37.267 Y-40.156 Z-0.561
X-37.332 Y-39.972 Z-0.562
X-37.41 Y-39.793 Z-0.564
X-37.5 Y-39.62 Z-0.565
X-37.601 Y-39.453 Z-0.567
X-37.714 Y-39.294 Z-0.568
X-37.837 Y-39.142 Z-0.57
X-37.97 Y-39 Z-0.571
X-38.112 Y-38.867 Z-0.573
X-38.263 Y-38.744 Z-0.574
X-38.422 Y-38.632 Z-0.576
X-38.588 Y-38.531 Z-0.577
X-38.761 Y-38.442 Z-0.579
X-38.939 Y-38.365 Z-0.58
X-39.122 Y-38.3 Z-0.582
X-39.309 Y-38.248 Z-0.583
X-39.499 Y-38.208 Z-0.585
X-39.691 Y-38.182 Z-0.586
X-39.884 Y-38.169 Z-0.588
X-40.078 Z-0.589
X-40.271 Y-38.183 Z-0.591
X-40.463 Y-38.209 Z-0.592
X-40.652 Y-38.249 Z-0.594
X-40.838 Y-38.301 Z-0.595
X-41.02 Y-38.366 Z-0.597
X-41.196 Y-38.443 Z-0.598
X-41.368 Y-38.532 Z-0.6
X-41.532 Y-38.633 Z-0.601
X-41.689 Y-38.744 Z-0.603
X-41.839 Y-38.866 Z-0.604
X-41.979 Y-38.998 Z-0.606
X-42.11 Y-39.139 Z-0.607
X-42.231 Y-39.288 Z-0.609
X-42.342 Y-39.445 Z-0.61
X-42.441 Y-39.61 Z-0.612
X-42.529 Y-39.78 Z-0.613
X-42.605 Y-39.956 Z-0.615
X-42.669 Y-40.137 Z-0.616
X-42.72 Y-40.322 Z-0.618
X-42.758 Y-40.51 Z-0.62
X-42.784 Y-40.699 Z-0.621
X-42.797 Y-40.89 Z-0.623
X-42.796 Y-41.081 Z-0.624
X-42.782 Y-41.272 Z-0.626
X-42.756 Y-41.461 Z-0.627
X-42.716 Y-41.648 Z-0.629
X-42.664 Y-41.832 Z-0.63
X-42.6 Y-42.011 Z-0.632
X-42.523 Y-42.186 Z-0.633
X-42.435 Y-42.355 Z-0.635
X-42.336 Y-42.517 Z-0.636
X-42.225 Y-42.672 Z-0.638
X-42.105 Y-42.819 Z-0.639
X-41.975 Y-42.958 Z-0.641
X-41.835 Y-43.087 Z-0.642
X-41.687 Y-43.206 Z-0.644
X-41.532 Y-43.315 Z-0.645
X-41.369 Y-43.413 Z-0.647
X-41.201 Y-43.5 Z-0.648
X-41.027 Y-43.574 Z-0.65
X-40.848 Y-43.637 Z-0.651
X-40.665 Y-43.687 Z-0.653
X-40.48 Y-43.725 Z-0.654
X-40.293 Y-43.75 Z-0.656
X-40.104 Y-43.762 Z-0.657
X-39.915 Y-43.761 Z-0.659
X-39.727 Y-43.747 Z-0.66
X-39.54 Y-43.721 Z-0.662
X-39.356 Y-43.682 Z-0.663
X-39.174 Y-43.63 Z-0.665
X-38.997 Y-43.566 Z-0.666
X-38.825 Y-43.49 Z-0.668
X-38.658 Y-43.403 Z-0.669
X-38.498 Y-43.304 Z-0.671
X-38.345 Y-43.195 Z-0.672
X-38.2 Y-43.076 Z-0.674
X-38.063 Y-42.947 Z-0.675
X-37.936 Y-42.809 Z-0.677
X-37.819 Y-42.663 Z-0.678
X-37.711 Y-42.509 Z-0.68
X-37.615 Y-42.348 Z-0.681
X-37.53 Y-42.182 Z-0.683
X-37.456 Y-42.01 Z-0.684
X-37.395 Y-41.833 Z-0.686
X-37.345 Y-41.653 Z-0.687
X-37.308 Y-41.47 Z-0.689
X-37.284 Y-41.284 Z-0.69
X-37.272 Y-41.098 Z-0.692
X-37.274 Y-40.912 Z-0.693
X-37.287 Y-40.726 Z-0.695
X-37.314 Y-40.541 Z-0.696
X-37.353 Y-40.359 Z-0.698
X-37.404 Y-40.181 Z-0.699
X-37.468 Y-40.006 Z-0.701
X-37.543 Y-39.836 Z-0.702
X-37.63 Y-39.671 Z-0.704
X-37.727 Y-39.513 Z-0.705
X-37.835 Y-39.362 Z-0.707
X-37.953 Y-39.219 Z-0.708
X-38.081 Y-39.085 Z-0.71
X-38.217 Y-38.959 Z-0.711
X-38.362 Y-38.843 Z-0.713
X-38.514 Y-38.738 Z-0.714
X-38.672 Y-38.643 Z-0.716
X-38.837 Y-38.559 Z-0.717
X-39.007 Y-38.487 Z-0.719
X-39.182 Y-38.426 Z-0.721
X-39.36 Y-38.378 Z-0.722
X-39.541 Y-38.342 Z-0.724
X-39.723 Y-38.318 Z-0.725
X-39.907 Y-38.307 Z-0.727
X-40.092 Y-38.308 Z-0.728
X-40.275 Y-38.322 Z-0.73
X-40.457 Y-38.349 Z-0.731
X-40.637 Y-38.388 Z-0.733
X-40.813 Y-38.439 Z-0.734
X-40.986 Y-38.502 Z-0.736
X-41.153 Y-38.576 Z-0.737
X-41.316 Y-38.662 Z-0.739
X-41.471 Y-38.759 Z-0.74
X-41.62 Y-38.866 Z-0.742
X-41.761 Y-38.982 Z-0.743
X-41.894 Y-39.109 Z-0.745
X-42.017 Y-39.243 Z-0.746
X-42.132 Y-39.386 Z-0.748
X-42.236 Y-39.536 Z-0.749
X-42.329 Y-39.693 Z-0.751
X-42.411 Y-39.856 Z-0.752
X-42.483 Y-40.024 Z-0.754
X-42.542 Y-40.196 Z-0.755
X-42.59 Y-40.372 Z-0.757
X-42.625 Y-40.551 Z-0.758
X-42.648 Y-40.731 Z-0.76
X-42.659 Y-40.913 Z-0.761
X-42.657 Y-41.095 Z-0.763
X-42.643 Y-41.276 Z-0.764
X-42.616 Y-41.455 Z-0.766
X-42.577 Y-41.633 Z-0.767
X-42.527 Y-41.807 Z-0.769
X-42.464 Y-41.977 Z-0.77
X-42.391 Y-42.142 Z-0.772
X-42.306 Y-42.302 Z-0.773
X-42.21 Y-42.456 Z-0.775
X-42.104 Y-42.603 Z-0.776
X-41.989 Y-42.742 Z-0.778
X-41.864 Y-42.872 Z-0.779
X-41.731 Y-42.994 Z-0.781
X-41.59 Y-43.106 Z-0.782
X-41.441 Y-43.209 Z-0.784
X-41.286 Y-43.301 Z-0.785
X-41.125 Y-43.382 Z-0.787
X-40.959 Y-43.452 Z-0.788
X-40.789 Y-43.51 Z-0.79
X-40.616 Y-43.557 Z-0.791
X-40.439 Y-43.591 Z-0.793
X-40.261 Y-43.614 Z-0.794
X-40.082 Y-43.624 Z-0.796
X-39.902 Y-43.622 Z-0.797
X-39.724 Y-43.608 Z-0.799
X-39.546 Y-43.581 Z-0.8
X-39.371 Y-43.543 Z-0.802
X-39.2 Y-43.492 Z-0.803
X-39.032 Y-43.431 Z-0.805
X-38.869 Y-43.357 Z-0.806
X-38.711 Y-43.273 Z-0.808
X-38.56 Y-43.179 Z-0.809
X-38.415 Y-43.074 Z-0.811
X-38.278 Y-42.96 Z-0.812
X-38.149 Y-42.837 Z-0.814
X-38.029 Y-42.705 Z-0.815
X-37.919 Y-42.565 Z-0.817
X-37.818 Y-42.419 Z-0.818
X-37.727 Y-42.266 Z-0.82
X-37.648 Y-42.107 Z-0.821
X-37.579 Y-41.943 Z-0.823
X-37.522 Y-41.775 Z-0.825
X-37.476 Y-41.603 Z-0.826
X-37.442 Y-41.429 Z-0.828
X-37.42 Y-41.253 Z-0.829
X-37.41 Y-41.076 Z-0.831
X-37.413 Y-40.899 Z-0.832
X-37.427 Y-40.723 Z-0.834
X-37.454 Y-40.548 Z-0.835
X-37.492 Y-40.376 Z-0.837
X-37.542 Y-40.206 Z-0.838
X-37.603 Y-40.041 Z-0.84
X-37.676 Y-39.88 Z-0.841
X-37.759 Y-39.725 Z-0.843
X-37.853 Y-39.575 Z-0.844
X-37.956 Y-39.433 Z-0.846
X-38.069 Y-39.298 Z-0.847
X-38.191 Y-39.171 Z-0.849
X-38.321 Y-39.053 Z-0.85
X-38.459 Y-38.944 Z-0.852
X-38.604 Y-38.845 Z-0.853
X-38.755 Y-38.756 Z-0.855
X-38.912 Y-38.677 Z-0.856
X-39.074 Y-38.61 Z-0.858
X-39.24 Y-38.553 Z-0.859
X-39.409 Y-38.509 Z-0.861
X-39.581 Y-38.476 Z-0.862
X-39.754 Y-38.454 Z-0.864
X-39.929 Y-38.445 Z-0.865
X-40.103 Y-38.448 Z-0.867
X-40.277 Y-38.462 Z-0.868
X-40.45 Y-38.488 Z-0.87
X-40.62 Y-38.527 Z-0.871
X-40.787 Y-38.576 Z-0.873
X-40.95 Y-38.637 Z-0.874
X-41.109 Y-38.709 Z-0.876
X-41.262 Y-38.791 Z-0.877
X-41.409 Y-38.884 Z-0.879
X-41.549 Y-38.986 Z-0.88
X-41.682 Y-39.098 Z-0.882
X-41.807 Y-39.218 Z-0.883
X-41.924 Y-39.347 Z-0.885
X-42.031 Y-39.483 Z-0.886
X-42.128 Y-39.626 Z-0.888
X-42.216 Y-39.775 Z-0.889
X-42.293 Y-39.93 Z-0.891
X-42.359 Y-40.09 Z-0.892
X-42.415 Y-40.254 Z-0.894
X-42.459 Y-40.421 Z-0.895
X-42.491 Y-40.59 Z-0.897
X-42.512 Y-40.762 Z-0.898
X-42.52 Y-40.934 Z-0.9
X-42.518 Y-41.106 Z-0.901
X-42.503 Y-41.278 Z-0.903
X-42.477 Y-41.448 Z-0.904
X-42.439 Y-41.615 Z-0.906
X-42.39 Y-41.78 Z-0.907
X-42.329 Y-41.941 Z-0.909
X-42.258 Y-42.097 Z-0.91
X-42.177 Y-42.248 Z-0.912
X-42.085 Y-42.393 Z-0.913
X-41.984 Y-42.531 Z-0.915
X-41.874 Y-42.662 Z-0.916
X-41.755 Y-42.785 Z-0.918
X-41.628 Y-42.9 Z-0.919
X-41.493 Y-43.005 Z-0.921
X-41.352 Y-43.102 Z-0.922
X-41.204 Y-43.188 Z-0.924
X-41.051 Y-43.263 Z-0.925
X-40.894 Y-43.329 Z-0.927
X-40.732 Y-43.383 Z-0.929
X-40.567 Y-43.426 Z-0.93
X-40.4 Y-43.457 Z-0.932
X-40.231 Y-43.477 Z-0.933
X-40.061 Y-43.486 Z-0.935
X-39.891 Y-43.483 Z-0.936
X-39.722 Y-43.468 Z-0.938
X-39.555 Y-43.442 Z-0.939
X-39.389 Y-43.404 Z-0.941
X-39.227 Y-43.355 Z-0.942
X-39.068 Y-43.296 Z-0.944
X-38.914 Y-43.225 Z-0.945
X-38.766 Y-43.145 Z-0.947
X-38.623 Y-43.054 Z-0.948
X-38.487 Y-42.954 Z-0.95
X-38.358 Y-42.845 Z-0.951
X-38.237 Y-42.727 Z-0.953
X-38.124 Y-42.602 Z-0.954
X-38.02 Y-42.469 Z-0.956
X-37.925 Y-42.33 Z-0.957
X-37.841 Y-42.184 Z-0.959
X-37.766 Y-42.033 Z-0.96
X-37.702 Y-41.878 Z-0.962
X-37.649 Y-41.718 Z-0.963
X-37.607 Y-41.556 Z-0.965
X-37.576 Y-41.391 Z-0.966
X-37.557 Y-41.224 Z-0.968
X-37.549 Y-41.057 Z-0.969
X-37.552 Y-40.889 Z-0.971
X-37.567 Y-40.722 Z-0.972
X-37.593 Y-40.557 Z-0.974
X-37.63 Y-40.394 Z-0.975
X-37.679 Y-40.234 Z-0.977
X-37.738 Y-40.078 Z-0.978
X-37.807 Y-39.926 Z-0.98
X-37.887 Y-39.779 Z-0.981
X-37.977 Y-39.639 Z-0.983
X-38.076 Y-39.505 Z-0.984
X-38.184 Y-39.378 Z-0.986
X-38.3 Y-39.259 Z-0.987
X-38.424 Y-39.148 Z-0.989
X-38.555 Y-39.045 Z-0.99
X-38.692 Y-38.953 Z-0.992
X-38.836 Y-38.869 Z-0.993
X-38.985 Y-38.796 Z-0.995
X-39.138 Y-38.733 Z-0.996
X-39.296 Y-38.681 Z-0.998
X-39.456 Y-38.64 Z-0.999
X-39.619 Y-38.61 Z-1.001
X-39.783 Y-38.591 Z-1.002
X-39.948 Y-38.583 Z-1.004
X-40.113 Y-38.587 Z-1.005
X-40.278 Y-38.602 Z-1.007
X-40.441 Y-38.628 Z-1.008
X-40.601 Y-38.665 Z-1.01
X-40.759 Y-38.713 Z-1.011
X-40.913 Y-38.771 Z-1.013
X-41.062 Y-38.84 Z-1.014
X-41.207 Y-38.919 Z-1.016
X-41.345 Y-39.008 Z-1.017
X-41.477 Y-39.106 Z-1.019
X-41.602 Y-39.212 Z-1.02
X-41.719 Y-39.327 Z-1.022
X-41.829 Y-39.449 Z-1.023
X-41.929 Y-39.578 Z-1.025
X-42.02 Y-39.714 Z-1.026
X-42.102 Y-39.856 Z-1.028
X-42.174 Y-40.003 Z-1.03
X-42.236 Y-40.154 Z-1.031
X-42.287 Y-40.309 Z-1.033
X-42.327 Y-40.468 Z-1.034
X-42.357 Y-40.628 Z-1.036
X-42.375 Y-40.79 Z-1.037
X-42.382 Y-40.953 Z-1.039
X-42.378 Y-41.116 Z-1.04
X-42.363 Y-41.278 Z-1.042
X-42.337 Y-41.438 Z-1.043
X-42.301 Y-41.596 Z-1.045
X-42.253 Y-41.752 Z-1.046
X-42.195 Y-41.903 Z-1.048
X-42.127 Y-42.05 Z-1.049
X-42.049 Y-42.193 Z-1.051
X-41.961 Y-42.329 Z-1.052
X-41.865 Y-42.459 Z-1.054
X-41.76 Y-42.582 Z-1.055
X-41.646 Y-42.697 Z-1.057
X-41.526 Y-42.805 Z-1.058
X-41.398 Y-42.903 Z-1.06
X-41.264 Y-42.993 Z-1.061
X-41.124 Y-43.073 Z-1.063
X-40.979 Y-43.144 Z-1.064
X-40.83 Y-43.205 Z-1.066
X-40.677 Y-43.255 Z-1.067
X-40.521 Y-43.294 Z-1.069
X-40.363 Y-43.323 Z-1.07
X-40.203 Y-43.341 Z-1.072
X-40.043 Y-43.348 Z-1.073
X-39.882 Y-43.344 Z-1.075
X-39.723 Y-43.329 Z-1.076
X-39.565 Y-43.303 Z-1.078
X-39.409 Y-43.266 Z-1.079
X-39.256 Y-43.219 Z-1.081
X-39.106 Y-43.162 Z-1.082
X-38.962 Y-43.094 Z-1.084
X-38.822 Y-43.017 Z-1.085
X-38.687 Y-42.931 Z-1.087
X-38.56 Y-42.835 Z-1.088
X-38.439 Y-42.731 Z-1.09
X-38.325 Y-42.62 Z-1.091
X-38.219 Y-42.5 Z-1.093
X-38.122 Y-42.374 Z-1.094
X-38.034 Y-42.242 Z-1.096
X-37.955 Y-42.104 Z-1.097
X-37.886 Y-41.961 Z-1.099
X-37.827 Y-41.814 Z-1.1
X-37.778 Y-41.663 Z-1.102
X-37.739 Y-41.51 Z-1.103
X-37.711 Y-41.354 Z-1.105
X-37.694 Y-41.196 Z-1.106
X-37.687 Y-41.038 Z-1.108
X-37.691 Y-40.88 Z-1.109
X-37.706 Y-40.723 Z-1.111
X-37.732 Y-40.567 Z-1.112
X-37.768 Y-40.414 Z-1.114
X-37.815 Y-40.263 Z-1.115
X-37.872 Y-40.116 Z-1.117
X-37.939 Y-39.974 Z-1.118
X-38.015 Y-39.836 Z-1.12
X-38.1 Y-39.704 Z-1.121
X-38.194 Y-39.578 Z-1.123
X-38.297 Y-39.459 Z-1.124
X-38.407 Y-39.347 Z-1.126
X-38.525 Y-39.244 Z-1.127
X-38.649 Y-39.148 Z-1.129
X-38.78 Y-39.061 Z-1.13
X-38.916 Y-38.984 Z-1.132
X-39.056 Y-38.916 Z-1.134
X-39.202 Y-38.858 Z-1.135
X-39.35 Y-38.81 Z-1.137
X-39.502 Y-38.772 Z-1.138
X-39.655 Y-38.745 Z-1.14
X-39.81 Y-38.728 Z-1.141
X-39.966 Y-38.722 Z-1.143
X-40.122 Y-38.726 Z-1.144
X-40.276 Y-38.741 Z-1.146
X-40.43 Y-38.767 Z-1.147
X-40.581 Y-38.803 Z-1.149
X-40.729 Y-38.849 Z-1.15
X-40.874 Y-38.905 Z-1.152
X-41.014 Y-38.971 Z-1.153
X-41.15 Y-39.047 Z-1.155
X-41.28 Y-39.131 Z-1.156
X-41.403 Y-39.224 Z-1.158
X-41.52 Y-39.325 Z-1.159
X-41.63 Y-39.434 Z-1.161
X-41.732 Y-39.55 Z-1.162
X-41.826 Y-39.672 Z-1.164
X-41.911 Y-39.801 Z-1.165
X-41.987 Y-39.935 Z-1.167
X-42.054 Y-40.074 Z-1.168
X-42.111 Y-40.217 Z-1.17
X-42.158 Y-40.363 Z-1.171
X-42.195 Y-40.513 Z-1.173
X-42.222 Y-40.664 Z-1.174
X-42.238 Y-40.817 Z-1.176
X-42.244 Y-40.97 Z-1.177
X-42.239 Y-41.123 Z-1.179
X-42.224 Y-41.276 Z-1.18
X-42.198 Y-41.427 Z-1.182
X-42.163 Y-41.576 Z-1.183
X-42.117 Y-41.722 Z-1.185
X-42.061 Y-41.864 Z-1.186
X-41.996 Y-42.002 Z-1.188
X-41.922 Y-42.135 Z-1.189
X-41.838 Y-42.263 Z-1.191
X-41.747 Y-42.385 Z-1.192
X-41.647 Y-42.5 Z-1.194
X-41.54 Y-42.608 Z-1.195
X-41.425 Y-42.708 Z-1.197
X-41.304 Y-42.8 Z-1.198
X-41.177 Y-42.884 Z-1.2
X-41.045 Y-42.958 Z-1.201
X-40.908 Y-43.024 Z-1.203
X-40.768 Y-43.08 Z-1.204
X-40.623 Y-43.126 Z-1.206
X-40.476 Y-43.162 Z-1.207
X-40.327 Y-43.188 Z-1.209
X-40.177 Y-43.204 Z-1.21
X-40.026 Y-43.209 Z-1.212
X-39.875 Y-43.204 Z-1.213
X-39.725 Y-43.189 Z-1.215
X-39.576 Y-43.164 Z-1.216
X-39.43 Y-43.128 Z-1.218
X-39.286 Y-43.083 Z-1.219
X-39.146 Y-43.028 Z-1.221
X-39.01 Y-42.964 Z-1.222
X-38.879 Y-42.89 Z-1.224
X-38.754 Y-42.808 Z-1.225
X-38.634 Y-42.717 Z-1.227
X-38.521 Y-42.619 Z-1.228
X-38.415 Y-42.513 Z-1.23
X-38.316 Y-42.4 Z-1.231
X-38.226 Y-42.281 Z-1.233
X-38.144 Y-42.156 Z-1.235
X-38.071 Y-42.026 Z-1.236
X-38.006 Y-41.891 Z-1.238
X-37.952 Y-41.752 Z-1.239
X-37.906 Y-41.61 Z-1.241
X-37.871 Y-41.465 Z-1.242
X-37.846 Y-41.319 Z-1.244
X-37.831 Y-41.171 Z-1.245
X-37.825 Y-41.022 Z-1.247
X-37.831 Y-40.873 Z-1.248
X-37.846 Y-40.726 Z-1.25
X-37.871 Y-40.58 Z-1.251
X-37.906 Y-40.435 Z-1.253
X-37.951 Y-40.294 Z-1.254
X-38.005 Y-40.156 Z-1.256
X-38.069 Y-40.023 Z-1.257
X-38.142 Y-39.894 Z-1.259
X-38.223 Y-39.771 Z-1.26
X-38.312 Y-39.653 Z-1.262
X-38.409 Y-39.542 Z-1.263
X-38.513 Y-39.438 Z-1.265
X-38.625 Y-39.341 Z-1.266
X-38.742 Y-39.252 Z-1.268
X-38.865 Y-39.171 Z-1.269
X-38.994 Y-39.1 Z-1.271
X-39.126 Y-39.037 Z-1.272
X-39.263 Y-38.983 Z-1.274
X-39.403 Y-38.939 Z-1.275
X-39.545 Y-38.904 Z-1.277
X-39.69 Y-38.88 Z-1.278
X-39.836 Y-38.865 Z-1.28
X-39.982 Y-38.86 Z-1.281
X-40.128 Y-38.865 Z-1.283
X-40.273 Y-38.881 Z-1.284
X-40.417 Y-38.906 Z-1.286
X-40.559 Y-38.941 Z-1.287
X-40.698 Y-38.985 Z-1.289
X-40.833 Y-39.039 Z-1.29
X-40.965 Y-39.102 Z-1.292
X-41.091 Y-39.173 Z-1.293
X-41.213 Y-39.253 Z-1.295
X-41.328 Y-39.341 Z-1.296
X-41.437 Y-39.437 Z-1.298
X-41.54 Y-39.54 Z-1.299
X-41.635 Y-39.649 Z-1.301
X-41.722 Y-39.765 Z-1.302
X-41.801 Y-39.886 Z-1.304
X-41.871 Y-40.013 Z-1.305
X-41.933 Y-40.144 Z-1.307
X-41.986 Y-40.278 Z-1.308
X-42.029 Y-40.416 Z-1.31
X-42.063 Y-40.556 Z-1.311
X-42.087 Y-40.698 Z-1.313
X-42.101 Y-40.842 Z-1.314
X-42.105 Y-40.986 Z-1.316
X-42.1 Y-41.129 Z-1.317
X-42.085 Y-41.272 Z-1.319
X-42.06 Y-41.414 Z-1.32
X-42.025 Y-41.553 Z-1.322
X-41.981 Y-41.69 Z-1.323
X-41.928 Y-41.823 Z-1.325
X-41.866 Y-41.952 Z-1.326
X-41.795 Y-42.076 Z-1.328
X-41.716 Y-42.196 Z-1.329
X-41.63 Y-42.309 Z-1.331
X-41.535 Y-42.416 Z-1.332
X-41.434 Y-42.517 Z-1.334
X-41.326 Y-42.61 Z-1.335
X-41.212 Y-42.696 Z-1.337
X-41.092 Y-42.773 Z-1.339
X-40.968 Y-42.842 Z-1.34
X-40.839 Y-42.903 Z-1.342
X-40.707 Y-42.954 Z-1.343
X-40.571 Y-42.997 Z-1.345
X-40.433 Y-43.029 Z-1.346
X-40.293 Y-43.053 Z-1.348
X-40.152 Y-43.067 Z-1.349
X-40.011 Y-43.071 Z-1.351
X-39.869 Y-43.065 Z-1.352
X-39.729 Y-43.05 Z-1.354
X-39.59 Y-43.025 Z-1.355
X-39.453 Y-42.991 Z-1.357
X-39.319 Y-42.947 Z-1.358
X-39.188 Y-42.895 Z-1.36
X-39.061 Y-42.834 Z-1.361
X-38.939 Y-42.764 Z-1.363
X-38.821 Y-42.686 Z-1.364
X-38.71 Y-42.6 Z-1.366
X-38.605 Y-42.507 Z-1.367
X-38.506 Y-42.408 Z-1.369
X-38.415 Y-42.301 Z-1.37
X-38.331 Y-42.189 Z-1.372
X-38.255 Y-42.071 Z-1.373
X-38.187 Y-41.949 Z-1.375
X-38.128 Y-41.822 Z-1.376
X-38.077 Y-41.692 Z-1.378
X-38.036 Y-41.559 Z-1.379
X-38.004 Y-41.423 Z-1.381
X-37.981 Y-41.285 Z-1.382
X-37.968 Y-41.147 Z-1.384
X-37.964 Y-41.007 Z-1.385
X-37.97 Y-40.868 Z-1.387
X-37.985 Y-40.73 Z-1.388
X-38.01 Y-40.593 Z-1.39
X-38.043 Y-40.459 Z-1.391
X-38.086 Y-40.327 Z-1.393
X-38.138 Y-40.198 Z-1.394
X-38.199 Y-40.074 Z-1.396
X-38.267 Y-39.954 Z-1.397
X-38.344 Y-39.839 Z-1.399
X-38.429 Y-39.729 Z-1.4
X-38.52 Y-39.626 Z-1.402
X-38.619 Y-39.529 Z-1.403
X-38.723 Y-39.439 Z-1.405
X-38.834 Y-39.357 Z-1.406
X-38.949 Y-39.282 Z-1.408
X-39.07 Y-39.216 Z-1.409
X-39.195 Y-39.158 Z-1.411
X-39.323 Y-39.109 Z-1.412
X-39.454 Y-39.068 Z-1.414
X-39.588 Y-39.037 Z-1.415
X-39.723 Y-39.015 Z-1.417
X-39.859 Y-39.002 Z-1.418
X-39.996 Y-38.999 Z-1.42
X-40.133 Y-39.005 Z-1.421
X-40.268 Y-39.02 Z-1.423
X-40.403 Y-39.044 Z-1.424
X-40.535 Y-39.078 Z-1.426
X-40.665 Y-39.12 Z-1.427
X-40.791 Y-39.171 Z-1.429
X-40.913 Y-39.231 Z-1.43
X-41.031 Y-39.299 Z-1.432
X-41.144 Y-39.374 Z-1.433
X-41.251 Y-39.458 Z-1.435
X-41.353 Y-39.548 Z-1.436
X-41.448 Y-39.645 Z-1.438
X-41.536 Y-39.748 Z-1.439
X-41.617 Y-39.856 Z-1.441
X-41.69 Y-39.97 Z-1.443
X-41.755 Y-40.089 Z-1.444
X-41.811 Y-40.211 Z-1.446
X-41.86 Y-40.337 Z-1.447
X-41.899 Y-40.466 Z-1.449
X-41.93 Y-40.598 Z-1.45
X-41.951 Y-40.731 Z-1.452
X-41.964 Y-40.865 Z-1.453
X-41.967 Y-40.999 Z-1.455
X-41.961 Y-41.133 Z-1.456
X-41.945 Y-41.267 Z-1.458
X-41.921 Y-41.399 Z-1.459
X-41.888 Y-41.529 Z-1.461
X-41.846 Y-41.656 Z-1.462
X-41.796 Y-41.78 Z-1.464
X-41.737 Y-41.9 Z-1.465
X-41.67 Y-42.016 Z-1.467
X-41.595 Y-42.127 Z-1.468
X-41.513 Y-42.232 Z-1.47
X-41.425 Y-42.332 Z-1.471
X-41.329 Y-42.425 Z-1.473
X-41.228 Y-42.511 Z-1.474
X-41.121 Y-42.59 Z-1.476
X-41.009 Y-42.662 Z-1.477
X-40.892 Y-42.725 Z-1.479
X-40.772 Y-42.781 Z-1.48
X-40.648 Y-42.828 Z-1.482
X-40.521 Y-42.867 Z-1.483
X-40.392 Y-42.896 Z-1.485
X-40.261 Y-42.917 Z-1.486
X-40.13 Y-42.929 Z-1.488
X-39.998 Y-42.932 Z-1.489
X-39.866 Y-42.926 Z-1.491
X-39.735 Y-42.911 Z-1.492
X-39.605 Y-42.887 Z-1.494
X-39.478 Y-42.854 Z-1.495
X-39.353 Y-42.812 Z-1.497
X-39.231 Y-42.762 Z-1.498
X-39.113 Y-42.704 Z-1.5
X-39 Y-42.639 Z-1.501
X-38.891 Y-42.565 Z-1.503
X-38.787 Y-42.485 Z-1.504
X-38.69 Y-42.397 Z-1.506
X-38.599 Y-42.303 Z-1.507
X-38.514 Y-42.204 Z-1.509
X-38.436 Y-42.099 Z-1.51
X-38.366 Y-41.988 Z-1.512
X-38.304 Y-41.874 Z-1.513
X-38.25 Y-41.755 Z-1.515
X-38.204 Y-41.633 Z-1.516
X-38.166 Y-41.509 Z-1.518
X-38.137 Y-41.382 Z-1.519
X-38.117 Y-41.254 Z-1.521
X-38.105 Y-41.124 Z-1.522
X-38.103 Y-40.995 Z-1.524
X-38.109 Y-40.865 Z-1.525
X-38.124 Y-40.736 Z-1.527
X-38.148 Y-40.609 Z-1.528
X-38.18 Y-40.484 Z-1.53
X-38.221 Y-40.361 Z-1.531
X-38.271 Y-40.242 Z-1.533
X-38.328 Y-40.126 Z-1.534
X-38.393 Y-40.015 Z-1.536
X-38.465 Y-39.908 Z-1.537
X-38.544 Y-39.807 Z-1.539
X-38.63 Y-39.711 Z-1.54
X-38.722 Y-39.622 Z-1.542
X-38.82 Y-39.539 Z-1.544
X-38.924 Y-39.463 Z-1.545
X-39.032 Y-39.394 Z-1.547
X-39.145 Y-39.333 Z-1.548
X-39.261 Y-39.28 Z-1.55
X-39.381 Y-39.235 Z-1.551
X-39.503 Y-39.199 Z-1.553
X-39.628 Y-39.17 Z-1.554
X-39.754 Y-39.151 Z-1.556
X-39.881 Y-39.14 Z-1.557
X-40.008 Y-39.137 Z-1.559
X-40.135 Y-39.144 Z-1.56
X-40.262 Y-39.159 Z-1.562
X-40.387 Y-39.183 Z-1.563
X-40.509 Y-39.215 Z-1.565
X-40.63 Y-39.255 Z-1.566
X-40.747 Y-39.303 Z-1.568
X-40.86 Y-39.36 Z-1.569
X-40.969 Y-39.424 Z-1.571
X-41.074 Y-39.495 Z-1.572
X-41.173 Y-39.573 Z-1.574
X-41.267 Y-39.657 Z-1.575
X-41.355 Y-39.748 Z-1.577
X-41.436 Y-39.845 Z-1.578
X-41.51 Y-39.946 Z-1.58
X-41.577 Y-40.053 Z-1.581
X-41.637 Y-40.163 Z-1.583
X-41.689 Y-40.278 Z-1.584
X-41.733 Y-40.395 Z-1.586
X-41.769 Y-40.515 Z-1.587
X-41.796 Y-40.638 Z-1.589
X-41.815 Y-40.761 Z-1.59
X-41.826 Y-40.886 Z-1.592
X-41.828 Y-41.011 Z-1.593
X-41.821 Y-41.136 Z-1.595
X-41.806 Y-41.26 Z-1.596
X-41.783 Y-41.382 Z-1.598
X-41.751 Y-41.503 Z-1.599
X-41.711 Y-41.621 Z-1.601
X-41.664 Y-41.735 Z-1.602
X-41.608 Y-41.847 Z-1.604
X-41.545 Y-41.954 Z-1.605
X-41.475 Y-42.056 Z-1.607
X-41.398 Y-42.154 Z-1.608
X-41.315 Y-42.245 Z-1.61
X-41.226 Y-42.331 Z-1.611
X-41.131 Y-42.411 Z-1.613
X-41.032 Y-42.483 Z-1.614
X-40.927 Y-42.549 Z-1.616
X-40.818 Y-42.608 Z-1.617
X-40.706 Y-42.658 Z-1.619
X-40.591 Y-42.701 Z-1.62
X-40.473 Y-42.736 Z-1.622
X-40.353 Y-42.763 Z-1.623
X-40.231 Y-42.781 Z-1.625
X-40.109 Y-42.792 Z-1.626
X-39.986 Y-42.793 Z-1.628
X-39.864 Y-42.787 Z-1.629
X-39.742 Y-42.772 Z-1.631
X-39.622 Y-42.748 Z-1.632
X-39.504 Y-42.717 Z-1.634
X-39.388 Y-42.678 Z-1.635
X-39.276 Y-42.631 Z-1.637
X-39.167 Y-42.576 Z-1.638
X-39.062 Y-42.514 Z-1.64
X-38.962 Y-42.445 Z-1.641
X-38.866 Y-42.37 Z-1.643
X-38.776 Y-42.288 Z-1.644
X-38.692 Y-42.201 Z-1.646
X-38.615 Y-42.107 Z-1.648
X-38.543 Y-42.009 Z-1.649
X-38.479 Y-41.907 Z-1.651
X-38.422 Y-41.8 Z-1.652
X-38.372 Y-41.69 Z-1.654
X-38.331 Y-41.577 Z-1.655
X-38.297 Y-41.461 Z-1.657
X-38.271 Y-41.343 Z-1.658
X-38.253 Y-41.224 Z-1.66
X-38.243 Y-41.104 Z-1.661
X-38.241 Y-40.984 Z-1.663
X-38.248 Y-40.864 Z-1.664
X-38.263 Y-40.745 Z-1.666
X-38.286 Y-40.627 Z-1.667
X-38.317 Y-40.511 Z-1.669
X-38.356 Y-40.398 Z-1.67
X-38.402 Y-40.287 Z-1.672
X-38.456 Y-40.181 Z-1.673
X-38.517 Y-40.078 Z-1.675
X-38.584 Y-39.98 Z-1.676
X-38.659 Y-39.886 Z-1.678
X-38.739 Y-39.798 Z-1.679
X-38.825 Y-39.716 Z-1.681
X-38.916 Y-39.64 Z-1.682
X-39.013 Y-39.57 Z-1.684
X-39.113 Y-39.507 Z-1.685
X-39.218 Y-39.452 Z-1.687
X-39.326 Y-39.403 Z-1.688
X-39.437 Y-39.362 Z-1.69
X-39.551 Y-39.329 Z-1.691
X-39.666 Y-39.304 Z-1.693
X-39.783 Y-39.287 Z-1.694
X-39.901 Y-39.277 Z-1.696
X-40.019 Y-39.276 Z-1.697
X-40.136 Y-39.283 Z-1.699
X-40.253 Y-39.298 Z-1.7
X-40.369 Y-39.321 Z-1.702
X-40.482 Y-39.351 Z-1.703
X-40.593 Y-39.389 Z-1.705
X-40.701 Y-39.435 Z-1.706
X-40.806 Y-39.488 Z-1.708
X-40.906 Y-39.548 Z-1.709
X-41.002 Y-39.614 Z-1.711
X-41.094 Y-39.687 Z-1.712
X-41.18 Y-39.766 Z-1.714
X-41.26 Y-39.85 Z-1.715
X-41.335 Y-39.94 Z-1.717
X-41.403 Y-40.035 Z-1.718
X-41.464 Y-40.133 Z-1.72
X-41.519 Y-40.236 Z-1.721
X-41.566 Y-40.342 Z-1.723
X-41.606 Y-40.451 Z-1.724
X-41.638 Y-40.563 Z-1.726
X-41.663 Y-40.676 Z-1.727
X-41.679 Y-40.79 Z-1.729
X-41.688 Y-40.906 Z-1.73
X-41.689 Y-41.021 Z-1.732
X-41.682 Y-41.136 Z-1.733
X-41.668 Y-41.251 Z-1.735
X-41.645 Y-41.364 Z-1.736
X-41.615 Y-41.475 Z-1.738
X-41.577 Y-41.584 Z-1.739
X-41.532 Y-41.689 Z-1.741
X-41.48 Y-41.792 Z-1.742
X-41.422 Y-41.89 Z-1.744
X-41.356 Y-41.984 Z-1.745
X-41.285 Y-42.074 Z-1.747
X-41.207 Y-42.158 Z-1.748
X-41.124 Y-42.237 Z-1.75
X-41.036 Y-42.309 Z-1.752
X-40.943 Y-42.376 Z-1.753
X-40.847 Y-42.436 Z-1.755
X-40.746 Y-42.489 Z-1.756
X-40.642 Y-42.535 Z-1.758
X-40.535 Y-42.574 Z-1.759
X-40.426 Y-42.605 Z-1.761
X-40.315 Y-42.629 Z-1.762
X-40.203 Y-42.645 Z-1.764
X-40.09 Y-42.654 Z-1.765
X-39.977 Z-1.767
X-39.864 Y-42.647 Z-1.768
X-39.752 Y-42.633 Z-1.77
X-39.641 Y-42.611 Z-1.771
X-39.532 Y-42.581 Z-1.773
X-39.426 Y-42.544 Z-1.774
X-39.322 Y-42.5 Z-1.776
X-39.222 Y-42.449 Z-1.777
X-39.126 Y-42.391 Z-1.779
X-39.034 Y-42.327 Z-1.78
X-38.946 Y-42.256 Z-1.782
X-38.864 Y-42.18 Z-1.783
X-38.787 Y-42.099 Z-1.785
X-38.716 Y-42.013 Z-1.786
X-38.651 Y-41.922 Z-1.788
X-38.593 Y-41.827 Z-1.789
X-38.541 Y-41.728 Z-1.791
X-38.496 Y-41.626 Z-1.792
X-38.458 Y-41.521 Z-1.794
X-38.428 Y-41.414 Z-1.795
X-38.405 Y-41.306 Z-1.797
X-38.389 Y-41.196 Z-1.798
X-38.381 Y-41.085 Z-1.8
X-38.38 Y-40.974 Z-1.801
X-38.387 Y-40.864 Z-1.803
X-38.402 Y-40.754 Z-1.804
X-38.424 Y-40.646 Z-1.806
X-38.453 Y-40.54 Z-1.807
X-38.49 Y-40.436 Z-1.809
X-38.533 Y-40.334 Z-1.81
X-38.583 Y-40.236 Z-1.812
X-38.64 Y-40.142 Z-1.813
X-38.703 Y-40.052 Z-1.815
X-38.772 Y-39.967 Z-1.816
X-38.846 Y-39.886 Z-1.818
X-38.926 Y-39.811 Z-1.819
X-39.011 Y-39.742 Z-1.821
X-39.1 Y-39.679 Z-1.822
X-39.193 Y-39.621 Z-1.824
X-39.29 Y-39.571 Z-1.825
X-39.39 Y-39.527 Z-1.827
X-39.492 Y-39.49 Z-1.828
X-39.597 Y-39.461 Z-1.83
X-39.703 Y-39.438 Z-1.831
X-39.811 Y-39.423 Z-1.833
X-39.919 Y-39.415 Z-1.834
X-40.028 Z-1.836
X-40.136 Y-39.422 Z-1.837
X-40.243 Y-39.436 Z-1.839
X-40.349 Y-39.458 Z-1.84
X-40.453 Y-39.487 Z-1.842
X-40.555 Y-39.523 Z-1.843
X-40.654 Y-39.566 Z-1.845
X-40.749 Y-39.615 Z-1.846
X-40.841 Y-39.671 Z-1.848
X-40.929 Y-39.733 Z-1.849
X-41.013 Y-39.8 Z-1.851
X-41.091 Y-39.873 Z-1.853
X-41.165 Y-39.951 Z-1.854
X-41.232 Y-40.034 Z-1.856
X-41.294 Y-40.122 Z-1.857
X-41.35 Y-40.213 Z-1.859
X-41.399 Y-40.308 Z-1.86
X-41.442 Y-40.405 Z-1.862
X-41.478 Y-40.506 Z-1.863
X-41.507 Y-40.608 Z-1.865
X-41.528 Y-40.712 Z-1.866
X-41.543 Y-40.818 Z-1.868
X-41.55 Y-40.923 Z-1.869
Y-41.029 Z-1.871
X-41.543 Y-41.135 Z-1.872
X-41.529 Y-41.24 Z-1.874
X-41.507 Y-41.344 Z-1.875
X-41.479 Y-41.445 Z-1.877
X-41.444 Y-41.545 Z-1.878
X-41.402 Y-41.642 Z-1.88
X-41.353 Y-41.735 Z-1.881
X-41.299 Y-41.825 Z-1.883
X-41.238 Y-41.911 Z-1.884
X-41.172 Y-41.992 Z-1.886
X-41.1 Y-42.069 Z-1.887
X-41.024 Y-42.141 Z-1.889
X-40.942 Y-42.207 Z-1.89
X-40.857 Y-42.267 Z-1.892
X-40.768 Y-42.321 Z-1.893
X-40.675 Y-42.369 Z-1.895
X-40.579 Y-42.411 Z-1.896
X-40.481 Y-42.446 Z-1.898
X-40.381 Y-42.474 Z-1.899
X-40.279 Y-42.495 Z-1.901
X-40.176 Y-42.509 Z-1.902
X-40.072 Y-42.516 Z-1.904
X-39.969 Z-1.905
X-39.865 Y-42.508 Z-1.907
X-39.763 Y-42.494 Z-1.908
X-39.662 Y-42.473 Z-1.91
X-39.562 Y-42.445 Z-1.911
X-39.465 Y-42.41 Z-1.913
X-39.371 Y-42.369 Z-1.914
X-39.279 Y-42.322 Z-1.916
X-39.192 Y-42.268 Z-1.917
X-39.108 Y-42.209 Z-1.919
X-39.028 Y-42.144 Z-1.92
X-38.953 Y-42.074 Z-1.922
X-38.884 Y-41.999 Z-1.923
X-38.819 Y-41.919 Z-1.925
X-38.76 Y-41.835 Z-1.926
X-38.708 Y-41.748 Z-1.928
X-38.661 Y-41.657 Z-1.929
X-38.62 Y-41.564 Z-1.931
X-38.587 Y-41.468 Z-1.932
X-38.559 Y-41.37 Z-1.934
X-38.539 Y-41.27 Z-1.935
X-38.525 Y-41.17 Z-1.937
X-38.519 Y-41.068 Z-1.938
Y-40.967 Z-1.94
X-38.526 Y-40.866 Z-1.941
X-38.54 Y-40.766 Z-1.943
X-38.561 Y-40.667 Z-1.944
X-38.589 Y-40.57 Z-1.946
X-38.623 Y-40.475 Z-1.947
X-38.663 Y-40.383 Z-1.949
X-38.71 Y-40.294 Z-1.95
X-38.762 Y-40.208 Z-1.952
X-38.821 Y-40.126 Z-1.953
X-38.884 Y-40.049 Z-1.955
X-38.953 Y-39.976 Z-1.957
X-39.026 Y-39.908 Z-1.958
X-39.104 Y-39.845 Z-1.96
X-39.186 Y-39.788 Z-1.961
X-39.271 Y-39.736 Z-1.963
X-39.36 Y-39.691 Z-1.964
X-39.452 Y-39.652 Z-1.966
X-39.545 Y-39.619 Z-1.967
X-39.641 Y-39.592 Z-1.969
X-39.738 Y-39.573 Z-1.97
X-39.837 Y-39.56 Z-1.972
X-39.936 Y-39.553 Z-1.973
X-40.035 Y-39.554 Z-1.975
X-40.133 Y-39.561 Z-1.976
X-40.231 Y-39.575 Z-1.978
X-40.327 Y-39.596 Z-1.979
X-40.422 Y-39.623 Z-1.981
X-40.515 Y-39.656 Z-1.982
X-40.605 Y-39.696 Z-1.984
X-40.692 Y-39.741 Z-1.985
X-40.775 Y-39.793 Z-1.987
X-40.855 Y-39.85 Z-1.988
X-40.93 Y-39.912 Z-1.99
X-41.002 Y-39.979 Z-1.991
X-41.068 Y-40.051 Z-1.993
X-41.129 Y-40.127 Z-1.994
X-41.185 Y-40.207 Z-1.996
X-41.235 Y-40.291 Z-1.997
X-41.279 Y-40.377 Z-1.999
X-41.317 Y-40.467 Z-2
X-41.349 Y-40.558 Z-2.002
X-41.375 Y-40.652 Z-2.003
X-41.394 Y-40.747 Z-2.005
X-41.406 Y-40.843 Z-2.006
X-41.412 Y-40.939 Z-2.008
X-41.411 Y-41.036 Z-2.009
X-41.404 Y-41.132 Z-2.011
X-41.39 Y-41.228 Z-2.012
X-41.37 Y-41.322 Z-2.014
X-41.344 Y-41.414 Z-2.015
X-41.311 Y-41.504 Z-2.017
X-41.272 Y-41.592 Z-2.018
X-41.227 Y-41.677 Z-2.02
X-41.177 Y-41.758 Z-2.021
X-41.121 Y-41.836 Z-2.023
X-41.06 Y-41.91 Z-2.024
X-40.994 Y-41.979 Z-2.026
X-40.924 Y-42.043 Z-2.027
X-40.85 Y-42.103 Z-2.029
X-40.772 Y-42.157 Z-2.03
X-40.69 Y-42.206 Z-2.032
X-40.605 Y-42.249 Z-2.033
X-40.518 Y-42.286 Z-2.035
X-40.429 Y-42.317 Z-2.036
X-40.337 Y-42.342 Z-2.038
X-40.245 Y-42.36 Z-2.039
X-40.151 Y-42.372 Z-2.041
X-40.057 Y-42.378 Z-2.042
X-39.963 Y-42.377 Z-2.044
X-39.869 Y-42.37 Z-2.045
X-39.776 Y-42.356 Z-2.047
X-39.684 Y-42.336 Z-2.048
X-39.594 Y-42.31 Z-2.05
X-39.506 Y-42.278 Z-2.051
X-39.421 Y-42.239 Z-2.053
X-39.338 Y-42.196 Z-2.054
X-39.259 Y-42.146 Z-2.056
X-39.183 Y-42.092 Z-2.058
X-39.111 Y-42.032 Z-2.059
X-39.044 Y-41.968 Z-2.061
X-38.981 Y-41.9 Z-2.062
X-38.923 Y-41.827 Z-2.064
X-38.871 Y-41.751 Z-2.065
X-38.823 Y-41.671 Z-2.067
X-38.781 Y-41.588 Z-2.068
X-38.745 Y-41.503 Z-2.07
X-38.715 Y-41.416 Z-2.071
X-38.692 Y-41.327 Z-2.073
X-38.674 Y-41.236 Z-2.074
X-38.662 Y-41.145 Z-2.076
X-38.657 Y-41.053 Z-2.077
X-38.658 Y-40.961 Z-2.079
X-38.665 Y-40.87 Z-2.08
X-38.679 Y-40.779 Z-2.082
X-38.698 Y-40.69 Z-2.083
X-38.724 Y-40.602 Z-2.085
X-38.756 Y-40.517 Z-2.086
X-38.793 Y-40.433 Z-2.088
X-38.836 Y-40.353 Z-2.089
X-38.884 Y-40.276 Z-2.091
X-38.937 Y-40.202 Z-2.092
X-38.995 Y-40.132 Z-2.094
X-39.058 Y-40.067 Z-2.095
X-39.125 Y-40.006 Z-2.097
X-39.196 Y-39.949 Z-2.098
X-39.27 Y-39.898 Z-2.1
X-39.348 Y-39.852 Z-2.101
X-39.429 Y-39.812 Z-2.103
X-39.512 Y-39.777 Z-2.104
X-39.597 Y-39.748 Z-2.106
X-39.684 Y-39.725 Z-2.107
X-39.772 Y-39.708 Z-2.109
X-39.861 Y-39.696 Z-2.11
X-39.95 Y-39.691 Z-2.112
X-40.04 Y-39.693 Z-2.113
X-40.129 Y-39.7 Z-2.115
X-40.217 Y-39.713 Z-2.116
X-40.304 Y-39.733 Z-2.118
X-40.389 Y-39.758 Z-2.119
X-40.473 Y-39.789 Z-2.121
X-40.554 Y-39.825 Z-2.122
X-40.632 Y-39.867 Z-2.124
X-40.707 Y-39.914 Z-2.125
X-40.779 Y-39.966 Z-2.127
X-40.847 Y-40.023 Z-2.128
X-40.91 Y-40.084 Z-2.13
X-40.97 Y-40.149 Z-2.131
X-41.024 Y-40.219 Z-2.133
X-41.074 Y-40.291 Z-2.134
X-41.119 Y-40.367 Z-2.136
X-41.158 Y-40.446 Z-2.137
X-41.192 Y-40.526 Z-2.139
X-41.22 Y-40.609 Z-2.14
X-41.242 Y-40.694 Z-2.142
X-41.259 Y-40.78 Z-2.143
X-41.269 Y-40.867 Z-2.145
X-41.274 Y-40.954 Z-2.146
X-41.273 Y-41.041 Z-2.148
X-41.265 Y-41.127 Z-2.149
X-41.252 Y-41.213 Z-2.151
X-41.233 Y-41.298 Z-2.152
X-41.209 Y-41.381 Z-2.154
X-41.178 Y-41.462 Z-2.155
X-41.143 Y-41.541 Z-2.157
X-41.102 Y-41.617 Z-2.158
X-41.056 Y-41.69 Z-2.16
X-41.005 Y-41.76 Z-2.162
X-40.95 Y-41.825 Z-2.163
X-40.89 Y-41.887 Z-2.165
X-40.826 Y-41.945 Z-2.166
X-40.759 Y-41.998 Z-2.168
X-40.688 Y-42.046 Z-2.169
X-40.614 Y-42.089 Z-2.171
X-40.538 Y-42.128 Z-2.172
X-40.459 Y-42.16 Z-2.174
X-40.378 Y-42.187 Z-2.175
X-40.296 Y-42.209 Z-2.177
X-40.212 Y-42.225 Z-2.178
X-40.128 Y-42.235 Z-2.18
X-40.043 Y-42.239 Z-2.181
X-39.958 Y-42.238 Z-2.183
X-39.874 Y-42.231 Z-2.184
X-39.791 Y-42.218 Z-2.186
X-39.708 Y-42.199 Z-2.187
X-39.627 Y-42.175 Z-2.189
X-39.549 Y-42.145 Z-2.19
X-39.472 Y-42.11 Z-2.192
X-39.398 Y-42.07 Z-2.193
X-39.327 Y-42.026 Z-2.195
X-39.26 Y-41.976 Z-2.196
X-39.196 Y-41.922 Z-2.198
X-39.136 Y-41.864 Z-2.199
X-39.08 Y-41.802 Z-2.201
X-39.028 Y-41.736 Z-2.202
X-38.982 Y-41.667 Z-2.204
X-38.94 Y-41.595 Z-2.205
X-38.903 Y-41.521 Z-2.207
X-38.871 Y-41.444 Z-2.208
X-38.845 Y-41.366 Z-2.21
X-38.824 Y-41.286 Z-2.211
X-38.809 Y-41.204 Z-2.213
X-38.799 Y-41.122 Z-2.214
X-38.795 Y-41.04 Z-2.216
X-38.797 Y-40.958 Z-2.217
X-38.804 Y-40.876 Z-2.219
X-38.817 Y-40.795 Z-2.22
X-38.835 Y-40.715 Z-2.222
X-38.859 Y-40.636 Z-2.223
X-38.888 Y-40.56 Z-2.225
X-38.922 Y-40.485 Z-2.226
X-38.961 Y-40.413 Z-2.228
X-39.004 Y-40.345 Z-2.229
X-39.053 Y-40.279 Z-2.231
X-39.105 Y-40.217 Z-2.232
X-39.162 Y-40.159 Z-2.234
X-39.222 Y-40.105 Z-2.235
X-39.286 Y-40.055 Z-2.237
X-39.353 Y-40.01 Z-2.238
X-39.423 Y-39.969 Z-2.24
X-39.496 Y-39.933 Z-2.241
X-39.57 Y-39.903 Z-2.243
X-39.647 Y-39.878 Z-2.244
X-39.724 Y-39.857 Z-2.246
X-39.803 Y-39.843 Z-2.247
X-39.883 Y-39.834 Z-2.249
X-39.963 Y-39.83 Z-2.25
X-40.043 Y-39.832 Z-2.252
X-40.123 Y-39.839 Z-2.253
X-40.201 Y-39.851 Z-2.255
X-40.279 Y-39.869 Z-2.256
X-40.355 Y-39.892 Z-2.258
X-40.429 Y-39.921 Z-2.259
X-40.502 Y-39.954 Z-2.261
X-40.571 Y-39.992 Z-2.262
X-40.638 Y-40.034 Z-2.264
X-40.701 Y-40.081 Z-2.266
X-40.761 Y-40.133 Z-2.267
X-40.818 Y-40.188 Z-2.269
X-40.87 Y-40.246 Z-2.27
X-40.919 Y-40.309 Z-2.272
X-40.962 Y-40.374 Z-2.273
X-41.002 Y-40.442 Z-2.275
X-41.036 Y-40.512 Z-2.276
X-41.066 Y-40.585 Z-2.278
X-41.09 Y-40.659 Z-2.279
X-41.109 Y-40.734 Z-2.281
X-41.123 Y-40.811 Z-2.282
X-41.132 Y-40.888 Z-2.284
X-41.136 Y-40.966 Z-2.285
X-41.134 Y-41.044 Z-2.287
X-41.127 Y-41.121 Z-2.288
X-41.114 Y-41.197 Z-2.29
X-41.097 Y-41.273 Z-2.291
X-41.074 Y-41.346 Z-2.293
X-41.047 Y-41.418 Z-2.294
X-41.014 Y-41.488 Z-2.296
X-40.977 Y-41.556 Z-2.297
X-40.936 Y-41.62 Z-2.299
X-40.89 Y-41.682 Z-2.3
X-40.84 Y-41.74 Z-2.302
X-40.787 Y-41.795 Z-2.303
X-40.729 Y-41.845 Z-2.305
X-40.669 Y-41.892 Z-2.306
X-40.606 Y-41.934 Z-2.308
X-40.54 Y-41.972 Z-2.309
X-40.471 Y-42.005 Z-2.311
X-40.401 Y-42.034 Z-2.312
X-40.329 Y-42.057 Z-2.314
X-40.256 Y-42.076 Z-2.315
X-40.181 Y-42.089 Z-2.317
X-40.106 Y-42.098 Z-2.318
X-40.031 Y-42.101 Z-2.32
X-39.956 Y-42.099 Z-2.321
X-39.881 Y-42.092 Z-2.323
X-39.807 Y-42.08 Z-2.324
X-39.734 Y-42.063 Z-2.326
X-39.663 Y-42.041 Z-2.327
X-39.593 Y-42.014 Z-2.329
X-39.525 Y-41.982 Z-2.33
X-39.46 Y-41.946 Z-2.332
X-39.397 Y-41.906 Z-2.333
X-39.338 Y-41.861 Z-2.335
X-39.282 Y-41.813 Z-2.336
X-39.229 Y-41.761 Z-2.338
X-39.18 Y-41.705 Z-2.339
X-39.135 Y-41.647 Z-2.341
X-39.094 Y-41.585 Z-2.342
X-39.057 Y-41.521 Z-2.344
X-39.025 Y-41.455 Z-2.345
X-38.998 Y-41.387 Z-2.347
X-38.975 Y-41.317 Z-2.348
X-38.957 Y-41.246 Z-2.35
X-38.944 Y-41.174 Z-2.351
X-38.937 Y-41.101 Z-2.353
X-38.934 Y-41.028 Z-2.354
X-38.936 Y-40.956 Z-2.356
X-38.943 Y-40.883 Z-2.357
X-38.955 Y-40.811 Z-2.359
X-38.971 Y-40.741 Z-2.36
X-38.993 Y-40.672 Z-2.362
X-39.019 Y-40.604 Z-2.363
X-39.05 Y-40.539 Z-2.365
X-39.085 Y-40.476 Z-2.367
X-39.124 Y-40.415 Z-2.368
X-39.167 Y-40.358 Z-2.37
X-39.214 Y-40.303 Z-2.371
X-39.265 Y-40.252 Z-2.373
X-39.318 Y-40.205 Z-2.374
X-39.375 Y-40.161 Z-2.376
X-39.435 Y-40.122 Z-2.377
X-39.497 Y-40.087 Z-2.379
X-39.561 Y-40.056 Z-2.38
X-39.627 Y-40.03 Z-2.382
X-39.695 Y-40.008 Z-2.383
X-39.764 Y-39.991 Z-2.385
X-39.833 Y-39.978 Z-2.386
X-39.904 Y-39.971 Z-2.388
X-39.974 Y-39.968 Z-2.389
X-40.045 Y-39.97 Z-2.391
X-40.115 Y-39.977 Z-2.392
X-40.184 Y-39.989 Z-2.394
X-40.252 Y-40.005 Z-2.395
X-40.319 Y-40.026 Z-2.397
X-40.384 Y-40.052 Z-2.398
X-40.448 Y-40.082 Z-2.4
X-40.508 Y-40.116 Z-2.401
X-40.567 Y-40.154 Z-2.403
X-40.622 Y-40.196 Z-2.404
X-40.675 Y-40.241 Z-2.406
X-40.724 Y-40.29 Z-2.407
X-40.77 Y-40.342 Z-2.409
X-40.812 Y-40.397 Z-2.41
X-40.85 Y-40.455 Z-2.412
X-40.884 Y-40.515 Z-2.413
X-40.913 Y-40.577 Z-2.415
X-40.939 Y-40.641 Z-2.416
X-40.96 Y-40.706 Z-2.418
X-40.976 Y-40.773 Z-2.419
X-40.988 Y-40.84 Z-2.421
X-40.995 Y-40.908 Z-2.422
X-40.997 Y-40.977 Z-2.424
X-40.995 Y-41.045 Z-2.425
X-40.988 Y-41.112 Z-2.427
X-40.977 Y-41.179 Z-2.428
X-40.961 Y-41.245 Z-2.43
X-40.94 Y-41.31 Z-2.431
X-40.915 Y-41.373 Z-2.433
X-40.886 Y-41.434 Z-2.434
X-40.853 Y-41.493 Z-2.436
X-40.817 Y-41.549 Z-2.437
X-40.776 Y-41.602 Z-2.439
X-40.732 Y-41.653 Z-2.44
X-40.684 Y-41.7 Z-2.442
X-40.634 Y-41.744 Z-2.443
X-40.581 Y-41.785 Z-2.445
X-40.525 Y-41.821 Z-2.446
X-40.467 Y-41.854 Z-2.448
X-40.407 Y-41.883 Z-2.449
X-40.345 Y-41.907 Z-2.451
X-40.282 Y-41.927 Z-2.452
X-40.218 Y-41.942 Z-2.454
X-40.152 Y-41.954 Z-2.455
X-40.087 Y-41.96 Z-2.457
X-40.021 Y-41.963 Z-2.458
X-39.955 Y-41.96 Z-2.46
X-39.89 Y-41.953 Z-2.461
X-39.825 Y-41.942 Z-2.463
X-39.762 Y-41.927 Z-2.464
X-39.7 Y-41.907 Z-2.466
X-39.639 Y-41.883 Z-2.467
X-39.58 Y-41.855 Z-2.469
X-39.523 Y-41.823 Z-2.471
X-39.469 Y-41.787 Z-2.472
X-39.418 Y-41.748 Z-2.474
X-39.369 Y-41.705 Z-2.475
X-39.323 Y-41.659 Z-2.477
X-39.281 Y-41.61 Z-2.478
X-39.242 Y-41.559 Z-2.48
X-39.207 Y-41.505 Z-2.481
X-39.176 Y-41.449 Z-2.483
X-39.148 Y-41.391 Z-2.484
X-39.125 Y-41.331 Z-2.486
X-39.106 Y-41.27 Z-2.487
X-39.091 Y-41.208 Z-2.489
X-39.08 Y-41.146 Z-2.49
X-39.074 Y-41.082 Z-2.492
X-39.072 Y-41.019 Z-2.493
X-39.074 Y-40.955 Z-2.495
X-39.081 Y-40.892 Z-2.496
X-39.092 Y-40.83 Z-2.498
X-39.107 Y-40.769 Z-2.499
X-39.127 Y-40.709 Z-2.501
X-39.15 Y-40.651 Z-2.502
X-39.177 Y-40.594 Z-2.504
X-39.208 Y-40.54 Z-2.505
X-39.243 Y-40.487 Z-2.507
X-39.281 Y-40.438 Z-2.508
X-39.322 Y-40.391 Z-2.51
X-39.366 Y-40.347 Z-2.511
X-39.413 Y-40.306 Z-2.513
X-39.463 Y-40.269 Z-2.514
X-39.515 Y-40.235 Z-2.516
X-39.569 Y-40.205 Z-2.517
X-39.625 Y-40.179 Z-2.519
X-39.682 Y-40.157 Z-2.52
X-39.741 Y-40.139 Z-2.522
X-39.801 Y-40.124 Z-2.523
X-39.861 Y-40.114 Z-2.525
X-39.922 Y-40.108 Z-2.526
X-39.983 Y-40.107 Z-2.528
X-40.044 Y-40.109 Z-2.529
X-40.105 Y-40.116 Z-2.531
X-40.165 Y-40.127 Z-2.532
X-40.224 Y-40.141 Z-2.534
X-40.281 Y-40.16 Z-2.535
X-40.338 Y-40.183 Z-2.537
X-40.392 Y-40.209 Z-2.538
X-40.444 Y-40.239 Z-2.54
X-40.494 Y-40.272 Z-2.541
X-40.542 Y-40.309 Z-2.543
X-40.587 Y-40.349 Z-2.544
X-40.629 Y-40.391 Z-2.546
X-40.668 Y-40.437 Z-2.547
X-40.704 Y-40.484 Z-2.549
X-40.736 Y-40.535 Z-2.55
X-40.765 Y-40.587 Z-2.552
X-40.79 Y-40.64 Z-2.553
X-40.811 Y-40.696 Z-2.555
X-40.829 Y-40.752 Z-2.556
X-40.842 Y-40.81 Z-2.558
X-40.852 Y-40.868 Z-2.559
X-40.857 Y-40.927 Z-2.561
X-40.859 Y-40.985 Z-2.562
X-40.856 Y-41.044 Z-2.564
X-40.85 Y-41.102 Z-2.565
X-40.839 Y-41.16 Z-2.567
X-40.825 Y-41.216 Z-2.568
X-40.807 Y-41.272 Z-2.57
X-40.785 Y-41.326 Z-2.572
X-40.759 Y-41.378 Z-2.573
X-40.731 Y-41.428 Z-2.575
X-40.698 Y-41.476 Z-2.576
X-40.663 Y-41.522 Z-2.578
X-40.625 Y-41.565 Z-2.579
X-40.584 Y-41.605 Z-2.581
X-40.54 Y-41.642 Z-2.582
X-40.494 Y-41.677 Z-2.584
X-40.446 Y-41.707 Z-2.585
X-40.396 Y-41.735 Z-2.587
X-40.344 Y-41.759 Z-2.588
X-40.291 Y-41.779 Z-2.59
X-40.236 Y-41.796 Z-2.591
X-40.181 Y-41.809 Z-2.593
X-40.125 Y-41.818 Z-2.594
X-40.069 Y-41.823 Z-2.596
X-40.013 Y-41.824 Z-2.597
X-39.956 Y-41.821 Z-2.599
X-39.901 Y-41.815 Z-2.6
X-39.845 Y-41.805 Z-2.602
X-39.791 Y-41.791 Z-2.603
X-39.738 Y-41.773 Z-2.605
X-39.686 Y-41.752 Z-2.606
X-39.636 Y-41.728 Z-2.608
X-39.588 Y-41.7 Z-2.609
X-39.542 Y-41.669 Z-2.611
X-39.499 Y-41.635 Z-2.612
X-39.457 Y-41.598 Z-2.614
X-39.419 Y-41.559 Z-2.615
X-39.383 Y-41.517 Z-2.617
X-39.351 Y-41.472 Z-2.618
X-39.321 Y-41.426 Z-2.62
X-39.295 Y-41.378 Z-2.621
X-39.272 Y-41.328 Z-2.623
X-39.253 Y-41.277 Z-2.624
X-39.237 Y-41.225 Z-2.626
X-39.225 Y-41.172 Z-2.627
X-39.217 Y-41.119 Z-2.629
X-39.212 Y-41.065 Z-2.63
X-39.211 Y-41.011 Z-2.632
X-39.213 Y-40.957 Z-2.633
X-39.22 Y-40.904 Z-2.635
X-39.229 Y-40.851 Z-2.636
X-39.243 Y-40.799 Z-2.638
X-39.26 Y-40.748 Z-2.639
X-39.28 Y-40.699 Z-2.641
X-39.304 Y-40.651 Z-2.642
X-39.331 Y-40.605 Z-2.644
X-39.36 Y-40.561 Z-2.645
X-39.393 Y-40.519 Z-2.647
X-39.428 Y-40.48 Z-2.648
X-39.466 Y-40.443 Z-2.65
X-39.507 Y-40.409 Z-2.651
X-39.549 Y-40.378 Z-2.653
X-39.593 Y-40.35 Z-2.654
X-39.639 Y-40.325 Z-2.656
X-39.687 Y-40.303 Z-2.657
X-39.736 Y-40.285 Z-2.659
X-39.786 Y-40.27 Z-2.66
X-39.836 Y-40.259 Z-2.662
X-39.888 Y-40.251 Z-2.663
X-39.939 Y-40.246 Z-2.665
X-39.991 Y-40.245 Z-2.666
X-40.042 Y-40.248 Z-2.668
