(O1001)
(opening without tabs)
(T1 D=1.587 CR=0.794 - ZMIN=-4.7 - ball end mill)
G90 G94
G17
G21
(-Attention- Property Safe Retracts is set to Clearance Height.)
(Ensure the clearance height will clear the part and or fixtures.)
(Raise the Z-axis to a safe height before starting the program.)

(Contouring opening 3)
S10000 M3
G17 G90 G94
G54
G0 X-25.869 Y-15.794
Z15
G0 Z1
G1 Z0.399 F333.3
X-25.877 Z0.35 F1524
X-25.9 Z0.305
X-25.935 Z0.27
X-25.979 Z0.248
X-26.028 Z0.24
X-26.187
X-34.706 Z-0.058 F333.3
Y-41.206 Z-0.945
X34.706 Z-3.369
Y-15.794 Z-4.256
X22 Z-4.7
X-34.706 F1524
Y-41.206
X34.706
Y-15.794
X22
X21.9
X21.741
X21.692 Z-4.692
X21.648 Z-4.67
X21.613 Z-4.635
X21.59 Z-4.59
X21.583 Z-4.541
G0 Z15

(C-sink  2)
M8
G0 X42.5 Y-41
Z15
Z2
G1 Z0 F600
X45.762 Y-41.159
X45.812 Y-41.151
X45.856 Y-41.128
X45.891 Y-41.093
X45.913 Y-41.049
X45.921 Y-41
X45.912 Y-40.766 Z-0.002
X45.886 Y-40.534 Z-0.003
X45.845 Y-40.304 Z-0.005
X45.788 Y-40.078 Z-0.006
X45.716 Y-39.856 Z-0.008
X45.629 Y-39.639 Z-0.009
X45.528 Y-39.429 Z-0.011
X45.412 Y-39.227 Z-0.012
X45.283 Y-39.033 Z-0.014
X45.141 Y-38.849 Z-0.015
X44.986 Y-38.674 Z-0.017
X44.821 Y-38.511 Z-0.018
X44.644 Y-38.359 Z-0.02
X44.458 Y-38.22 Z-0.021
X44.263 Y-38.094 Z-0.023
X44.059 Y-37.982 Z-0.024
X43.849 Y-37.884 Z-0.026
X43.633 Y-37.8 Z-0.027
X43.411 Y-37.732 Z-0.029
X43.185 Y-37.679 Z-0.03
X42.957 Y-37.641 Z-0.032
X42.726 Y-37.619 Z-0.033
X42.495 Y-37.613 Z-0.035
X42.263 Y-37.623 Z-0.036
X42.033 Y-37.649 Z-0.038
X41.806 Y-37.69 Z-0.039
X41.582 Y-37.747 Z-0.041
X41.362 Y-37.818 Z-0.042
X41.148 Y-37.905 Z-0.044
X40.94 Y-38.006 Z-0.045
X40.74 Y-38.121 Z-0.047
X40.549 Y-38.249 Z-0.048
X40.366 Y-38.39 Z-0.05
X40.194 Y-38.543 Z-0.051
X40.033 Y-38.707 Z-0.053
X39.883 Y-38.882 Z-0.054
X39.745 Y-39.066 Z-0.056
X39.621 Y-39.26 Z-0.057
X39.51 Y-39.461 Z-0.059
X39.414 Y-39.67 Z-0.06
X39.331 Y-39.884 Z-0.062
X39.264 Y-40.104 Z-0.063
X39.212 Y-40.327 Z-0.065
X39.175 Y-40.553 Z-0.066
X39.154 Y-40.782 Z-0.068
X39.148 Y-41.011 Z-0.069
X39.158 Y-41.24 Z-0.071
X39.184 Y-41.467 Z-0.072
X39.225 Y-41.692 Z-0.074
X39.281 Y-41.914 Z-0.075
X39.353 Y-42.131 Z-0.077
X39.439 Y-42.343 Z-0.078
X39.539 Y-42.548 Z-0.08
X39.653 Y-42.746 Z-0.081
X39.78 Y-42.936 Z-0.083
X39.92 Y-43.116 Z-0.084
X40.072 Y-43.286 Z-0.086
X40.234 Y-43.446 Z-0.087
X40.408 Y-43.594 Z-0.089
X40.591 Y-43.729 Z-0.09
X40.782 Y-43.852 Z-0.092
X40.982 Y-43.961 Z-0.093
X41.188 Y-44.057 Z-0.095
X41.401 Y-44.138 Z-0.096
X41.618 Y-44.204 Z-0.098
X41.839 Y-44.255 Z-0.099
X42.063 Y-44.291 Z-0.101
X42.289 Y-44.312 Z-0.102
X42.516 Y-44.317 Z-0.104
X42.743 Y-44.307 Z-0.106
X42.968 Y-44.281 Z-0.107
X43.19 Y-44.24 Z-0.109
X43.41 Y-44.184 Z-0.11
X43.625 Y-44.113 Z-0.112
X43.834 Y-44.027 Z-0.113
X44.037 Y-43.928 Z-0.115
X44.233 Y-43.815 Z-0.116
X44.42 Y-43.688 Z-0.118
X44.598 Y-43.55 Z-0.119
X44.766 Y-43.4 Z-0.121
X44.924 Y-43.238 Z-0.122
X45.07 Y-43.066 Z-0.124
X45.204 Y-42.885 Z-0.125
X45.325 Y-42.695 Z-0.127
X45.433 Y-42.498 Z-0.128
X45.527 Y-42.293 Z-0.13
X45.607 Y-42.083 Z-0.131
X45.672 Y-41.868 Z-0.133
X45.722 Y-41.649 Z-0.134
X45.758 Y-41.427 Z-0.136
X45.778 Y-41.203 Z-0.137
X45.782 Y-40.979 Z-0.139
X45.772 Y-40.755 Z-0.14
X45.746 Y-40.532 Z-0.142
X45.705 Y-40.312 Z-0.143
X45.649 Y-40.095 Z-0.145
X45.578 Y-39.882 Z-0.146
X45.493 Y-39.675 Z-0.148
X45.395 Y-39.474 Z-0.149
X45.282 Y-39.281 Z-0.151
X45.157 Y-39.096 Z-0.152
X45.02 Y-38.92 Z-0.154
X44.871 Y-38.754 Z-0.155
X44.711 Y-38.598 Z-0.157
X44.54 Y-38.454 Z-0.158
X44.361 Y-38.322 Z-0.16
X44.173 Y-38.202 Z-0.161
X43.977 Y-38.096 Z-0.163
X43.775 Y-38.003 Z-0.164
X43.566 Y-37.924 Z-0.166
X43.353 Y-37.86 Z-0.167
X43.137 Y-37.811 Z-0.169
X42.917 Y-37.776 Z-0.17
X42.696 Y-37.757 Z-0.172
X42.474 Y-37.752 Z-0.173
X42.252 Y-37.763 Z-0.175
X42.032 Y-37.789 Z-0.176
X41.814 Y-37.83 Z-0.178
X41.599 Y-37.886 Z-0.179
X41.389 Y-37.956 Z-0.181
X41.184 Y-38.04 Z-0.182
X40.986 Y-38.139 Z-0.184
X40.795 Y-38.25 Z-0.185
X40.612 Y-38.374 Z-0.187
X40.438 Y-38.51 Z-0.188
X40.274 Y-38.658 Z-0.19
X40.12 Y-38.817 Z-0.191
X39.978 Y-38.985 Z-0.193
X39.847 Y-39.163 Z-0.194
X39.729 Y-39.349 Z-0.196
X39.624 Y-39.543 Z-0.197
X39.533 Y-39.744 Z-0.199
X39.455 Y-39.95 Z-0.2
X39.392 Y-40.161 Z-0.202
X39.343 Y-40.375 Z-0.203
X39.31 Y-40.593 Z-0.205
X39.291 Y-40.812 Z-0.207
X39.287 Y-41.031 Z-0.208
X39.298 Y-41.251 Z-0.21
X39.324 Y-41.468 Z-0.211
X39.365 Y-41.684 Z-0.213
X39.421 Y-41.896 Z-0.214
X39.49 Y-42.104 Z-0.216
X39.574 Y-42.306 Z-0.217
X39.672 Y-42.502 Z-0.219
X39.782 Y-42.691 Z-0.22
X39.905 Y-42.872 Z-0.222
X40.04 Y-43.044 Z-0.223
X40.187 Y-43.206 Z-0.225
X40.344 Y-43.358 Z-0.226
X40.511 Y-43.499 Z-0.228
X40.687 Y-43.627 Z-0.229
X40.872 Y-43.744 Z-0.231
X41.064 Y-43.847 Z-0.232
X41.262 Y-43.937 Z-0.234
X41.466 Y-44.014 Z-0.235
X41.675 Y-44.076 Z-0.237
X41.887 Y-44.123 Z-0.238
X42.102 Y-44.157 Z-0.24
X42.319 Y-44.175 Z-0.241
X42.536 Y-44.178 Z-0.243
X42.753 Y-44.167 Z-0.244
X42.968 Y-44.141 Z-0.246
X43.182 Y-44.1 Z-0.247
X43.391 Y-44.045 Z-0.249
X43.597 Y-43.975 Z-0.25
X43.797 Y-43.892 Z-0.252
X43.991 Y-43.795 Z-0.253
X44.177 Y-43.686 Z-0.255
X44.356 Y-43.564 Z-0.256
X44.526 Y-43.43 Z-0.258
X44.686 Y-43.285 Z-0.259
X44.836 Y-43.129 Z-0.261
X44.975 Y-42.963 Z-0.262
X45.102 Y-42.789 Z-0.264
X45.217 Y-42.606 Z-0.265
X45.319 Y-42.416 Z-0.267
X45.407 Y-42.22 Z-0.268
X45.483 Y-42.018 Z-0.27
X45.544 Y-41.811 Z-0.271
X45.59 Y-41.601 Z-0.273
X45.623 Y-41.389 Z-0.274
X45.641 Y-41.174 Z-0.276
X45.644 Y-40.959 Z-0.277
X45.632 Y-40.745 Z-0.279
X45.606 Y-40.532 Z-0.28
X45.565 Y-40.321 Z-0.282
X45.51 Y-40.114 Z-0.283
X45.441 Y-39.911 Z-0.285
X45.358 Y-39.713 Z-0.286
X45.262 Y-39.521 Z-0.288
X45.154 Y-39.337 Z-0.289
X45.033 Y-39.16 Z-0.291
X44.9 Y-38.993 Z-0.292
X44.756 Y-38.834 Z-0.294
X44.602 Y-38.686 Z-0.295
X44.438 Y-38.549 Z-0.297
X44.265 Y-38.424 Z-0.298
X44.084 Y-38.311 Z-0.3
X43.896 Y-38.21 Z-0.301
X43.702 Y-38.123 Z-0.303
X43.502 Y-38.049 Z-0.304
X43.298 Y-37.989 Z-0.306
X43.09 Y-37.943 Z-0.307
X42.879 Y-37.911 Z-0.309
X42.667 Y-37.894 Z-0.311
X42.455 Y-37.891 Z-0.312
X42.243 Y-37.903 Z-0.314
X42.032 Y-37.929 Z-0.315
X41.823 Y-37.97 Z-0.317
X41.619 Y-38.025 Z-0.318
X41.418 Y-38.093 Z-0.32
X41.222 Y-38.175 Z-0.321
X41.033 Y-38.271 Z-0.323
X40.851 Y-38.378 Z-0.324
X40.677 Y-38.498 Z-0.326
X40.511 Y-38.63 Z-0.327
X40.355 Y-38.772 Z-0.329
X40.209 Y-38.925 Z-0.33
X40.073 Y-39.088 Z-0.332
X39.95 Y-39.259 Z-0.333
X39.838 Y-39.438 Z-0.335
X39.739 Y-39.624 Z-0.336
X39.653 Y-39.816 Z-0.338
X39.58 Y-40.014 Z-0.339
X39.521 Y-40.216 Z-0.341
X39.476 Y-40.422 Z-0.342
X39.445 Y-40.63 Z-0.344
X39.428 Y-40.84 Z-0.345
X39.426 Y-41.05 Z-0.347
X39.438 Y-41.26 Z-0.348
X39.464 Y-41.468 Z-0.35
X39.505 Y-41.674 Z-0.351
X39.559 Y-41.876 Z-0.353
X39.627 Y-42.075 Z-0.354
X39.709 Y-42.268 Z-0.356
X39.803 Y-42.455 Z-0.357
X39.91 Y-42.635 Z-0.359
X40.029 Y-42.807 Z-0.36
X40.16 Y-42.971 Z-0.362
X40.301 Y-43.125 Z-0.363
X40.452 Y-43.269 Z-0.365
X40.613 Y-43.402 Z-0.366
X40.782 Y-43.524 Z-0.368
X40.959 Y-43.635 Z-0.369
X41.144 Y-43.732 Z-0.371
X41.334 Y-43.817 Z-0.372
X41.53 Y-43.889 Z-0.374
X41.73 Y-43.947 Z-0.375
X41.933 Y-43.991 Z-0.377
X42.139 Y-44.021 Z-0.378
X42.346 Y-44.037 Z-0.38
X42.554 Y-44.039 Z-0.381
X42.761 Y-44.027 Z-0.383
X42.967 Y-44.001 Z-0.384
X43.171 Y-43.96 Z-0.386
X43.371 Y-43.906 Z-0.387
X43.567 Y-43.838 Z-0.389
X43.758 Y-43.757 Z-0.39
X43.943 Y-43.664 Z-0.392
X44.12 Y-43.558 Z-0.393
X44.29 Y-43.44 Z-0.395
X44.452 Y-43.311 Z-0.396
X44.604 Y-43.171 Z-0.398
X44.746 Y-43.021 Z-0.399
X44.878 Y-42.862 Z-0.401
X44.999 Y-42.694 Z-0.402
X45.107 Y-42.519 Z-0.404
X45.203 Y-42.337 Z-0.405
X45.287 Y-42.148 Z-0.407
X45.358 Y-41.955 Z-0.408
X45.415 Y-41.757 Z-0.41
X45.458 Y-41.556 Z-0.412
X45.488 Y-41.352 Z-0.413
X45.503 Y-41.147 Z-0.415
X45.505 Y-40.942 Z-0.416
X45.492 Y-40.737 Z-0.418
X45.466 Y-40.533 Z-0.419
X45.425 Y-40.332 Z-0.421
X45.371 Y-40.134 Z-0.422
X45.304 Y-39.94 Z-0.424
X45.224 Y-39.752 Z-0.425
X45.131 Y-39.57 Z-0.427
X45.026 Y-39.394 Z-0.428
X44.909 Y-39.226 Z-0.43
X44.781 Y-39.067 Z-0.431
X44.643 Y-38.916 Z-0.433
X44.494 Y-38.776 Z-0.434
X44.337 Y-38.646 Z-0.436
X44.171 Y-38.527 Z-0.437
X43.997 Y-38.42 Z-0.439
X43.817 Y-38.326 Z-0.44
X43.63 Y-38.243 Z-0.442
X43.439 Y-38.174 Z-0.443
X43.243 Y-38.118 Z-0.445
X43.044 Y-38.075 Z-0.446
X42.843 Y-38.046 Z-0.448
X42.641 Y-38.031 Z-0.449
X42.438 Y-38.03 Z-0.451
X42.235 Y-38.043 Z-0.452
X42.034 Y-38.069 Z-0.454
X41.835 Y-38.11 Z-0.455
X41.64 Y-38.163 Z-0.457
X41.448 Y-38.23 Z-0.458
X41.262 Y-38.31 Z-0.46
X41.082 Y-38.402 Z-0.461
X40.909 Y-38.506 Z-0.463
X40.743 Y-38.622 Z-0.464
X40.585 Y-38.749 Z-0.466
X40.437 Y-38.886 Z-0.467
X40.299 Y-39.032 Z-0.469
X40.171 Y-39.188 Z-0.47
X40.054 Y-39.353 Z-0.472
X39.948 Y-39.524 Z-0.473
X39.855 Y-39.703 Z-0.475
X39.773 Y-39.887 Z-0.476
X39.705 Y-40.076 Z-0.478
X39.65 Y-40.27 Z-0.479
X39.608 Y-40.467 Z-0.481
X39.58 Y-40.665 Z-0.482
X39.566 Y-40.866 Z-0.484
X39.565 Y-41.067 Z-0.485
X39.578 Y-41.267 Z-0.487
X39.604 Y-41.465 Z-0.488
X39.644 Y-41.662 Z-0.49
X39.698 Y-41.855 Z-0.491
X39.764 Y-42.044 Z-0.493
X39.843 Y-42.228 Z-0.494
X39.935 Y-42.406 Z-0.496
X40.038 Y-42.577 Z-0.497
X40.152 Y-42.74 Z-0.499
X40.278 Y-42.896 Z-0.5
X40.414 Y-43.042 Z-0.502
X40.559 Y-43.179 Z-0.503
X40.713 Y-43.305 Z-0.505
X40.876 Y-43.42 Z-0.506
X41.046 Y-43.524 Z-0.508
X41.222 Y-43.616 Z-0.509
X41.405 Y-43.696 Z-0.511
X41.592 Y-43.763 Z-0.512
X41.783 Y-43.817 Z-0.514
X41.977 Y-43.858 Z-0.516
X42.174 Y-43.886 Z-0.517
X42.372 Y-43.9 Z-0.519
X42.57 Z-0.52
X42.768 Y-43.887 Z-0.522
X42.965 Y-43.861 Z-0.523
X43.159 Y-43.821 Z-0.525
X43.349 Y-43.768 Z-0.526
X43.536 Y-43.702 Z-0.528
X43.717 Y-43.623 Z-0.529
X43.893 Y-43.533 Z-0.531
X44.062 Y-43.43 Z-0.532
X44.223 Y-43.317 Z-0.534
X44.377 Y-43.193 Z-0.535
X44.521 Y-43.058 Z-0.537
X44.656 Y-42.914 Z-0.538
X44.78 Y-42.762 Z-0.54
X44.894 Y-42.601 Z-0.541
X44.997 Y-42.433 Z-0.543
X45.087 Y-42.258 Z-0.544
X45.166 Y-42.078 Z-0.546
X45.232 Y-41.893 Z-0.547
X45.285 Y-41.704 Z-0.549
X45.325 Y-41.512 Z-0.55
X45.352 Y-41.317 Z-0.552
X45.365 Y-41.122 Z-0.553
X45.366 Y-40.926 Z-0.555
X45.352 Y-40.73 Z-0.556
X45.326 Y-40.536 Z-0.558
X45.286 Y-40.345 Z-0.559
X45.233 Y-40.156 Z-0.561
X45.168 Y-39.972 Z-0.562
X45.09 Y-39.793 Z-0.564
X45 Y-39.62 Z-0.565
X44.899 Y-39.453 Z-0.567
X44.786 Y-39.294 Z-0.568
X44.663 Y-39.142 Z-0.57
X44.53 Y-39 Z-0.571
X44.388 Y-38.867 Z-0.573
X44.237 Y-38.744 Z-0.574
X44.078 Y-38.632 Z-0.576
X43.912 Y-38.531 Z-0.577
X43.739 Y-38.442 Z-0.579
X43.561 Y-38.365 Z-0.58
X43.378 Y-38.3 Z-0.582
X43.191 Y-38.248 Z-0.583
X43.001 Y-38.208 Z-0.585
X42.809 Y-38.182 Z-0.586
X42.616 Y-38.169 Z-0.588
X42.422 Z-0.589
X42.229 Y-38.183 Z-0.591
X42.037 Y-38.209 Z-0.592
X41.848 Y-38.249 Z-0.594
X41.662 Y-38.301 Z-0.595
X41.48 Y-38.366 Z-0.597
X41.304 Y-38.443 Z-0.598
X41.132 Y-38.532 Z-0.6
X40.968 Y-38.633 Z-0.601
X40.811 Y-38.744 Z-0.603
X40.661 Y-38.866 Z-0.604
X40.521 Y-38.998 Z-0.606
X40.39 Y-39.139 Z-0.607
X40.269 Y-39.288 Z-0.609
X40.158 Y-39.445 Z-0.61
X40.059 Y-39.61 Z-0.612
X39.971 Y-39.78 Z-0.613
X39.895 Y-39.956 Z-0.615
X39.831 Y-40.137 Z-0.616
X39.78 Y-40.322 Z-0.618
X39.742 Y-40.51 Z-0.62
X39.716 Y-40.699 Z-0.621
X39.703 Y-40.89 Z-0.623
X39.704 Y-41.081 Z-0.624
X39.718 Y-41.272 Z-0.626
X39.744 Y-41.461 Z-0.627
X39.784 Y-41.648 Z-0.629
X39.836 Y-41.832 Z-0.63
X39.9 Y-42.011 Z-0.632
X39.977 Y-42.186 Z-0.633
X40.065 Y-42.355 Z-0.635
X40.164 Y-42.517 Z-0.636
X40.275 Y-42.672 Z-0.638
X40.395 Y-42.819 Z-0.639
X40.525 Y-42.958 Z-0.641
X40.665 Y-43.087 Z-0.642
X40.813 Y-43.206 Z-0.644
X40.968 Y-43.315 Z-0.645
X41.131 Y-43.413 Z-0.647
X41.299 Y-43.5 Z-0.648
X41.473 Y-43.574 Z-0.65
X41.652 Y-43.637 Z-0.651
X41.835 Y-43.687 Z-0.653
X42.02 Y-43.725 Z-0.654
X42.207 Y-43.75 Z-0.656
X42.396 Y-43.762 Z-0.657
X42.585 Y-43.761 Z-0.659
X42.773 Y-43.747 Z-0.66
X42.96 Y-43.721 Z-0.662
X43.144 Y-43.682 Z-0.663
X43.326 Y-43.63 Z-0.665
X43.503 Y-43.566 Z-0.666
X43.675 Y-43.49 Z-0.668
X43.842 Y-43.403 Z-0.669
X44.002 Y-43.304 Z-0.671
X44.155 Y-43.195 Z-0.672
X44.3 Y-43.076 Z-0.674
X44.437 Y-42.947 Z-0.675
X44.564 Y-42.809 Z-0.677
X44.681 Y-42.663 Z-0.678
X44.789 Y-42.509 Z-0.68
X44.885 Y-42.348 Z-0.681
X44.97 Y-42.182 Z-0.683
X45.044 Y-42.01 Z-0.684
X45.105 Y-41.833 Z-0.686
X45.155 Y-41.653 Z-0.687
X45.192 Y-41.47 Z-0.689
X45.216 Y-41.284 Z-0.69
X45.228 Y-41.098 Z-0.692
X45.226 Y-40.912 Z-0.693
X45.213 Y-40.726 Z-0.695
X45.186 Y-40.541 Z-0.696
X45.147 Y-40.359 Z-0.698
X45.096 Y-40.181 Z-0.699
X45.032 Y-40.006 Z-0.701
X44.957 Y-39.836 Z-0.702
X44.87 Y-39.671 Z-0.704
X44.773 Y-39.513 Z-0.705
X44.665 Y-39.362 Z-0.707
X44.547 Y-39.219 Z-0.708
X44.419 Y-39.085 Z-0.71
X44.283 Y-38.959 Z-0.711
X44.138 Y-38.843 Z-0.713
X43.986 Y-38.738 Z-0.714
X43.828 Y-38.643 Z-0.716
X43.663 Y-38.559 Z-0.717
X43.493 Y-38.487 Z-0.719
X43.318 Y-38.426 Z-0.721
X43.14 Y-38.378 Z-0.722
X42.959 Y-38.342 Z-0.724
X42.777 Y-38.318 Z-0.725
X42.593 Y-38.307 Z-0.727
X42.408 Y-38.308 Z-0.728
X42.225 Y-38.322 Z-0.73
X42.043 Y-38.349 Z-0.731
X41.863 Y-38.388 Z-0.733
X41.687 Y-38.439 Z-0.734
X41.514 Y-38.502 Z-0.736
X41.347 Y-38.576 Z-0.737
X41.184 Y-38.662 Z-0.739
X41.029 Y-38.759 Z-0.74
X40.88 Y-38.866 Z-0.742
X40.739 Y-38.982 Z-0.743
X40.606 Y-39.109 Z-0.745
X40.483 Y-39.243 Z-0.746
X40.368 Y-39.386 Z-0.748
X40.264 Y-39.536 Z-0.749
X40.171 Y-39.693 Z-0.751
X40.089 Y-39.856 Z-0.752
X40.017 Y-40.024 Z-0.754
X39.958 Y-40.196 Z-0.755
X39.91 Y-40.372 Z-0.757
X39.875 Y-40.551 Z-0.758
X39.852 Y-40.731 Z-0.76
X39.841 Y-40.913 Z-0.761
X39.843 Y-41.095 Z-0.763
X39.857 Y-41.276 Z-0.764
X39.884 Y-41.455 Z-0.766
X39.923 Y-41.633 Z-0.767
X39.973 Y-41.807 Z-0.769
X40.036 Y-41.977 Z-0.77
X40.109 Y-42.142 Z-0.772
X40.194 Y-42.302 Z-0.773
X40.29 Y-42.456 Z-0.775
X40.396 Y-42.603 Z-0.776
X40.511 Y-42.742 Z-0.778
X40.636 Y-42.872 Z-0.779
X40.769 Y-42.994 Z-0.781
X40.91 Y-43.106 Z-0.782
X41.059 Y-43.209 Z-0.784
X41.214 Y-43.301 Z-0.785
X41.375 Y-43.382 Z-0.787
X41.541 Y-43.452 Z-0.788
X41.711 Y-43.51 Z-0.79
X41.884 Y-43.557 Z-0.791
X42.061 Y-43.591 Z-0.793
X42.239 Y-43.614 Z-0.794
X42.418 Y-43.624 Z-0.796
X42.598 Y-43.622 Z-0.797
X42.776 Y-43.608 Z-0.799
X42.954 Y-43.581 Z-0.8
X43.129 Y-43.543 Z-0.802
X43.3 Y-43.492 Z-0.803
X43.468 Y-43.431 Z-0.805
X43.631 Y-43.357 Z-0.806
X43.789 Y-43.273 Z-0.808
X43.94 Y-43.179 Z-0.809
X44.085 Y-43.074 Z-0.811
X44.222 Y-42.96 Z-0.812
X44.351 Y-42.837 Z-0.814
X44.471 Y-42.705 Z-0.815
X44.581 Y-42.565 Z-0.817
X44.682 Y-42.419 Z-0.818
X44.773 Y-42.266 Z-0.82
X44.852 Y-42.107 Z-0.821
X44.921 Y-41.943 Z-0.823
X44.978 Y-41.775 Z-0.825
X45.024 Y-41.603 Z-0.826
X45.058 Y-41.429 Z-0.828
X45.08 Y-41.253 Z-0.829
X45.09 Y-41.076 Z-0.831
X45.087 Y-40.899 Z-0.832
X45.073 Y-40.723 Z-0.834
X45.046 Y-40.548 Z-0.835
X45.008 Y-40.376 Z-0.837
X44.958 Y-40.206 Z-0.838
X44.897 Y-40.041 Z-0.84
X44.824 Y-39.88 Z-0.841
X44.741 Y-39.725 Z-0.843
X44.647 Y-39.575 Z-0.844
X44.544 Y-39.433 Z-0.846
X44.431 Y-39.298 Z-0.847
X44.309 Y-39.171 Z-0.849
X44.179 Y-39.053 Z-0.85
X44.041 Y-38.944 Z-0.852
X43.896 Y-38.845 Z-0.853
X43.745 Y-38.756 Z-0.855
X43.588 Y-38.677 Z-0.856
X43.426 Y-38.61 Z-0.858
X43.26 Y-38.553 Z-0.859
X43.091 Y-38.509 Z-0.861
X42.919 Y-38.476 Z-0.862
X42.746 Y-38.454 Z-0.864
X42.571 Y-38.445 Z-0.865
X42.397 Y-38.448 Z-0.867
X42.223 Y-38.462 Z-0.868
X42.05 Y-38.488 Z-0.87
X41.88 Y-38.527 Z-0.871
X41.713 Y-38.576 Z-0.873
X41.55 Y-38.637 Z-0.874
X41.391 Y-38.709 Z-0.876
X41.238 Y-38.791 Z-0.877
X41.091 Y-38.884 Z-0.879
X40.951 Y-38.986 Z-0.88
X40.818 Y-39.098 Z-0.882
X40.693 Y-39.218 Z-0.883
X40.576 Y-39.347 Z-0.885
X40.469 Y-39.483 Z-0.886
X40.372 Y-39.626 Z-0.888
X40.284 Y-39.775 Z-0.889
X40.207 Y-39.93 Z-0.891
X40.141 Y-40.09 Z-0.892
X40.085 Y-40.254 Z-0.894
X40.041 Y-40.421 Z-0.895
X40.009 Y-40.59 Z-0.897
X39.988 Y-40.762 Z-0.898
X39.98 Y-40.934 Z-0.9
X39.982 Y-41.106 Z-0.901
X39.997 Y-41.278 Z-0.903
X40.023 Y-41.448 Z-0.904
X40.061 Y-41.615 Z-0.906
X40.11 Y-41.78 Z-0.907
X40.171 Y-41.941 Z-0.909
X40.242 Y-42.097 Z-0.91
X40.323 Y-42.248 Z-0.912
X40.415 Y-42.393 Z-0.913
X40.516 Y-42.531 Z-0.915
X40.626 Y-42.662 Z-0.916
X40.745 Y-42.785 Z-0.918
X40.872 Y-42.9 Z-0.919
X41.007 Y-43.005 Z-0.921
X41.148 Y-43.102 Z-0.922
X41.296 Y-43.188 Z-0.924
X41.449 Y-43.263 Z-0.925
X41.606 Y-43.329 Z-0.927
X41.768 Y-43.383 Z-0.929
X41.933 Y-43.426 Z-0.93
X42.1 Y-43.457 Z-0.932
X42.269 Y-43.477 Z-0.933
X42.439 Y-43.486 Z-0.935
X42.609 Y-43.483 Z-0.936
X42.778 Y-43.468 Z-0.938
X42.945 Y-43.442 Z-0.939
X43.111 Y-43.404 Z-0.941
X43.273 Y-43.355 Z-0.942
X43.432 Y-43.296 Z-0.944
X43.586 Y-43.225 Z-0.945
X43.734 Y-43.145 Z-0.947
X43.877 Y-43.054 Z-0.948
X44.013 Y-42.954 Z-0.95
X44.142 Y-42.845 Z-0.951
X44.263 Y-42.727 Z-0.953
X44.376 Y-42.602 Z-0.954
X44.48 Y-42.469 Z-0.956
X44.575 Y-42.33 Z-0.957
X44.659 Y-42.184 Z-0.959
X44.734 Y-42.033 Z-0.96
X44.798 Y-41.878 Z-0.962
X44.851 Y-41.718 Z-0.963
X44.893 Y-41.556 Z-0.965
X44.924 Y-41.391 Z-0.966
X44.943 Y-41.224 Z-0.968
X44.951 Y-41.057 Z-0.969
X44.948 Y-40.889 Z-0.971
X44.933 Y-40.722 Z-0.972
X44.907 Y-40.557 Z-0.974
X44.87 Y-40.394 Z-0.975
X44.821 Y-40.234 Z-0.977
X44.762 Y-40.078 Z-0.978
X44.693 Y-39.926 Z-0.98
X44.613 Y-39.779 Z-0.981
X44.523 Y-39.639 Z-0.983
X44.424 Y-39.505 Z-0.984
X44.316 Y-39.378 Z-0.986
X44.2 Y-39.259 Z-0.987
X44.076 Y-39.148 Z-0.989
X43.945 Y-39.045 Z-0.99
X43.808 Y-38.953 Z-0.992
X43.664 Y-38.869 Z-0.993
X43.515 Y-38.796 Z-0.995
X43.362 Y-38.733 Z-0.996
X43.204 Y-38.681 Z-0.998
X43.044 Y-38.64 Z-0.999
X42.881 Y-38.61 Z-1.001
X42.717 Y-38.591 Z-1.002
X42.552 Y-38.583 Z-1.004
X42.387 Y-38.587 Z-1.005
X42.222 Y-38.602 Z-1.007
X42.059 Y-38.628 Z-1.008
X41.899 Y-38.665 Z-1.01
X41.741 Y-38.713 Z-1.011
X41.587 Y-38.771 Z-1.013
X41.438 Y-38.84 Z-1.014
X41.293 Y-38.919 Z-1.016
X41.155 Y-39.008 Z-1.017
X41.023 Y-39.106 Z-1.019
X40.898 Y-39.212 Z-1.02
X40.781 Y-39.327 Z-1.022
X40.671 Y-39.449 Z-1.023
X40.571 Y-39.578 Z-1.025
X40.48 Y-39.714 Z-1.026
X40.398 Y-39.856 Z-1.028
X40.326 Y-40.003 Z-1.03
X40.264 Y-40.154 Z-1.031
X40.213 Y-40.309 Z-1.033
X40.173 Y-40.468 Z-1.034
X40.143 Y-40.628 Z-1.036
X40.125 Y-40.79 Z-1.037
X40.118 Y-40.953 Z-1.039
X40.122 Y-41.116 Z-1.04
X40.137 Y-41.278 Z-1.042
X40.163 Y-41.438 Z-1.043
X40.199 Y-41.596 Z-1.045
X40.247 Y-41.752 Z-1.046
X40.305 Y-41.903 Z-1.048
X40.373 Y-42.05 Z-1.049
X40.451 Y-42.193 Z-1.051
X40.539 Y-42.329 Z-1.052
X40.635 Y-42.459 Z-1.054
X40.74 Y-42.582 Z-1.055
X40.854 Y-42.697 Z-1.057
X40.974 Y-42.805 Z-1.058
X41.102 Y-42.903 Z-1.06
X41.236 Y-42.993 Z-1.061
X41.376 Y-43.073 Z-1.063
X41.521 Y-43.144 Z-1.064
X41.67 Y-43.205 Z-1.066
X41.823 Y-43.255 Z-1.067
X41.979 Y-43.294 Z-1.069
X42.137 Y-43.323 Z-1.07
X42.297 Y-43.341 Z-1.072
X42.457 Y-43.348 Z-1.073
X42.618 Y-43.344 Z-1.075
X42.777 Y-43.329 Z-1.076
X42.935 Y-43.303 Z-1.078
X43.091 Y-43.266 Z-1.079
X43.244 Y-43.219 Z-1.081
X43.394 Y-43.162 Z-1.082
X43.538 Y-43.094 Z-1.084
X43.678 Y-43.017 Z-1.085
X43.813 Y-42.931 Z-1.087
X43.94 Y-42.835 Z-1.088
X44.061 Y-42.731 Z-1.09
X44.175 Y-42.62 Z-1.091
X44.281 Y-42.5 Z-1.093
X44.378 Y-42.374 Z-1.094
X44.466 Y-42.242 Z-1.096
X44.545 Y-42.104 Z-1.097
X44.614 Y-41.961 Z-1.099
X44.673 Y-41.814 Z-1.1
X44.722 Y-41.663 Z-1.102
X44.761 Y-41.51 Z-1.103
X44.789 Y-41.354 Z-1.105
X44.806 Y-41.196 Z-1.106
X44.813 Y-41.038 Z-1.108
X44.809 Y-40.88 Z-1.109
X44.794 Y-40.723 Z-1.111
X44.768 Y-40.567 Z-1.112
X44.732 Y-40.414 Z-1.114
X44.685 Y-40.263 Z-1.115
X44.628 Y-40.116 Z-1.117
X44.561 Y-39.974 Z-1.118
X44.485 Y-39.836 Z-1.12
X44.4 Y-39.704 Z-1.121
X44.306 Y-39.578 Z-1.123
X44.203 Y-39.459 Z-1.124
X44.093 Y-39.347 Z-1.126
X43.975 Y-39.244 Z-1.127
X43.851 Y-39.148 Z-1.129
X43.72 Y-39.061 Z-1.13
X43.584 Y-38.984 Z-1.132
X43.444 Y-38.916 Z-1.134
X43.298 Y-38.858 Z-1.135
X43.15 Y-38.81 Z-1.137
X42.998 Y-38.772 Z-1.138
X42.845 Y-38.745 Z-1.14
X42.69 Y-38.728 Z-1.141
X42.534 Y-38.722 Z-1.143
X42.378 Y-38.726 Z-1.144
X42.224 Y-38.741 Z-1.146
X42.07 Y-38.767 Z-1.147
X41.919 Y-38.803 Z-1.149
X41.771 Y-38.849 Z-1.15
X41.626 Y-38.905 Z-1.152
X41.486 Y-38.971 Z-1.153
X41.35 Y-39.047 Z-1.155
X41.22 Y-39.131 Z-1.156
X41.097 Y-39.224 Z-1.158
X40.98 Y-39.325 Z-1.159
X40.87 Y-39.434 Z-1.161
X40.768 Y-39.55 Z-1.162
X40.674 Y-39.672 Z-1.164
X40.589 Y-39.801 Z-1.165
X40.513 Y-39.935 Z-1.167
X40.446 Y-40.074 Z-1.168
X40.389 Y-40.217 Z-1.17
X40.342 Y-40.363 Z-1.171
X40.305 Y-40.513 Z-1.173
X40.278 Y-40.664 Z-1.174
X40.262 Y-40.817 Z-1.176
X40.256 Y-40.97 Z-1.177
X40.261 Y-41.123 Z-1.179
X40.276 Y-41.276 Z-1.18
X40.302 Y-41.427 Z-1.182
X40.337 Y-41.576 Z-1.183
X40.383 Y-41.722 Z-1.185
X40.439 Y-41.864 Z-1.186
X40.504 Y-42.002 Z-1.188
X40.578 Y-42.135 Z-1.189
X40.662 Y-42.263 Z-1.191
X40.753 Y-42.385 Z-1.192
X40.853 Y-42.5 Z-1.194
X40.96 Y-42.608 Z-1.195
X41.075 Y-42.708 Z-1.197
X41.196 Y-42.8 Z-1.198
X41.323 Y-42.884 Z-1.2
X41.455 Y-42.958 Z-1.201
X41.592 Y-43.024 Z-1.203
X41.732 Y-43.08 Z-1.204
X41.877 Y-43.126 Z-1.206
X42.024 Y-43.162 Z-1.207
X42.173 Y-43.188 Z-1.209
X42.323 Y-43.204 Z-1.21
X42.474 Y-43.209 Z-1.212
X42.625 Y-43.204 Z-1.213
X42.775 Y-43.189 Z-1.215
X42.924 Y-43.164 Z-1.216
X43.07 Y-43.128 Z-1.218
X43.214 Y-43.083 Z-1.219
X43.354 Y-43.028 Z-1.221
X43.49 Y-42.964 Z-1.222
X43.621 Y-42.89 Z-1.224
X43.746 Y-42.808 Z-1.225
X43.866 Y-42.717 Z-1.227
X43.979 Y-42.619 Z-1.228
X44.085 Y-42.513 Z-1.23
X44.184 Y-42.4 Z-1.231
X44.274 Y-42.281 Z-1.233
X44.356 Y-42.156 Z-1.235
X44.429 Y-42.026 Z-1.236
X44.494 Y-41.891 Z-1.238
X44.548 Y-41.752 Z-1.239
X44.594 Y-41.61 Z-1.241
X44.629 Y-41.465 Z-1.242
X44.654 Y-41.319 Z-1.244
X44.669 Y-41.171 Z-1.245
X44.675 Y-41.022 Z-1.247
X44.669 Y-40.873 Z-1.248
X44.654 Y-40.726 Z-1.25
X44.629 Y-40.58 Z-1.251
X44.594 Y-40.435 Z-1.253
X44.549 Y-40.294 Z-1.254
X44.495 Y-40.156 Z-1.256
X44.431 Y-40.023 Z-1.257
X44.358 Y-39.894 Z-1.259
X44.277 Y-39.771 Z-1.26
X44.188 Y-39.653 Z-1.262
X44.091 Y-39.542 Z-1.263
X43.987 Y-39.438 Z-1.265
X43.875 Y-39.341 Z-1.266
X43.758 Y-39.252 Z-1.268
X43.635 Y-39.171 Z-1.269
X43.506 Y-39.1 Z-1.271
X43.374 Y-39.037 Z-1.272
X43.237 Y-38.983 Z-1.274
X43.097 Y-38.939 Z-1.275
X42.955 Y-38.904 Z-1.277
X42.81 Y-38.88 Z-1.278
X42.664 Y-38.865 Z-1.28
X42.518 Y-38.86 Z-1.281
X42.372 Y-38.865 Z-1.283
X42.227 Y-38.881 Z-1.284
X42.083 Y-38.906 Z-1.286
X41.941 Y-38.941 Z-1.287
X41.802 Y-38.985 Z-1.289
X41.667 Y-39.039 Z-1.29
X41.535 Y-39.102 Z-1.292
X41.409 Y-39.173 Z-1.293
X41.287 Y-39.253 Z-1.295
X41.172 Y-39.341 Z-1.296
X41.063 Y-39.437 Z-1.298
X40.96 Y-39.54 Z-1.299
X40.865 Y-39.649 Z-1.301
X40.778 Y-39.765 Z-1.302
X40.699 Y-39.886 Z-1.304
X40.629 Y-40.013 Z-1.305
X40.567 Y-40.144 Z-1.307
X40.514 Y-40.278 Z-1.308
X40.471 Y-40.416 Z-1.31
X40.437 Y-40.556 Z-1.311
X40.413 Y-40.698 Z-1.313
X40.399 Y-40.842 Z-1.314
X40.395 Y-40.986 Z-1.316
X40.4 Y-41.129 Z-1.317
X40.415 Y-41.272 Z-1.319
X40.44 Y-41.414 Z-1.32
X40.475 Y-41.553 Z-1.322
X40.519 Y-41.69 Z-1.323
X40.572 Y-41.823 Z-1.325
X40.634 Y-41.952 Z-1.326
X40.705 Y-42.076 Z-1.328
X40.784 Y-42.196 Z-1.329
X40.87 Y-42.309 Z-1.331
X40.965 Y-42.416 Z-1.332
X41.066 Y-42.517 Z-1.334
X41.174 Y-42.61 Z-1.335
X41.288 Y-42.696 Z-1.337
X41.408 Y-42.773 Z-1.339
X41.532 Y-42.842 Z-1.34
X41.661 Y-42.903 Z-1.342
X41.793 Y-42.954 Z-1.343
X41.929 Y-42.997 Z-1.345
X42.067 Y-43.029 Z-1.346
X42.207 Y-43.053 Z-1.348
X42.348 Y-43.067 Z-1.349
X42.489 Y-43.071 Z-1.351
X42.631 Y-43.065 Z-1.352
X42.771 Y-43.05 Z-1.354
X42.91 Y-43.025 Z-1.355
X43.047 Y-42.991 Z-1.357
X43.181 Y-42.947 Z-1.358
X43.312 Y-42.895 Z-1.36
X43.439 Y-42.834 Z-1.361
X43.561 Y-42.764 Z-1.363
X43.679 Y-42.686 Z-1.364
X43.79 Y-42.6 Z-1.366
X43.895 Y-42.507 Z-1.367
X43.994 Y-42.408 Z-1.369
X44.085 Y-42.301 Z-1.37
X44.169 Y-42.189 Z-1.372
X44.245 Y-42.071 Z-1.373
X44.313 Y-41.949 Z-1.375
X44.372 Y-41.822 Z-1.376
X44.423 Y-41.692 Z-1.378
X44.464 Y-41.559 Z-1.379
X44.496 Y-41.423 Z-1.381
X44.519 Y-41.285 Z-1.382
X44.532 Y-41.147 Z-1.384
X44.536 Y-41.007 Z-1.385
X44.53 Y-40.868 Z-1.387
X44.515 Y-40.73 Z-1.388
X44.49 Y-40.593 Z-1.39
X44.457 Y-40.459 Z-1.391
X44.414 Y-40.327 Z-1.393
X44.362 Y-40.198 Z-1.394
X44.301 Y-40.074 Z-1.396
X44.233 Y-39.954 Z-1.397
X44.156 Y-39.839 Z-1.399
X44.071 Y-39.729 Z-1.4
X43.98 Y-39.626 Z-1.402
X43.881 Y-39.529 Z-1.403
X43.777 Y-39.439 Z-1.405
X43.666 Y-39.357 Z-1.406
X43.551 Y-39.282 Z-1.408
X43.43 Y-39.216 Z-1.409
X43.305 Y-39.158 Z-1.411
X43.177 Y-39.109 Z-1.412
X43.046 Y-39.068 Z-1.414
X42.912 Y-39.037 Z-1.415
X42.777 Y-39.015 Z-1.417
X42.641 Y-39.002 Z-1.418
X42.504 Y-38.999 Z-1.42
X42.367 Y-39.005 Z-1.421
X42.232 Y-39.02 Z-1.423
X42.097 Y-39.044 Z-1.424
X41.965 Y-39.078 Z-1.426
X41.835 Y-39.12 Z-1.427
X41.709 Y-39.171 Z-1.429
X41.587 Y-39.231 Z-1.43
X41.469 Y-39.299 Z-1.432
X41.356 Y-39.374 Z-1.433
X41.249 Y-39.458 Z-1.435
X41.147 Y-39.548 Z-1.436
X41.052 Y-39.645 Z-1.438
X40.964 Y-39.748 Z-1.439
X40.883 Y-39.856 Z-1.441
X40.81 Y-39.97 Z-1.443
X40.745 Y-40.089 Z-1.444
X40.689 Y-40.211 Z-1.446
X40.64 Y-40.337 Z-1.447
X40.601 Y-40.466 Z-1.449
X40.57 Y-40.598 Z-1.45
X40.549 Y-40.731 Z-1.452
X40.536 Y-40.865 Z-1.453
X40.533 Y-40.999 Z-1.455
X40.539 Y-41.133 Z-1.456
X40.555 Y-41.267 Z-1.458
X40.579 Y-41.399 Z-1.459
X40.612 Y-41.529 Z-1.461
X40.654 Y-41.656 Z-1.462
X40.704 Y-41.78 Z-1.464
X40.763 Y-41.9 Z-1.465
X40.83 Y-42.016 Z-1.467
X40.905 Y-42.127 Z-1.468
X40.987 Y-42.232 Z-1.47
X41.075 Y-42.332 Z-1.471
X41.171 Y-42.425 Z-1.473
X41.272 Y-42.511 Z-1.474
X41.379 Y-42.59 Z-1.476
X41.491 Y-42.662 Z-1.477
X41.608 Y-42.725 Z-1.479
X41.728 Y-42.781 Z-1.48
X41.852 Y-42.828 Z-1.482
X41.979 Y-42.867 Z-1.483
X42.108 Y-42.896 Z-1.485
X42.239 Y-42.917 Z-1.486
X42.37 Y-42.929 Z-1.488
X42.502 Y-42.932 Z-1.489
X42.634 Y-42.926 Z-1.491
X42.765 Y-42.911 Z-1.492
X42.895 Y-42.887 Z-1.494
X43.022 Y-42.854 Z-1.495
X43.147 Y-42.812 Z-1.497
X43.269 Y-42.762 Z-1.498
X43.387 Y-42.704 Z-1.5
X43.5 Y-42.639 Z-1.501
X43.609 Y-42.565 Z-1.503
X43.713 Y-42.485 Z-1.504
X43.81 Y-42.397 Z-1.506
X43.901 Y-42.303 Z-1.507
X43.986 Y-42.204 Z-1.509
X44.064 Y-42.099 Z-1.51
X44.134 Y-41.988 Z-1.512
X44.196 Y-41.874 Z-1.513
X44.25 Y-41.755 Z-1.515
X44.296 Y-41.633 Z-1.516
X44.334 Y-41.509 Z-1.518
X44.363 Y-41.382 Z-1.519
X44.383 Y-41.254 Z-1.521
X44.395 Y-41.124 Z-1.522
X44.397 Y-40.995 Z-1.524
X44.391 Y-40.865 Z-1.525
X44.376 Y-40.736 Z-1.527
X44.352 Y-40.609 Z-1.528
X44.32 Y-40.484 Z-1.53
X44.279 Y-40.361 Z-1.531
X44.229 Y-40.242 Z-1.533
X44.172 Y-40.126 Z-1.534
X44.107 Y-40.015 Z-1.536
X44.035 Y-39.908 Z-1.537
X43.956 Y-39.807 Z-1.539
X43.87 Y-39.711 Z-1.54
X43.778 Y-39.622 Z-1.542
X43.68 Y-39.539 Z-1.544
X43.576 Y-39.463 Z-1.545
X43.468 Y-39.394 Z-1.547
X43.355 Y-39.333 Z-1.548
X43.239 Y-39.28 Z-1.55
X43.119 Y-39.235 Z-1.551
X42.997 Y-39.199 Z-1.553
X42.872 Y-39.17 Z-1.554
X42.746 Y-39.151 Z-1.556
X42.619 Y-39.14 Z-1.557
X42.492 Y-39.137 Z-1.559
X42.365 Y-39.144 Z-1.56
X42.238 Y-39.159 Z-1.562
X42.113 Y-39.183 Z-1.563
X41.991 Y-39.215 Z-1.565
X41.87 Y-39.255 Z-1.566
X41.753 Y-39.303 Z-1.568
X41.64 Y-39.36 Z-1.569
X41.531 Y-39.424 Z-1.571
X41.426 Y-39.495 Z-1.572
X41.327 Y-39.573 Z-1.574
X41.233 Y-39.657 Z-1.575
X41.145 Y-39.748 Z-1.577
X41.064 Y-39.845 Z-1.578
X40.99 Y-39.946 Z-1.58
X40.923 Y-40.053 Z-1.581
X40.863 Y-40.163 Z-1.583
X40.811 Y-40.278 Z-1.584
X40.767 Y-40.395 Z-1.586
X40.731 Y-40.515 Z-1.587
X40.704 Y-40.638 Z-1.589
X40.685 Y-40.761 Z-1.59
X40.674 Y-40.886 Z-1.592
X40.672 Y-41.011 Z-1.593
X40.679 Y-41.136 Z-1.595
X40.694 Y-41.26 Z-1.596
X40.717 Y-41.382 Z-1.598
X40.749 Y-41.503 Z-1.599
X40.789 Y-41.621 Z-1.601
X40.836 Y-41.735 Z-1.602
X40.892 Y-41.847 Z-1.604
X40.955 Y-41.954 Z-1.605
X41.025 Y-42.056 Z-1.607
X41.102 Y-42.154 Z-1.608
X41.185 Y-42.245 Z-1.61
X41.274 Y-42.331 Z-1.611
X41.369 Y-42.411 Z-1.613
X41.468 Y-42.483 Z-1.614
X41.573 Y-42.549 Z-1.616
X41.682 Y-42.608 Z-1.617
X41.794 Y-42.658 Z-1.619
X41.909 Y-42.701 Z-1.62
X42.027 Y-42.736 Z-1.622
X42.147 Y-42.763 Z-1.623
X42.269 Y-42.781 Z-1.625
X42.391 Y-42.792 Z-1.626
X42.514 Y-42.793 Z-1.628
X42.636 Y-42.787 Z-1.629
X42.758 Y-42.772 Z-1.631
X42.878 Y-42.748 Z-1.632
X42.996 Y-42.717 Z-1.634
X43.112 Y-42.678 Z-1.635
X43.224 Y-42.631 Z-1.637
X43.333 Y-42.576 Z-1.638
X43.438 Y-42.514 Z-1.64
X43.538 Y-42.445 Z-1.641
X43.634 Y-42.37 Z-1.643
X43.724 Y-42.288 Z-1.644
X43.808 Y-42.201 Z-1.646
X43.885 Y-42.107 Z-1.648
X43.957 Y-42.009 Z-1.649
X44.021 Y-41.907 Z-1.651
X44.078 Y-41.8 Z-1.652
X44.128 Y-41.69 Z-1.654
X44.169 Y-41.577 Z-1.655
X44.203 Y-41.461 Z-1.657
X44.229 Y-41.343 Z-1.658
X44.247 Y-41.224 Z-1.66
X44.257 Y-41.104 Z-1.661
X44.259 Y-40.984 Z-1.663
X44.252 Y-40.864 Z-1.664
X44.237 Y-40.745 Z-1.666
X44.214 Y-40.627 Z-1.667
X44.183 Y-40.511 Z-1.669
X44.144 Y-40.398 Z-1.67
X44.098 Y-40.287 Z-1.672
X44.044 Y-40.181 Z-1.673
X43.983 Y-40.078 Z-1.675
X43.916 Y-39.98 Z-1.676
X43.841 Y-39.886 Z-1.678
X43.761 Y-39.798 Z-1.679
X43.675 Y-39.716 Z-1.681
X43.584 Y-39.64 Z-1.682
X43.487 Y-39.57 Z-1.684
X43.387 Y-39.507 Z-1.685
X43.282 Y-39.452 Z-1.687
X43.174 Y-39.403 Z-1.688
X43.063 Y-39.362 Z-1.69
X42.949 Y-39.329 Z-1.691
X42.834 Y-39.304 Z-1.693
X42.717 Y-39.287 Z-1.694
X42.599 Y-39.277 Z-1.696
X42.481 Y-39.276 Z-1.697
X42.364 Y-39.283 Z-1.699
X42.247 Y-39.298 Z-1.7
X42.131 Y-39.321 Z-1.702
X42.018 Y-39.351 Z-1.703
X41.907 Y-39.389 Z-1.705
X41.799 Y-39.435 Z-1.706
X41.694 Y-39.488 Z-1.708
X41.594 Y-39.548 Z-1.709
X41.498 Y-39.614 Z-1.711
X41.406 Y-39.687 Z-1.712
X41.32 Y-39.766 Z-1.714
X41.24 Y-39.85 Z-1.715
X41.165 Y-39.94 Z-1.717
X41.097 Y-40.035 Z-1.718
X41.036 Y-40.133 Z-1.72
X40.981 Y-40.236 Z-1.721
X40.934 Y-40.342 Z-1.723
X40.894 Y-40.451 Z-1.724
X40.862 Y-40.563 Z-1.726
X40.837 Y-40.676 Z-1.727
X40.821 Y-40.79 Z-1.729
X40.812 Y-40.906 Z-1.73
X40.811 Y-41.021 Z-1.732
X40.818 Y-41.136 Z-1.733
X40.832 Y-41.251 Z-1.735
X40.855 Y-41.364 Z-1.736
X40.885 Y-41.475 Z-1.738
X40.923 Y-41.584 Z-1.739
X40.968 Y-41.689 Z-1.741
X41.02 Y-41.792 Z-1.742
X41.078 Y-41.89 Z-1.744
X41.144 Y-41.984 Z-1.745
X41.215 Y-42.074 Z-1.747
X41.293 Y-42.158 Z-1.748
X41.376 Y-42.237 Z-1.75
X41.464 Y-42.309 Z-1.752
X41.557 Y-42.376 Z-1.753
X41.653 Y-42.436 Z-1.755
X41.754 Y-42.489 Z-1.756
X41.858 Y-42.535 Z-1.758
X41.965 Y-42.574 Z-1.759
X42.074 Y-42.605 Z-1.761
X42.185 Y-42.629 Z-1.762
X42.297 Y-42.645 Z-1.764
X42.41 Y-42.654 Z-1.765
X42.523 Z-1.767
X42.636 Y-42.647 Z-1.768
X42.748 Y-42.633 Z-1.77
X42.859 Y-42.611 Z-1.771
X42.968 Y-42.581 Z-1.773
X43.074 Y-42.544 Z-1.774
X43.178 Y-42.5 Z-1.776
X43.278 Y-42.449 Z-1.777
X43.374 Y-42.391 Z-1.779
X43.466 Y-42.327 Z-1.78
X43.554 Y-42.256 Z-1.782
X43.636 Y-42.18 Z-1.783
X43.713 Y-42.099 Z-1.785
X43.784 Y-42.013 Z-1.786
X43.849 Y-41.922 Z-1.788
X43.907 Y-41.827 Z-1.789
X43.959 Y-41.728 Z-1.791
X44.004 Y-41.626 Z-1.792
X44.042 Y-41.521 Z-1.794
X44.072 Y-41.414 Z-1.795
X44.095 Y-41.306 Z-1.797
X44.111 Y-41.196 Z-1.798
X44.119 Y-41.085 Z-1.8
X44.12 Y-40.974 Z-1.801
X44.113 Y-40.864 Z-1.803
X44.098 Y-40.754 Z-1.804
X44.076 Y-40.646 Z-1.806
X44.047 Y-40.54 Z-1.807
X44.01 Y-40.436 Z-1.809
X43.967 Y-40.334 Z-1.81
X43.917 Y-40.236 Z-1.812
X43.86 Y-40.142 Z-1.813
X43.797 Y-40.052 Z-1.815
X43.728 Y-39.967 Z-1.816
X43.654 Y-39.886 Z-1.818
X43.574 Y-39.811 Z-1.819
X43.489 Y-39.742 Z-1.821
X43.4 Y-39.679 Z-1.822
X43.307 Y-39.621 Z-1.824
X43.21 Y-39.571 Z-1.825
X43.11 Y-39.527 Z-1.827
X43.008 Y-39.49 Z-1.828
X42.903 Y-39.461 Z-1.83
X42.797 Y-39.438 Z-1.831
X42.689 Y-39.423 Z-1.833
X42.581 Y-39.415 Z-1.834
X42.472 Z-1.836
X42.364 Y-39.422 Z-1.837
X42.257 Y-39.436 Z-1.839
X42.151 Y-39.458 Z-1.84
X42.047 Y-39.487 Z-1.842
X41.945 Y-39.523 Z-1.843
X41.846 Y-39.566 Z-1.845
X41.751 Y-39.615 Z-1.846
X41.659 Y-39.671 Z-1.848
X41.571 Y-39.733 Z-1.849
X41.487 Y-39.8 Z-1.851
X41.409 Y-39.873 Z-1.853
X41.335 Y-39.951 Z-1.854
X41.268 Y-40.034 Z-1.856
X41.206 Y-40.122 Z-1.857
X41.15 Y-40.213 Z-1.859
X41.101 Y-40.308 Z-1.86
X41.058 Y-40.405 Z-1.862
X41.022 Y-40.506 Z-1.863
X40.993 Y-40.608 Z-1.865
X40.972 Y-40.712 Z-1.866
X40.957 Y-40.818 Z-1.868
X40.95 Y-40.923 Z-1.869
Y-41.029 Z-1.871
X40.957 Y-41.135 Z-1.872
X40.971 Y-41.24 Z-1.874
X40.993 Y-41.344 Z-1.875
X41.021 Y-41.445 Z-1.877
X41.056 Y-41.545 Z-1.878
X41.098 Y-41.642 Z-1.88
X41.147 Y-41.735 Z-1.881
X41.201 Y-41.825 Z-1.883
X41.262 Y-41.911 Z-1.884
X41.328 Y-41.992 Z-1.886
X41.4 Y-42.069 Z-1.887
X41.476 Y-42.141 Z-1.889
X41.558 Y-42.207 Z-1.89
X41.643 Y-42.267 Z-1.892
X41.732 Y-42.321 Z-1.893
X41.825 Y-42.369 Z-1.895
X41.921 Y-42.411 Z-1.896
X42.019 Y-42.446 Z-1.898
X42.119 Y-42.474 Z-1.899
X42.221 Y-42.495 Z-1.901
X42.324 Y-42.509 Z-1.902
X42.428 Y-42.516 Z-1.904
X42.531 Z-1.905
X42.635 Y-42.508 Z-1.907
X42.737 Y-42.494 Z-1.908
X42.838 Y-42.473 Z-1.91
X42.938 Y-42.445 Z-1.911
X43.035 Y-42.41 Z-1.913
X43.129 Y-42.369 Z-1.914
X43.221 Y-42.322 Z-1.916
X43.308 Y-42.268 Z-1.917
X43.392 Y-42.209 Z-1.919
X43.472 Y-42.144 Z-1.92
X43.547 Y-42.074 Z-1.922
X43.616 Y-41.999 Z-1.923
X43.681 Y-41.919 Z-1.925
X43.74 Y-41.835 Z-1.926
X43.792 Y-41.748 Z-1.928
X43.839 Y-41.657 Z-1.929
X43.88 Y-41.564 Z-1.931
X43.913 Y-41.468 Z-1.932
X43.941 Y-41.37 Z-1.934
X43.961 Y-41.27 Z-1.935
X43.975 Y-41.17 Z-1.937
X43.981 Y-41.068 Z-1.938
Y-40.967 Z-1.94
X43.974 Y-40.866 Z-1.941
X43.96 Y-40.766 Z-1.943
X43.939 Y-40.667 Z-1.944
X43.911 Y-40.57 Z-1.946
X43.877 Y-40.475 Z-1.947
X43.837 Y-40.383 Z-1.949
X43.79 Y-40.294 Z-1.95
X43.738 Y-40.208 Z-1.952
X43.679 Y-40.126 Z-1.953
X43.616 Y-40.049 Z-1.955
X43.547 Y-39.976 Z-1.957
X43.474 Y-39.908 Z-1.958
X43.396 Y-39.845 Z-1.96
X43.314 Y-39.788 Z-1.961
X43.229 Y-39.736 Z-1.963
X43.14 Y-39.691 Z-1.964
X43.048 Y-39.652 Z-1.966
X42.955 Y-39.619 Z-1.967
X42.859 Y-39.592 Z-1.969
X42.762 Y-39.573 Z-1.97
X42.663 Y-39.56 Z-1.972
X42.564 Y-39.553 Z-1.973
X42.465 Y-39.554 Z-1.975
X42.367 Y-39.561 Z-1.976
X42.269 Y-39.575 Z-1.978
X42.173 Y-39.596 Z-1.979
X42.078 Y-39.623 Z-1.981
X41.985 Y-39.656 Z-1.982
X41.895 Y-39.696 Z-1.984
X41.808 Y-39.741 Z-1.985
X41.725 Y-39.793 Z-1.987
X41.645 Y-39.85 Z-1.988
X41.57 Y-39.912 Z-1.99
X41.498 Y-39.979 Z-1.991
X41.432 Y-40.051 Z-1.993
X41.371 Y-40.127 Z-1.994
X41.315 Y-40.207 Z-1.996
X41.265 Y-40.291 Z-1.997
X41.221 Y-40.377 Z-1.999
X41.183 Y-40.467 Z-2
X41.151 Y-40.558 Z-2.002
X41.125 Y-40.652 Z-2.003
X41.106 Y-40.747 Z-2.005
X41.094 Y-40.843 Z-2.006
X41.088 Y-40.939 Z-2.008
X41.089 Y-41.036 Z-2.009
X41.096 Y-41.132 Z-2.011
X41.11 Y-41.228 Z-2.012
X41.13 Y-41.322 Z-2.014
X41.156 Y-41.414 Z-2.015
X41.189 Y-41.504 Z-2.017
X41.228 Y-41.592 Z-2.018
X41.273 Y-41.677 Z-2.02
X41.323 Y-41.758 Z-2.021
X41.379 Y-41.836 Z-2.023
X41.44 Y-41.91 Z-2.024
X41.506 Y-41.979 Z-2.026
X41.576 Y-42.043 Z-2.027
X41.65 Y-42.103 Z-2.029
X41.728 Y-42.157 Z-2.03
X41.81 Y-42.206 Z-2.032
X41.895 Y-42.249 Z-2.033
X41.982 Y-42.286 Z-2.035
X42.071 Y-42.317 Z-2.036
X42.163 Y-42.342 Z-2.038
X42.255 Y-42.36 Z-2.039
X42.349 Y-42.372 Z-2.041
X42.443 Y-42.378 Z-2.042
X42.537 Y-42.377 Z-2.044
X42.631 Y-42.37 Z-2.045
X42.724 Y-42.356 Z-2.047
X42.816 Y-42.336 Z-2.048
X42.906 Y-42.31 Z-2.05
X42.994 Y-42.278 Z-2.051
X43.079 Y-42.239 Z-2.053
X43.162 Y-42.196 Z-2.054
X43.241 Y-42.146 Z-2.056
X43.317 Y-42.092 Z-2.058
X43.389 Y-42.032 Z-2.059
X43.456 Y-41.968 Z-2.061
X43.519 Y-41.9 Z-2.062
X43.577 Y-41.827 Z-2.064
X43.629 Y-41.751 Z-2.065
X43.677 Y-41.671 Z-2.067
X43.719 Y-41.588 Z-2.068
X43.755 Y-41.503 Z-2.07
X43.785 Y-41.416 Z-2.071
X43.808 Y-41.327 Z-2.073
X43.826 Y-41.236 Z-2.074
X43.838 Y-41.145 Z-2.076
X43.843 Y-41.053 Z-2.077
X43.842 Y-40.961 Z-2.079
X43.835 Y-40.87 Z-2.08
X43.821 Y-40.779 Z-2.082
X43.802 Y-40.69 Z-2.083
X43.776 Y-40.602 Z-2.085
X43.744 Y-40.517 Z-2.086
X43.707 Y-40.433 Z-2.088
X43.664 Y-40.353 Z-2.089
X43.616 Y-40.276 Z-2.091
X43.563 Y-40.202 Z-2.092
X43.505 Y-40.132 Z-2.094
X43.442 Y-40.067 Z-2.095
X43.375 Y-40.006 Z-2.097
X43.304 Y-39.949 Z-2.098
X43.23 Y-39.898 Z-2.1
X43.152 Y-39.852 Z-2.101
X43.071 Y-39.812 Z-2.103
X42.988 Y-39.777 Z-2.104
X42.903 Y-39.748 Z-2.106
X42.816 Y-39.725 Z-2.107
X42.728 Y-39.708 Z-2.109
X42.639 Y-39.696 Z-2.11
X42.55 Y-39.691 Z-2.112
X42.46 Y-39.693 Z-2.113
X42.371 Y-39.7 Z-2.115
X42.283 Y-39.713 Z-2.116
X42.196 Y-39.733 Z-2.118
X42.111 Y-39.758 Z-2.119
X42.027 Y-39.789 Z-2.121
X41.946 Y-39.825 Z-2.122
X41.868 Y-39.867 Z-2.124
X41.793 Y-39.914 Z-2.125
X41.721 Y-39.966 Z-2.127
X41.653 Y-40.023 Z-2.128
X41.59 Y-40.084 Z-2.13
X41.53 Y-40.149 Z-2.131
X41.476 Y-40.219 Z-2.133
X41.426 Y-40.291 Z-2.134
X41.381 Y-40.367 Z-2.136
X41.342 Y-40.446 Z-2.137
X41.308 Y-40.526 Z-2.139
X41.28 Y-40.609 Z-2.14
X41.258 Y-40.694 Z-2.142
X41.241 Y-40.78 Z-2.143
X41.231 Y-40.867 Z-2.145
X41.226 Y-40.954 Z-2.146
X41.227 Y-41.041 Z-2.148
X41.235 Y-41.127 Z-2.149
X41.248 Y-41.213 Z-2.151
X41.267 Y-41.298 Z-2.152
X41.291 Y-41.381 Z-2.154
X41.322 Y-41.462 Z-2.155
X41.357 Y-41.541 Z-2.157
X41.398 Y-41.617 Z-2.158
X41.444 Y-41.69 Z-2.16
X41.495 Y-41.76 Z-2.162
X41.55 Y-41.825 Z-2.163
X41.61 Y-41.887 Z-2.165
X41.674 Y-41.945 Z-2.166
X41.741 Y-41.998 Z-2.168
X41.812 Y-42.046 Z-2.169
X41.886 Y-42.089 Z-2.171
X41.962 Y-42.128 Z-2.172
X42.041 Y-42.16 Z-2.174
X42.122 Y-42.187 Z-2.175
X42.204 Y-42.209 Z-2.177
X42.288 Y-42.225 Z-2.178
X42.372 Y-42.235 Z-2.18
X42.457 Y-42.239 Z-2.181
X42.542 Y-42.238 Z-2.183
X42.626 Y-42.231 Z-2.184
X42.709 Y-42.218 Z-2.186
X42.792 Y-42.199 Z-2.187
X42.873 Y-42.175 Z-2.189
X42.951 Y-42.145 Z-2.19
X43.028 Y-42.11 Z-2.192
X43.102 Y-42.07 Z-2.193
X43.173 Y-42.026 Z-2.195
X43.24 Y-41.976 Z-2.196
X43.304 Y-41.922 Z-2.198
X43.364 Y-41.864 Z-2.199
X43.42 Y-41.802 Z-2.201
X43.472 Y-41.736 Z-2.202
X43.518 Y-41.667 Z-2.204
X43.56 Y-41.595 Z-2.205
X43.597 Y-41.521 Z-2.207
X43.629 Y-41.444 Z-2.208
X43.655 Y-41.366 Z-2.21
X43.676 Y-41.286 Z-2.211
X43.691 Y-41.204 Z-2.213
X43.701 Y-41.122 Z-2.214
X43.705 Y-41.04 Z-2.216
X43.703 Y-40.958 Z-2.217
X43.696 Y-40.876 Z-2.219
X43.683 Y-40.795 Z-2.22
X43.665 Y-40.715 Z-2.222
X43.641 Y-40.636 Z-2.223
X43.612 Y-40.56 Z-2.225
X43.578 Y-40.485 Z-2.226
X43.539 Y-40.413 Z-2.228
X43.496 Y-40.345 Z-2.229
X43.447 Y-40.279 Z-2.231
X43.395 Y-40.217 Z-2.232
X43.338 Y-40.159 Z-2.234
X43.278 Y-40.105 Z-2.235
X43.214 Y-40.055 Z-2.237
X43.147 Y-40.01 Z-2.238
X43.077 Y-39.969 Z-2.24
X43.004 Y-39.933 Z-2.241
X42.93 Y-39.903 Z-2.243
X42.853 Y-39.878 Z-2.244
X42.776 Y-39.857 Z-2.246
X42.697 Y-39.843 Z-2.247
X42.617 Y-39.834 Z-2.249
X42.537 Y-39.83 Z-2.25
X42.457 Y-39.832 Z-2.252
X42.377 Y-39.839 Z-2.253
X42.299 Y-39.851 Z-2.255
X42.221 Y-39.869 Z-2.256
X42.145 Y-39.892 Z-2.258
X42.071 Y-39.921 Z-2.259
X41.998 Y-39.954 Z-2.261
X41.929 Y-39.992 Z-2.262
X41.862 Y-40.034 Z-2.264
X41.799 Y-40.081 Z-2.266
X41.739 Y-40.133 Z-2.267
X41.682 Y-40.188 Z-2.269
X41.63 Y-40.246 Z-2.27
X41.581 Y-40.309 Z-2.272
X41.538 Y-40.374 Z-2.273
X41.498 Y-40.442 Z-2.275
X41.464 Y-40.512 Z-2.276
X41.434 Y-40.585 Z-2.278
X41.41 Y-40.659 Z-2.279
X41.391 Y-40.734 Z-2.281
X41.377 Y-40.811 Z-2.282
X41.368 Y-40.888 Z-2.284
X41.364 Y-40.966 Z-2.285
X41.366 Y-41.044 Z-2.287
X41.373 Y-41.121 Z-2.288
X41.386 Y-41.197 Z-2.29
X41.403 Y-41.273 Z-2.291
X41.426 Y-41.346 Z-2.293
X41.453 Y-41.418 Z-2.294
X41.486 Y-41.488 Z-2.296
X41.523 Y-41.556 Z-2.297
X41.564 Y-41.62 Z-2.299
X41.61 Y-41.682 Z-2.3
X41.66 Y-41.74 Z-2.302
X41.713 Y-41.795 Z-2.303
X41.771 Y-41.845 Z-2.305
X41.831 Y-41.892 Z-2.306
X41.894 Y-41.934 Z-2.308
X41.96 Y-41.972 Z-2.309
X42.029 Y-42.005 Z-2.311
X42.099 Y-42.034 Z-2.312
X42.171 Y-42.057 Z-2.314
X42.244 Y-42.076 Z-2.315
X42.319 Y-42.089 Z-2.317
X42.394 Y-42.098 Z-2.318
X42.469 Y-42.101 Z-2.32
X42.544 Y-42.099 Z-2.321
X42.619 Y-42.092 Z-2.323
X42.693 Y-42.08 Z-2.324
X42.766 Y-42.063 Z-2.326
X42.837 Y-42.041 Z-2.327
X42.907 Y-42.014 Z-2.329
X42.975 Y-41.982 Z-2.33
X43.04 Y-41.946 Z-2.332
X43.103 Y-41.906 Z-2.333
X43.162 Y-41.861 Z-2.335
X43.218 Y-41.813 Z-2.336
X43.271 Y-41.761 Z-2.338
X43.32 Y-41.705 Z-2.339
X43.365 Y-41.647 Z-2.341
X43.406 Y-41.585 Z-2.342
X43.443 Y-41.521 Z-2.344
X43.475 Y-41.455 Z-2.345
X43.502 Y-41.387 Z-2.347
X43.525 Y-41.317 Z-2.348
X43.543 Y-41.246 Z-2.35
X43.556 Y-41.174 Z-2.351
X43.563 Y-41.101 Z-2.353
X43.566 Y-41.028 Z-2.354
X43.564 Y-40.956 Z-2.356
X43.557 Y-40.883 Z-2.357
X43.545 Y-40.811 Z-2.359
X43.529 Y-40.741 Z-2.36
X43.507 Y-40.672 Z-2.362
X43.481 Y-40.604 Z-2.363
X43.45 Y-40.539 Z-2.365
X43.415 Y-40.476 Z-2.367
X43.376 Y-40.415 Z-2.368
X43.333 Y-40.358 Z-2.37
X43.286 Y-40.303 Z-2.371
X43.235 Y-40.252 Z-2.373
X43.182 Y-40.205 Z-2.374
X43.125 Y-40.161 Z-2.376
X43.065 Y-40.122 Z-2.377
X43.003 Y-40.087 Z-2.379
X42.939 Y-40.056 Z-2.38
X42.873 Y-40.03 Z-2.382
X42.805 Y-40.008 Z-2.383
X42.736 Y-39.991 Z-2.385
X42.667 Y-39.978 Z-2.386
X42.596 Y-39.971 Z-2.388
X42.526 Y-39.968 Z-2.389
X42.455 Y-39.97 Z-2.391
X42.385 Y-39.977 Z-2.392
X42.316 Y-39.989 Z-2.394
X42.248 Y-40.005 Z-2.395
X42.181 Y-40.026 Z-2.397
X42.116 Y-40.052 Z-2.398
X42.052 Y-40.082 Z-2.4
X41.992 Y-40.116 Z-2.401
X41.933 Y-40.154 Z-2.403
X41.878 Y-40.196 Z-2.404
X41.825 Y-40.241 Z-2.406
X41.776 Y-40.29 Z-2.407
X41.73 Y-40.342 Z-2.409
X41.688 Y-40.397 Z-2.41
X41.65 Y-40.455 Z-2.412
X41.616 Y-40.515 Z-2.413
X41.587 Y-40.577 Z-2.415
X41.561 Y-40.641 Z-2.416
X41.54 Y-40.706 Z-2.418
X41.524 Y-40.773 Z-2.419
X41.512 Y-40.84 Z-2.421
X41.505 Y-40.908 Z-2.422
X41.503 Y-40.977 Z-2.424
X41.505 Y-41.045 Z-2.425
X41.512 Y-41.112 Z-2.427
X41.523 Y-41.179 Z-2.428
X41.539 Y-41.245 Z-2.43
X41.56 Y-41.31 Z-2.431
X41.585 Y-41.373 Z-2.433
X41.614 Y-41.434 Z-2.434
X41.647 Y-41.493 Z-2.436
X41.683 Y-41.549 Z-2.437
X41.724 Y-41.602 Z-2.439
X41.768 Y-41.653 Z-2.44
X41.816 Y-41.7 Z-2.442
X41.866 Y-41.744 Z-2.443
X41.919 Y-41.785 Z-2.445
X41.975 Y-41.821 Z-2.446
X42.033 Y-41.854 Z-2.448
X42.093 Y-41.883 Z-2.449
X42.155 Y-41.907 Z-2.451
X42.218 Y-41.927 Z-2.452
X42.282 Y-41.942 Z-2.454
X42.348 Y-41.954 Z-2.455
X42.413 Y-41.96 Z-2.457
X42.479 Y-41.963 Z-2.458
X42.545 Y-41.96 Z-2.46
X42.61 Y-41.953 Z-2.461
X42.675 Y-41.942 Z-2.463
X42.738 Y-41.927 Z-2.464
X42.8 Y-41.907 Z-2.466
X42.861 Y-41.883 Z-2.467
X42.92 Y-41.855 Z-2.469
X42.977 Y-41.823 Z-2.471
X43.031 Y-41.787 Z-2.472
X43.082 Y-41.748 Z-2.474
X43.131 Y-41.705 Z-2.475
X43.177 Y-41.659 Z-2.477
X43.219 Y-41.61 Z-2.478
X43.258 Y-41.559 Z-2.48
X43.293 Y-41.505 Z-2.481
X43.324 Y-41.449 Z-2.483
X43.352 Y-41.391 Z-2.484
X43.375 Y-41.331 Z-2.486
X43.394 Y-41.27 Z-2.487
X43.409 Y-41.208 Z-2.489
X43.42 Y-41.146 Z-2.49
X43.426 Y-41.082 Z-2.492
X43.428 Y-41.019 Z-2.493
X43.426 Y-40.955 Z-2.495
X43.419 Y-40.892 Z-2.496
X43.408 Y-40.83 Z-2.498
X43.393 Y-40.769 Z-2.499
X43.373 Y-40.709 Z-2.501
X43.35 Y-40.651 Z-2.502
X43.323 Y-40.594 Z-2.504
X43.292 Y-40.54 Z-2.505
X43.257 Y-40.487 Z-2.507
X43.219 Y-40.438 Z-2.508
X43.178 Y-40.391 Z-2.51
X43.134 Y-40.347 Z-2.511
X43.087 Y-40.306 Z-2.513
X43.037 Y-40.269 Z-2.514
X42.985 Y-40.235 Z-2.516
X42.931 Y-40.205 Z-2.517
X42.875 Y-40.179 Z-2.519
X42.818 Y-40.157 Z-2.52
X42.759 Y-40.139 Z-2.522
X42.699 Y-40.124 Z-2.523
X42.639 Y-40.114 Z-2.525
X42.578 Y-40.108 Z-2.526
X42.517 Y-40.107 Z-2.528
X42.456 Y-40.109 Z-2.529
X42.395 Y-40.116 Z-2.531
X42.335 Y-40.127 Z-2.532
X42.276 Y-40.141 Z-2.534
X42.219 Y-40.16 Z-2.535
X42.162 Y-40.183 Z-2.537
X42.108 Y-40.209 Z-2.538
X42.056 Y-40.239 Z-2.54
X42.006 Y-40.272 Z-2.541
X41.958 Y-40.309 Z-2.543
X41.913 Y-40.349 Z-2.544
X41.871 Y-40.391 Z-2.546
X41.832 Y-40.437 Z-2.547
X41.796 Y-40.484 Z-2.549
X41.764 Y-40.535 Z-2.55
X41.735 Y-40.587 Z-2.552
X41.71 Y-40.64 Z-2.553
X41.689 Y-40.696 Z-2.555
X41.671 Y-40.752 Z-2.556
X41.658 Y-40.81 Z-2.558
X41.648 Y-40.868 Z-2.559
X41.643 Y-40.927 Z-2.561
X41.641 Y-40.985 Z-2.562
X41.644 Y-41.044 Z-2.564
X41.65 Y-41.102 Z-2.565
X41.661 Y-41.16 Z-2.567
X41.675 Y-41.216 Z-2.568
X41.693 Y-41.272 Z-2.57
X41.715 Y-41.326 Z-2.572
X41.741 Y-41.378 Z-2.573
X41.769 Y-41.428 Z-2.575
X41.802 Y-41.476 Z-2.576
X41.837 Y-41.522 Z-2.578
X41.875 Y-41.565 Z-2.579
X41.916 Y-41.605 Z-2.581
X41.96 Y-41.642 Z-2.582
X42.006 Y-41.677 Z-2.584
X42.054 Y-41.707 Z-2.585
X42.104 Y-41.735 Z-2.587
X42.156 Y-41.759 Z-2.588
X42.209 Y-41.779 Z-2.59
X42.264 Y-41.796 Z-2.591
X42.319 Y-41.809 Z-2.593
X42.375 Y-41.818 Z-2.594
X42.431 Y-41.823 Z-2.596
X42.487 Y-41.824 Z-2.597
X42.544 Y-41.821 Z-2.599
X42.599 Y-41.815 Z-2.6
X42.655 Y-41.805 Z-2.602
X42.709 Y-41.791 Z-2.603
X42.762 Y-41.773 Z-2.605
X42.814 Y-41.752 Z-2.606
X42.864 Y-41.728 Z-2.608
X42.912 Y-41.7 Z-2.609
X42.958 Y-41.669 Z-2.611
X43.001 Y-41.635 Z-2.612
X43.043 Y-41.598 Z-2.614
X43.081 Y-41.559 Z-2.615
X43.117 Y-41.517 Z-2.617
X43.149 Y-41.472 Z-2.618
X43.179 Y-41.426 Z-2.62
X43.205 Y-41.378 Z-2.621
X43.228 Y-41.328 Z-2.623
X43.247 Y-41.277 Z-2.624
X43.263 Y-41.225 Z-2.626
X43.275 Y-41.172 Z-2.627
X43.283 Y-41.119 Z-2.629
X43.288 Y-41.065 Z-2.63
X43.289 Y-41.011 Z-2.632
X43.287 Y-40.957 Z-2.633
X43.28 Y-40.904 Z-2.635
X43.271 Y-40.851 Z-2.636
X43.257 Y-40.799 Z-2.638
X43.24 Y-40.748 Z-2.639
X43.22 Y-40.699 Z-2.641
X43.196 Y-40.651 Z-2.642
X43.169 Y-40.605 Z-2.644
X43.14 Y-40.561 Z-2.645
X43.107 Y-40.519 Z-2.647
X43.072 Y-40.48 Z-2.648
X43.034 Y-40.443 Z-2.65
X42.993 Y-40.409 Z-2.651
X42.951 Y-40.378 Z-2.653
X42.907 Y-40.35 Z-2.654
X42.861 Y-40.325 Z-2.656
X42.813 Y-40.303 Z-2.657
X42.764 Y-40.285 Z-2.659
X42.714 Y-40.27 Z-2.66
X42.664 Y-40.259 Z-2.662
X42.612 Y-40.251 Z-2.663
X42.561 Y-40.246 Z-2.665
X42.509 Y-40.245 Z-2.666
X42.458 Y-40.248 Z-2.668
X42.407 Y-40.254 Z-2.669
X42.356 Y-40.264 Z-2.671
X42.307 Y-40.277 Z-2.672
X42.258 Y-40.293 Z-2.674
X42.211 Y-40.313 Z-2.676
X42.165 Y-40.335 Z-2.677
X42.121 Y-40.361 Z-2.679
X42.08 Y-40.39 Z-2.68
X42.04 Y-40.421 Z-2.682
X42.002 Y-40.455 Z-2.683
X41.967 Y-40.491 Z-2.685
X41.935 Y-40.53 Z-2.686
X41.905 Y-40.57 Z-2.688
X41.879 Y-40.613 Z-2.689
X41.855 Y-40.657 Z-2.691
X41.834 Y-40.702 Z-2.692
X41.817 Y-40.749 Z-2.694
X41.803 Y-40.797 Z-2.695
X41.792 Y-40.845 Z-2.697
X41.785 Y-40.894 Z-2.698
X41.781 Y-40.943 Z-2.7
X41.78 Y-40.992 Z-2.701
X41.783 Y-41.042 Z-2.703
X41.789 Y-41.09 Z-2.704
X41.798 Y-41.138 Z-2.706
X41.81 Y-41.186 Z-2.707
X41.826 Y-41.232 Z-2.709
X41.845 Y-41.277 Z-2.71
X41.867 Y-41.32 Z-2.712
X41.891 Y-41.362 Z-2.713
X41.919 Y-41.402 Z-2.715
X41.949 Y-41.44 Z-2.716
X41.981 Y-41.475 Z-2.718
X42.016 Y-41.508 Z-2.719
X42.053 Y-41.539 Z-2.721
X42.091 Y-41.567 Z-2.722
X42.132 Y-41.592 Z-2.724
X42.174 Y-41.615 Z-2.725
X42.217 Y-41.634 Z-2.727
X42.262 Y-41.651 Z-2.728
X42.307 Y-41.664 Z-2.73
X42.353 Y-41.674 Z-2.731
X42.4 Y-41.681 Z-2.733
X42.447 Y-41.685 Z-2.734
X42.494 Z-2.736
X42.541 Y-41.683 Z-2.737
X42.587 Y-41.677 Z-2.739
X42.633 Y-41.668 Z-2.74
X42.678 Y-41.656 Z-2.742
X42.722 Y-41.641 Z-2.743
X42.764 Y-41.623 Z-2.745
X42.805 Y-41.602 Z-2.746
X42.845 Y-41.578 Z-2.748
X42.883 Y-41.552 Z-2.749
X42.919 Y-41.523 Z-2.751
X42.953 Y-41.492 Z-2.752
X42.984 Y-41.459 Z-2.754
X43.013 Y-41.424 Z-2.755
X43.04 Y-41.387 Z-2.757
X43.064 Y-41.349 Z-2.758
X43.085 Y-41.309 Z-2.76
X43.103 Y-41.268 Z-2.761
X43.119 Y-41.225 Z-2.763
X43.131 Y-41.182 Z-2.764
X43.141 Y-41.138 Z-2.766
X43.147 Y-41.094 Z-2.767
X43.15 Y-41.049 Z-2.769
X43.151 Y-41.005 Z-2.77
X43.148 Y-40.96 Z-2.772
X43.142 Y-40.916 Z-2.773
X43.134 Y-40.873 Z-2.775
X43.122 Y-40.83 Z-2.776
X43.108 Y-40.789 Z-2.778
X43.09 Y-40.748 Z-2.78
X43.07 Y-40.709 Z-2.781
X43.048 Y-40.672 Z-2.783
X43.023 Y-40.636 Z-2.784
X42.996 Y-40.602 Z-2.786
X42.966 Y-40.57 Z-2.787
X42.935 Y-40.54 Z-2.789
X42.901 Y-40.513 Z-2.79
X42.866 Y-40.488 Z-2.792
X42.83 Y-40.465 Z-2.793
X42.792 Y-40.445 Z-2.795
X42.753 Y-40.428 Z-2.796
X42.712 Y-40.414 Z-2.798
X42.671 Y-40.402 Z-2.799
X42.63 Y-40.393 Z-2.801
X42.588 Y-40.387 Z-2.802
X42.546 Y-40.384 Z-2.804
X42.503 Z-2.805
X42.461 Y-40.387 Z-2.807
X42.42 Y-40.392 Z-2.808
X42.379 Y-40.401 Z-2.81
X42.339 Y-40.412 Z-2.811
X42.299 Y-40.426 Z-2.813
X42.261 Y-40.442 Z-2.814
X42.224 Y-40.461 Z-2.816
X42.189 Y-40.482 Z-2.817
X42.155 Y-40.506 Z-2.819
X42.123 Y-40.532 Z-2.82
X42.093 Y-40.56 Z-2.822
X42.065 Y-40.59 Z-2.823
X42.039 Y-40.621 Z-2.825
X42.016 Y-40.655 Z-2.826
X41.994 Y-40.689 Z-2.828
X41.976 Y-40.725 Z-2.829
X41.959 Y-40.762 Z-2.831
X41.946 Y-40.8 Z-2.832
X41.935 Y-40.839 Z-2.834
X41.927 Y-40.878 Z-2.835
X41.921 Y-40.918 Z-2.837
X41.919 Y-40.958 Z-2.838
Y-40.998 Z-2.84
X41.921 Y-41.037 Z-2.841
X41.927 Y-41.077 Z-2.843
X41.935 Y-41.115 Z-2.844
X41.945 Y-41.153 Z-2.846
X41.959 Y-41.19 Z-2.847
X41.974 Y-41.226 Z-2.849
X41.992 Y-41.261 Z-2.85
X42.013 Y-41.294 Z-2.852
X42.035 Y-41.326 Z-2.853
X42.059 Y-41.356 Z-2.855
X42.086 Y-41.384 Z-2.856
X42.114 Y-41.41 Z-2.858
X42.144 Y-41.435 Z-2.859
X42.175 Y-41.457 Z-2.861
X42.208 Y-41.477 Z-2.862
X42.242 Y-41.494 Z-2.864
X42.277 Y-41.509 Z-2.865
X42.313 Y-41.522 Z-2.867
X42.349 Y-41.532 Z-2.868
X42.386 Y-41.539 Z-2.87
X42.424 Y-41.544 Z-2.871
X42.461 Y-41.547 Z-2.873
X42.499 Z-2.874
X42.536 Y-41.544 Z-2.876
X42.573 Y-41.539 Z-2.877
X42.609 Y-41.531 Z-2.879
X42.645 Y-41.521 Z-2.881
X42.68 Y-41.508 Z-2.882
X42.713 Y-41.494 Z-2.884
X42.746 Y-41.477 Z-2.885
X42.777 Y-41.457 Z-2.887
X42.807 Y-41.436 Z-2.888
X42.835 Y-41.413 Z-2.89
X42.861 Y-41.388 Z-2.891
X42.886 Y-41.361 Z-2.893
X42.908 Y-41.333 Z-2.894
X42.929 Y-41.304 Z-2.896
X42.947 Y-41.273 Z-2.897
X42.964 Y-41.241 Z-2.899
X42.978 Y-41.208 Z-2.9
X42.989 Y-41.175 Z-2.902
X42.999 Y-41.14 Z-2.903
X43.006 Y-41.106 Z-2.905
X43.01 Y-41.071 Z-2.906
X43.012 Y-41.035 Z-2.908
Y-41 Z-2.909
X43.009 Y-40.966 Z-2.911
X43.004 Y-40.931 Z-2.912
X42.997 Y-40.897 Z-2.914
X42.987 Y-40.864 Z-2.915
X42.975 Y-40.831 Z-2.917
X42.961 Y-40.8 Z-2.918
X42.945 Y-40.769 Z-2.92
X42.927 Y-40.74 Z-2.921
X42.907 Y-40.713 Z-2.923
X42.886 Y-40.686 Z-2.924
X42.862 Y-40.662 Z-2.926
X42.837 Y-40.639 Z-2.927
X42.811 Y-40.618 Z-2.929
X42.783 Y-40.599 Z-2.93
X42.754 Y-40.582 Z-2.932
X42.724 Y-40.567 Z-2.933
X42.694 Y-40.554 Z-2.935
X42.662 Y-40.543 Z-2.936
X42.63 Y-40.534 Z-2.938
X42.598 Y-40.528 Z-2.939
X42.565 Y-40.524 Z-2.941
X42.532 Y-40.522 Z-2.942
X42.5 Y-40.523 Z-2.944
X42.467 Y-40.525 Z-2.945
X42.435 Y-40.53 Z-2.947
X42.403 Y-40.537 Z-2.948
X42.372 Y-40.546 Z-2.95
X42.342 Y-40.557 Z-2.951
X42.313 Y-40.571 Z-2.953
X42.285 Y-40.586 Z-2.954
X42.258 Y-40.603 Z-2.956
X42.232 Y-40.621 Z-2.957
X42.208 Y-40.642 Z-2.959
X42.185 Y-40.664 Z-2.96
X42.164 Y-40.687 Z-2.962
X42.144 Y-40.712 Z-2.963
X42.127 Y-40.738 Z-2.965
X42.111 Y-40.764 Z-2.966
X42.097 Y-40.792 Z-2.968
X42.085 Y-40.821 Z-2.969
X42.075 Y-40.85 Z-2.971
X42.068 Y-40.88 Z-2.972
X42.062 Y-40.91 Z-2.974
X42.058 Y-40.94 Z-2.975
X42.057 Y-40.971 Z-2.977
Y-41.001 Z-2.978
X42.06 Y-41.031 Z-2.98
X42.065 Y-41.061 Z-2.981
X42.071 Y-41.09 Z-2.983
X42.08 Y-41.119 Z-2.985
X42.09 Y-41.147 Z-2.986
X42.103 Y-41.174 Z-2.988
X42.117 Y-41.2 Z-2.989
X42.133 Y-41.225 Z-2.991
X42.15 Y-41.249 Z-2.992
X42.169 Y-41.271 Z-2.994
X42.189 Y-41.292 Z-2.995
X42.211 Y-41.311 Z-2.997
X42.234 Y-41.329 Z-2.998
X42.258 Y-41.345 Z-3
X42.283 Y-41.36 Z-3.001
X42.309 Y-41.372 Z-3.003
X42.335 Y-41.383 Z-3.004
X42.362 Y-41.392 Z-3.006
X42.39 Y-41.399 Z-3.007
X42.418 Y-41.404 Z-3.009
X42.446 Y-41.407 Z-3.01
X42.474 Y-41.409 Z-3.012
X42.502 Y-41.408 Z-3.013
X42.529 Y-41.405 Z-3.015
X42.557 Y-41.401 Z-3.016
X42.584 Y-41.395 Z-3.018
X42.61 Y-41.387 Z-3.019
X42.636 Y-41.377 Z-3.021
X42.661 Y-41.365 Z-3.022
X42.684 Y-41.352 Z-3.024
X42.707 Y-41.337 Z-3.025
X42.729 Y-41.321 Z-3.027
X42.749 Y-41.304 Z-3.028
X42.769 Y-41.285 Z-3.03
X42.786 Y-41.265 Z-3.031
X42.803 Y-41.244 Z-3.033
X42.817 Y-41.222 Z-3.034
X42.83 Y-41.199 Z-3.036
X42.842 Y-41.175 Z-3.037
X42.852 Y-41.151 Z-3.039
X42.86 Y-41.126 Z-3.04
X42.866 Y-41.1 Z-3.042
X42.87 Y-41.075 Z-3.043
X42.873 Y-41.049 Z-3.045
X42.874 Y-41.023 Z-3.046
X42.873 Y-40.998 Z-3.048
X42.871 Y-40.972 Z-3.049
X42.867 Y-40.947 Z-3.051
X42.861 Y-40.923 Z-3.052
X42.853 Y-40.899 Z-3.054
X42.844 Y-40.875 Z-3.055
X42.833 Y-40.853 Z-3.057
X42.821 Y-40.831 Z-3.058
X42.808 Y-40.81 Z-3.06
X42.793 Y-40.791 Z-3.061
X42.777 Y-40.772 Z-3.063
X42.759 Y-40.755 Z-3.064
X42.741 Y-40.739 Z-3.066
X42.721 Y-40.724 Z-3.067
X42.701 Y-40.711 Z-3.069
X42.68 Y-40.699 Z-3.07
X42.659 Y-40.689 Z-3.072
X42.636 Y-40.68 Z-3.073
X42.614 Y-40.673 Z-3.075
X42.591 Y-40.667 Z-3.076
X42.567 Y-40.663 Z-3.078
X42.544 Y-40.661 Z-3.079
X42.521 Y-40.66 Z-3.081
X42.498 Y-40.661 Z-3.082
G3 X42.502 Y-41.339 I0.002 J-0.339
X42.498 Y-40.661 I-0.002 J0.339
G1 X42.449 Y-40.669
X42.404 Y-40.692
X42.37 Y-40.728
X42.347 Y-40.772
X42.34 Y-40.821
X42.5 Y-41
G0 Z5
Y-16
Z2
G1 Z0 F600
X45.762 Y-16.159
X45.812 Y-16.151
X45.856 Y-16.128
X45.891 Y-16.093
X45.913 Y-16.049
X45.921 Y-16
X45.912 Y-15.766 Z-0.002
X45.886 Y-15.534 Z-0.003
X45.845 Y-15.304 Z-0.005
X45.788 Y-15.078 Z-0.006
X45.716 Y-14.856 Z-0.008
X45.629 Y-14.639 Z-0.009
X45.528 Y-14.429 Z-0.011
X45.412 Y-14.227 Z-0.012
X45.283 Y-14.033 Z-0.014
X45.141 Y-13.849 Z-0.015
X44.986 Y-13.674 Z-0.017
X44.821 Y-13.511 Z-0.018
X44.644 Y-13.359 Z-0.02
X44.458 Y-13.22 Z-0.021
X44.263 Y-13.094 Z-0.023
X44.059 Y-12.982 Z-0.024
X43.849 Y-12.884 Z-0.026
X43.633 Y-12.8 Z-0.027
X43.411 Y-12.732 Z-0.029
X43.185 Y-12.679 Z-0.03
X42.957 Y-12.641 Z-0.032
X42.726 Y-12.619 Z-0.033
X42.495 Y-12.613 Z-0.035
X42.263 Y-12.623 Z-0.036
X42.033 Y-12.649 Z-0.038
X41.806 Y-12.69 Z-0.039
X41.582 Y-12.747 Z-0.041
X41.362 Y-12.818 Z-0.042
X41.148 Y-12.905 Z-0.044
X40.94 Y-13.006 Z-0.045
X40.74 Y-13.121 Z-0.047
X40.549 Y-13.249 Z-0.048
X40.366 Y-13.39 Z-0.05
X40.194 Y-13.543 Z-0.051
X40.033 Y-13.707 Z-0.053
X39.883 Y-13.882 Z-0.054
X39.745 Y-14.066 Z-0.056
X39.621 Y-14.26 Z-0.057
X39.51 Y-14.461 Z-0.059
X39.414 Y-14.67 Z-0.06
X39.331 Y-14.884 Z-0.062
X39.264 Y-15.104 Z-0.063
X39.212 Y-15.327 Z-0.065
X39.175 Y-15.553 Z-0.066
X39.154 Y-15.782 Z-0.068
X39.148 Y-16.011 Z-0.069
X39.158 Y-16.24 Z-0.071
X39.184 Y-16.467 Z-0.072
X39.225 Y-16.692 Z-0.074
X39.281 Y-16.914 Z-0.075
X39.353 Y-17.131 Z-0.077
X39.439 Y-17.343 Z-0.078
X39.539 Y-17.548 Z-0.08
X39.653 Y-17.746 Z-0.081
X39.78 Y-17.936 Z-0.083
X39.92 Y-18.116 Z-0.084
X40.072 Y-18.286 Z-0.086
X40.234 Y-18.446 Z-0.087
X40.408 Y-18.594 Z-0.089
X40.591 Y-18.729 Z-0.09
X40.782 Y-18.852 Z-0.092
X40.982 Y-18.961 Z-0.093
X41.188 Y-19.057 Z-0.095
X41.401 Y-19.138 Z-0.096
X41.618 Y-19.204 Z-0.098
X41.839 Y-19.255 Z-0.099
X42.063 Y-19.291 Z-0.101
X42.289 Y-19.312 Z-0.102
X42.516 Y-19.317 Z-0.104
X42.743 Y-19.307 Z-0.106
X42.968 Y-19.281 Z-0.107
X43.19 Y-19.24 Z-0.109
X43.41 Y-19.184 Z-0.11
X43.625 Y-19.113 Z-0.112
X43.834 Y-19.027 Z-0.113
X44.037 Y-18.928 Z-0.115
X44.233 Y-18.815 Z-0.116
X44.42 Y-18.688 Z-0.118
X44.598 Y-18.55 Z-0.119
X44.766 Y-18.4 Z-0.121
X44.924 Y-18.238 Z-0.122
X45.07 Y-18.066 Z-0.124
X45.204 Y-17.885 Z-0.125
X45.325 Y-17.695 Z-0.127
X45.433 Y-17.498 Z-0.128
X45.527 Y-17.293 Z-0.13
X45.607 Y-17.083 Z-0.131
X45.672 Y-16.868 Z-0.133
X45.722 Y-16.649 Z-0.134
X45.758 Y-16.427 Z-0.136
X45.778 Y-16.203 Z-0.137
X45.782 Y-15.979 Z-0.139
X45.772 Y-15.755 Z-0.14
X45.746 Y-15.532 Z-0.142
X45.705 Y-15.312 Z-0.143
X45.649 Y-15.095 Z-0.145
X45.578 Y-14.882 Z-0.146
X45.493 Y-14.675 Z-0.148
X45.395 Y-14.474 Z-0.149
X45.282 Y-14.281 Z-0.151
X45.157 Y-14.096 Z-0.152
X45.02 Y-13.92 Z-0.154
X44.871 Y-13.754 Z-0.155
X44.711 Y-13.598 Z-0.157
X44.54 Y-13.454 Z-0.158
X44.361 Y-13.322 Z-0.16
X44.173 Y-13.202 Z-0.161
X43.977 Y-13.096 Z-0.163
X43.775 Y-13.003 Z-0.164
X43.566 Y-12.924 Z-0.166
X43.353 Y-12.86 Z-0.167
X43.137 Y-12.811 Z-0.169
X42.917 Y-12.776 Z-0.17
X42.696 Y-12.757 Z-0.172
X42.474 Y-12.752 Z-0.173
X42.252 Y-12.763 Z-0.175
X42.032 Y-12.789 Z-0.176
X41.814 Y-12.83 Z-0.178
X41.599 Y-12.886 Z-0.179
X41.389 Y-12.956 Z-0.181
X41.184 Y-13.04 Z-0.182
X40.986 Y-13.139 Z-0.184
X40.795 Y-13.25 Z-0.185
X40.612 Y-13.374 Z-0.187
X40.438 Y-13.51 Z-0.188
X40.274 Y-13.658 Z-0.19
X40.12 Y-13.817 Z-0.191
X39.978 Y-13.985 Z-0.193
X39.847 Y-14.163 Z-0.194
X39.729 Y-14.349 Z-0.196
X39.624 Y-14.543 Z-0.197
X39.533 Y-14.744 Z-0.199
X39.455 Y-14.95 Z-0.2
X39.392 Y-15.161 Z-0.202
X39.343 Y-15.375 Z-0.203
X39.31 Y-15.593 Z-0.205
X39.291 Y-15.812 Z-0.207
X39.287 Y-16.031 Z-0.208
X39.298 Y-16.251 Z-0.21
X39.324 Y-16.468 Z-0.211
X39.365 Y-16.684 Z-0.213
X39.421 Y-16.896 Z-0.214
X39.49 Y-17.104 Z-0.216
X39.574 Y-17.306 Z-0.217
X39.672 Y-17.502 Z-0.219
X39.782 Y-17.691 Z-0.22
X39.905 Y-17.872 Z-0.222
X40.04 Y-18.044 Z-0.223
X40.187 Y-18.206 Z-0.225
X40.344 Y-18.358 Z-0.226
X40.511 Y-18.499 Z-0.228
X40.687 Y-18.627 Z-0.229
X40.872 Y-18.744 Z-0.231
X41.064 Y-18.847 Z-0.232
X41.262 Y-18.937 Z-0.234
X41.466 Y-19.014 Z-0.235
X41.675 Y-19.076 Z-0.237
X41.887 Y-19.123 Z-0.238
X42.102 Y-19.157 Z-0.24
X42.319 Y-19.175 Z-0.241
X42.536 Y-19.178 Z-0.243
X42.753 Y-19.167 Z-0.244
X42.968 Y-19.141 Z-0.246
X43.182 Y-19.1 Z-0.247
X43.391 Y-19.045 Z-0.249
X43.597 Y-18.975 Z-0.25
X43.797 Y-18.892 Z-0.252
X43.991 Y-18.795 Z-0.253
X44.177 Y-18.686 Z-0.255
X44.356 Y-18.564 Z-0.256
X44.526 Y-18.43 Z-0.258
X44.686 Y-18.285 Z-0.259
X44.836 Y-18.129 Z-0.261
X44.975 Y-17.963 Z-0.262
X45.102 Y-17.789 Z-0.264
X45.217 Y-17.606 Z-0.265
X45.319 Y-17.416 Z-0.267
X45.407 Y-17.22 Z-0.268
X45.483 Y-17.018 Z-0.27
X45.544 Y-16.811 Z-0.271
X45.59 Y-16.601 Z-0.273
X45.623 Y-16.389 Z-0.274
X45.641 Y-16.174 Z-0.276
X45.644 Y-15.959 Z-0.277
X45.632 Y-15.745 Z-0.279
X45.606 Y-15.532 Z-0.28
X45.565 Y-15.321 Z-0.282
X45.51 Y-15.114 Z-0.283
X45.441 Y-14.911 Z-0.285
X45.358 Y-14.713 Z-0.286
X45.262 Y-14.521 Z-0.288
X45.154 Y-14.337 Z-0.289
X45.033 Y-14.16 Z-0.291
X44.9 Y-13.993 Z-0.292
X44.756 Y-13.834 Z-0.294
X44.602 Y-13.686 Z-0.295
X44.438 Y-13.549 Z-0.297
X44.265 Y-13.424 Z-0.298
X44.084 Y-13.311 Z-0.3
X43.896 Y-13.21 Z-0.301
X43.702 Y-13.123 Z-0.303
X43.502 Y-13.049 Z-0.304
X43.298 Y-12.989 Z-0.306
X43.09 Y-12.943 Z-0.307
X42.879 Y-12.911 Z-0.309
X42.667 Y-12.894 Z-0.311
X42.455 Y-12.891 Z-0.312
X42.243 Y-12.903 Z-0.314
X42.032 Y-12.929 Z-0.315
X41.823 Y-12.97 Z-0.317
X41.619 Y-13.025 Z-0.318
X41.418 Y-13.093 Z-0.32
X41.222 Y-13.175 Z-0.321
X41.033 Y-13.271 Z-0.323
X40.851 Y-13.378 Z-0.324
X40.677 Y-13.498 Z-0.326
X40.511 Y-13.63 Z-0.327
X40.355 Y-13.772 Z-0.329
X40.209 Y-13.925 Z-0.33
X40.073 Y-14.088 Z-0.332
X39.95 Y-14.259 Z-0.333
X39.838 Y-14.438 Z-0.335
X39.739 Y-14.624 Z-0.336
X39.653 Y-14.816 Z-0.338
X39.58 Y-15.014 Z-0.339
X39.521 Y-15.216 Z-0.341
X39.476 Y-15.422 Z-0.342
X39.445 Y-15.63 Z-0.344
X39.428 Y-15.84 Z-0.345
X39.426 Y-16.05 Z-0.347
X39.438 Y-16.26 Z-0.348
X39.464 Y-16.468 Z-0.35
X39.505 Y-16.674 Z-0.351
X39.559 Y-16.876 Z-0.353
X39.627 Y-17.075 Z-0.354
X39.709 Y-17.268 Z-0.356
X39.803 Y-17.455 Z-0.357
X39.91 Y-17.635 Z-0.359
X40.029 Y-17.807 Z-0.36
X40.16 Y-17.971 Z-0.362
X40.301 Y-18.125 Z-0.363
X40.452 Y-18.269 Z-0.365
X40.613 Y-18.402 Z-0.366
X40.782 Y-18.524 Z-0.368
X40.959 Y-18.635 Z-0.369
X41.144 Y-18.732 Z-0.371
X41.334 Y-18.817 Z-0.372
X41.53 Y-18.889 Z-0.374
X41.73 Y-18.947 Z-0.375
X41.933 Y-18.991 Z-0.377
X42.139 Y-19.021 Z-0.378
X42.346 Y-19.037 Z-0.38
X42.554 Y-19.039 Z-0.381
X42.761 Y-19.027 Z-0.383
X42.967 Y-19.001 Z-0.384
X43.171 Y-18.96 Z-0.386
X43.371 Y-18.906 Z-0.387
X43.567 Y-18.838 Z-0.389
X43.758 Y-18.757 Z-0.39
X43.943 Y-18.664 Z-0.392
X44.12 Y-18.558 Z-0.393
X44.29 Y-18.44 Z-0.395
X44.452 Y-18.311 Z-0.396
X44.604 Y-18.171 Z-0.398
X44.746 Y-18.021 Z-0.399
X44.878 Y-17.862 Z-0.401
X44.999 Y-17.694 Z-0.402
X45.107 Y-17.519 Z-0.404
X45.203 Y-17.337 Z-0.405
X45.287 Y-17.148 Z-0.407
X45.358 Y-16.955 Z-0.408
X45.415 Y-16.757 Z-0.41
X45.458 Y-16.556 Z-0.412
X45.488 Y-16.352 Z-0.413
X45.503 Y-16.147 Z-0.415
X45.505 Y-15.942 Z-0.416
X45.492 Y-15.737 Z-0.418
X45.466 Y-15.533 Z-0.419
X45.425 Y-15.332 Z-0.421
X45.371 Y-15.134 Z-0.422
X45.304 Y-14.94 Z-0.424
X45.224 Y-14.752 Z-0.425
X45.131 Y-14.57 Z-0.427
X45.026 Y-14.394 Z-0.428
X44.909 Y-14.226 Z-0.43
X44.781 Y-14.067 Z-0.431
X44.643 Y-13.916 Z-0.433
X44.494 Y-13.776 Z-0.434
X44.337 Y-13.646 Z-0.436
X44.171 Y-13.527 Z-0.437
X43.997 Y-13.42 Z-0.439
X43.817 Y-13.326 Z-0.44
X43.63 Y-13.243 Z-0.442
X43.439 Y-13.174 Z-0.443
X43.243 Y-13.118 Z-0.445
X43.044 Y-13.075 Z-0.446
X42.843 Y-13.046 Z-0.448
X42.641 Y-13.031 Z-0.449
X42.438 Y-13.03 Z-0.451
X42.235 Y-13.043 Z-0.452
X42.034 Y-13.069 Z-0.454
X41.835 Y-13.11 Z-0.455
X41.64 Y-13.163 Z-0.457
X41.448 Y-13.23 Z-0.458
X41.262 Y-13.31 Z-0.46
X41.082 Y-13.402 Z-0.461
X40.909 Y-13.506 Z-0.463
X40.743 Y-13.622 Z-0.464
X40.585 Y-13.749 Z-0.466
X40.437 Y-13.886 Z-0.467
X40.299 Y-14.032 Z-0.469
X40.171 Y-14.188 Z-0.47
X40.054 Y-14.353 Z-0.472
X39.948 Y-14.524 Z-0.473
X39.855 Y-14.703 Z-0.475
X39.773 Y-14.887 Z-0.476
X39.705 Y-15.076 Z-0.478
X39.65 Y-15.27 Z-0.479
X39.608 Y-15.467 Z-0.481
X39.58 Y-15.665 Z-0.482
X39.566 Y-15.866 Z-0.484
X39.565 Y-16.067 Z-0.485
X39.578 Y-16.267 Z-0.487
X39.604 Y-16.465 Z-0.488
X39.644 Y-16.662 Z-0.49
X39.698 Y-16.855 Z-0.491
X39.764 Y-17.044 Z-0.493
X39.843 Y-17.228 Z-0.494
X39.935 Y-17.406 Z-0.496
X40.038 Y-17.577 Z-0.497
X40.152 Y-17.74 Z-0.499
X40.278 Y-17.896 Z-0.5
X40.414 Y-18.042 Z-0.502
X40.559 Y-18.179 Z-0.503
X40.713 Y-18.305 Z-0.505
X40.876 Y-18.42 Z-0.506
X41.046 Y-18.524 Z-0.508
X41.222 Y-18.616 Z-0.509
X41.405 Y-18.696 Z-0.511
X41.592 Y-18.763 Z-0.512
X41.783 Y-18.817 Z-0.514
X41.977 Y-18.858 Z-0.516
X42.174 Y-18.886 Z-0.517
X42.372 Y-18.9 Z-0.519
X42.57 Z-0.52
X42.768 Y-18.887 Z-0.522
X42.965 Y-18.861 Z-0.523
X43.159 Y-18.821 Z-0.525
X43.349 Y-18.768 Z-0.526
X43.536 Y-18.702 Z-0.528
X43.717 Y-18.623 Z-0.529
X43.893 Y-18.533 Z-0.531
X44.062 Y-18.43 Z-0.532
X44.223 Y-18.317 Z-0.534
X44.377 Y-18.193 Z-0.535
X44.521 Y-18.058 Z-0.537
X44.656 Y-17.914 Z-0.538
X44.78 Y-17.762 Z-0.54
X44.894 Y-17.601 Z-0.541
X44.997 Y-17.433 Z-0.543
X45.087 Y-17.258 Z-0.544
X45.166 Y-17.078 Z-0.546
X45.232 Y-16.893 Z-0.547
X45.285 Y-16.704 Z-0.549
X45.325 Y-16.512 Z-0.55
X45.352 Y-16.317 Z-0.552
X45.365 Y-16.122 Z-0.553
X45.366 Y-15.926 Z-0.555
X45.352 Y-15.73 Z-0.556
X45.326 Y-15.536 Z-0.558
X45.286 Y-15.345 Z-0.559
X45.233 Y-15.156 Z-0.561
X45.168 Y-14.972 Z-0.562
X45.09 Y-14.793 Z-0.564
X45 Y-14.62 Z-0.565
X44.899 Y-14.453 Z-0.567
X44.786 Y-14.294 Z-0.568
X44.663 Y-14.142 Z-0.57
X44.53 Y-14 Z-0.571
X44.388 Y-13.867 Z-0.573
X44.237 Y-13.744 Z-0.574
X44.078 Y-13.632 Z-0.576
X43.912 Y-13.531 Z-0.577
X43.739 Y-13.442 Z-0.579
X43.561 Y-13.365 Z-0.58
X43.378 Y-13.3 Z-0.582
X43.191 Y-13.248 Z-0.583
X43.001 Y-13.208 Z-0.585
X42.809 Y-13.182 Z-0.586
X42.616 Y-13.169 Z-0.588
X42.422 Z-0.589
X42.229 Y-13.183 Z-0.591
X42.037 Y-13.209 Z-0.592
X41.848 Y-13.249 Z-0.594
X41.662 Y-13.301 Z-0.595
X41.48 Y-13.366 Z-0.597
X41.304 Y-13.443 Z-0.598
X41.132 Y-13.532 Z-0.6
X40.968 Y-13.633 Z-0.601
X40.811 Y-13.744 Z-0.603
X40.661 Y-13.866 Z-0.604
X40.521 Y-13.998 Z-0.606
X40.39 Y-14.139 Z-0.607
X40.269 Y-14.288 Z-0.609
X40.158 Y-14.445 Z-0.61
X40.059 Y-14.61 Z-0.612
X39.971 Y-14.78 Z-0.613
X39.895 Y-14.956 Z-0.615
X39.831 Y-15.137 Z-0.616
X39.78 Y-15.322 Z-0.618
X39.742 Y-15.51 Z-0.62
X39.716 Y-15.699 Z-0.621
X39.703 Y-15.89 Z-0.623
X39.704 Y-16.081 Z-0.624
X39.718 Y-16.272 Z-0.626
X39.744 Y-16.461 Z-0.627
X39.784 Y-16.648 Z-0.629
X39.836 Y-16.832 Z-0.63
X39.9 Y-17.011 Z-0.632
X39.977 Y-17.186 Z-0.633
X40.065 Y-17.355 Z-0.635
X40.164 Y-17.517 Z-0.636
X40.275 Y-17.672 Z-0.638
X40.395 Y-17.819 Z-0.639
X40.525 Y-17.958 Z-0.641
X40.665 Y-18.087 Z-0.642
X40.813 Y-18.206 Z-0.644
X40.968 Y-18.315 Z-0.645
X41.131 Y-18.413 Z-0.647
X41.299 Y-18.5 Z-0.648
X41.473 Y-18.574 Z-0.65
X41.652 Y-18.637 Z-0.651
X41.835 Y-18.687 Z-0.653
X42.02 Y-18.725 Z-0.654
X42.207 Y-18.75 Z-0.656
X42.396 Y-18.762 Z-0.657
X42.585 Y-18.761 Z-0.659
X42.773 Y-18.747 Z-0.66
X42.96 Y-18.721 Z-0.662
X43.144 Y-18.682 Z-0.663
X43.326 Y-18.63 Z-0.665
X43.503 Y-18.566 Z-0.666
X43.675 Y-18.49 Z-0.668
X43.842 Y-18.403 Z-0.669
X44.002 Y-18.304 Z-0.671
X44.155 Y-18.195 Z-0.672
X44.3 Y-18.076 Z-0.674
X44.437 Y-17.947 Z-0.675
X44.564 Y-17.809 Z-0.677
X44.681 Y-17.663 Z-0.678
X44.789 Y-17.509 Z-0.68
X44.885 Y-17.348 Z-0.681
X44.97 Y-17.182 Z-0.683
X45.044 Y-17.01 Z-0.684
X45.105 Y-16.833 Z-0.686
X45.155 Y-16.653 Z-0.687
X45.192 Y-16.47 Z-0.689
X45.216 Y-16.284 Z-0.69
X45.228 Y-16.098 Z-0.692
X45.226 Y-15.912 Z-0.693
X45.213 Y-15.726 Z-0.695
X45.186 Y-15.541 Z-0.696
X45.147 Y-15.359 Z-0.698
X45.096 Y-15.181 Z-0.699
X45.032 Y-15.006 Z-0.701
X44.957 Y-14.836 Z-0.702
X44.87 Y-14.671 Z-0.704
X44.773 Y-14.513 Z-0.705
X44.665 Y-14.362 Z-0.707
X44.547 Y-14.219 Z-0.708
X44.419 Y-14.085 Z-0.71
X44.283 Y-13.959 Z-0.711
X44.138 Y-13.843 Z-0.713
X43.986 Y-13.738 Z-0.714
X43.828 Y-13.643 Z-0.716
X43.663 Y-13.559 Z-0.717
X43.493 Y-13.487 Z-0.719
X43.318 Y-13.426 Z-0.721
X43.14 Y-13.378 Z-0.722
X42.959 Y-13.342 Z-0.724
X42.777 Y-13.318 Z-0.725
X42.593 Y-13.307 Z-0.727
X42.408 Y-13.308 Z-0.728
X42.225 Y-13.322 Z-0.73
X42.043 Y-13.349 Z-0.731
X41.863 Y-13.388 Z-0.733
X41.687 Y-13.439 Z-0.734
X41.514 Y-13.502 Z-0.736
X41.347 Y-13.576 Z-0.737
X41.184 Y-13.662 Z-0.739
X41.029 Y-13.759 Z-0.74
X40.88 Y-13.866 Z-0.742
X40.739 Y-13.982 Z-0.743
X40.606 Y-14.109 Z-0.745
X40.483 Y-14.243 Z-0.746
X40.368 Y-14.386 Z-0.748
X40.264 Y-14.536 Z-0.749
X40.171 Y-14.693 Z-0.751
X40.089 Y-14.856 Z-0.752
X40.017 Y-15.024 Z-0.754
X39.958 Y-15.196 Z-0.755
X39.91 Y-15.372 Z-0.757
X39.875 Y-15.551 Z-0.758
X39.852 Y-15.731 Z-0.76
X39.841 Y-15.913 Z-0.761
X39.843 Y-16.095 Z-0.763
X39.857 Y-16.276 Z-0.764
X39.884 Y-16.455 Z-0.766
X39.923 Y-16.633 Z-0.767
X39.973 Y-16.807 Z-0.769
X40.036 Y-16.977 Z-0.77
X40.109 Y-17.142 Z-0.772
X40.194 Y-17.302 Z-0.773
X40.29 Y-17.456 Z-0.775
X40.396 Y-17.603 Z-0.776
X40.511 Y-17.742 Z-0.778
X40.636 Y-17.872 Z-0.779
X40.769 Y-17.994 Z-0.781
X40.91 Y-18.106 Z-0.782
X41.059 Y-18.209 Z-0.784
X41.214 Y-18.301 Z-0.785
X41.375 Y-18.382 Z-0.787
X41.541 Y-18.452 Z-0.788
X41.711 Y-18.51 Z-0.79
X41.884 Y-18.557 Z-0.791
X42.061 Y-18.591 Z-0.793
X42.239 Y-18.614 Z-0.794
X42.418 Y-18.624 Z-0.796
X42.598 Y-18.622 Z-0.797
X42.776 Y-18.608 Z-0.799
X42.954 Y-18.581 Z-0.8
X43.129 Y-18.543 Z-0.802
X43.3 Y-18.492 Z-0.803
X43.468 Y-18.431 Z-0.805
X43.631 Y-18.357 Z-0.806
X43.789 Y-18.273 Z-0.808
X43.94 Y-18.179 Z-0.809
X44.085 Y-18.074 Z-0.811
X44.222 Y-17.96 Z-0.812
X44.351 Y-17.837 Z-0.814
X44.471 Y-17.705 Z-0.815
X44.581 Y-17.565 Z-0.817
X44.682 Y-17.419 Z-0.818
X44.773 Y-17.266 Z-0.82
X44.852 Y-17.107 Z-0.821
X44.921 Y-16.943 Z-0.823
X44.978 Y-16.775 Z-0.825
X45.024 Y-16.603 Z-0.826
X45.058 Y-16.429 Z-0.828
X45.08 Y-16.253 Z-0.829
X45.09 Y-16.076 Z-0.831
X45.087 Y-15.899 Z-0.832
X45.073 Y-15.723 Z-0.834
X45.046 Y-15.548 Z-0.835
X45.008 Y-15.376 Z-0.837
X44.958 Y-15.206 Z-0.838
X44.897 Y-15.041 Z-0.84
X44.824 Y-14.88 Z-0.841
X44.741 Y-14.725 Z-0.843
X44.647 Y-14.575 Z-0.844
X44.544 Y-14.433 Z-0.846
X44.431 Y-14.298 Z-0.847
X44.309 Y-14.171 Z-0.849
X44.179 Y-14.053 Z-0.85
X44.041 Y-13.944 Z-0.852
X43.896 Y-13.845 Z-0.853
X43.745 Y-13.756 Z-0.855
X43.588 Y-13.677 Z-0.856
X43.426 Y-13.61 Z-0.858
X43.26 Y-13.553 Z-0.859
X43.091 Y-13.509 Z-0.861
X42.919 Y-13.476 Z-0.862
X42.746 Y-13.454 Z-0.864
X42.571 Y-13.445 Z-0.865
X42.397 Y-13.448 Z-0.867
X42.223 Y-13.462 Z-0.868
X42.05 Y-13.488 Z-0.87
X41.88 Y-13.527 Z-0.871
X41.713 Y-13.576 Z-0.873
X41.55 Y-13.637 Z-0.874
X41.391 Y-13.709 Z-0.876
X41.238 Y-13.791 Z-0.877
X41.091 Y-13.884 Z-0.879
X40.951 Y-13.986 Z-0.88
X40.818 Y-14.098 Z-0.882
X40.693 Y-14.218 Z-0.883
X40.576 Y-14.347 Z-0.885
X40.469 Y-14.483 Z-0.886
X40.372 Y-14.626 Z-0.888
X40.284 Y-14.775 Z-0.889
X40.207 Y-14.93 Z-0.891
X40.141 Y-15.09 Z-0.892
X40.085 Y-15.254 Z-0.894
X40.041 Y-15.421 Z-0.895
X40.009 Y-15.59 Z-0.897
X39.988 Y-15.762 Z-0.898
X39.98 Y-15.934 Z-0.9
X39.982 Y-16.106 Z-0.901
X39.997 Y-16.278 Z-0.903
X40.023 Y-16.448 Z-0.904
X40.061 Y-16.615 Z-0.906
X40.11 Y-16.78 Z-0.907
X40.171 Y-16.941 Z-0.909
X40.242 Y-17.097 Z-0.91
X40.323 Y-17.248 Z-0.912
X40.415 Y-17.393 Z-0.913
X40.516 Y-17.531 Z-0.915
X40.626 Y-17.662 Z-0.916
X40.745 Y-17.785 Z-0.918
X40.872 Y-17.9 Z-0.919
X41.007 Y-18.005 Z-0.921
X41.148 Y-18.102 Z-0.922
X41.296 Y-18.188 Z-0.924
X41.449 Y-18.263 Z-0.925
X41.606 Y-18.329 Z-0.927
X41.768 Y-18.383 Z-0.929
X41.933 Y-18.426 Z-0.93
X42.1 Y-18.457 Z-0.932
X42.269 Y-18.477 Z-0.933
X42.439 Y-18.486 Z-0.935
X42.609 Y-18.483 Z-0.936
X42.778 Y-18.468 Z-0.938
X42.945 Y-18.442 Z-0.939
X43.111 Y-18.404 Z-0.941
X43.273 Y-18.355 Z-0.942
X43.432 Y-18.296 Z-0.944
X43.586 Y-18.225 Z-0.945
X43.734 Y-18.145 Z-0.947
X43.877 Y-18.054 Z-0.948
X44.013 Y-17.954 Z-0.95
X44.142 Y-17.845 Z-0.951
X44.263 Y-17.727 Z-0.953
X44.376 Y-17.602 Z-0.954
X44.48 Y-17.469 Z-0.956
X44.575 Y-17.33 Z-0.957
X44.659 Y-17.184 Z-0.959
X44.734 Y-17.033 Z-0.96
X44.798 Y-16.878 Z-0.962
X44.851 Y-16.718 Z-0.963
X44.893 Y-16.556 Z-0.965
X44.924 Y-16.391 Z-0.966
X44.943 Y-16.224 Z-0.968
X44.951 Y-16.057 Z-0.969
X44.948 Y-15.889 Z-0.971
X44.933 Y-15.722 Z-0.972
X44.907 Y-15.557 Z-0.974
X44.87 Y-15.394 Z-0.975
X44.821 Y-15.234 Z-0.977
X44.762 Y-15.078 Z-0.978
X44.693 Y-14.926 Z-0.98
X44.613 Y-14.779 Z-0.981
X44.523 Y-14.639 Z-0.983
X44.424 Y-14.505 Z-0.984
X44.316 Y-14.378 Z-0.986
X44.2 Y-14.259 Z-0.987
X44.076 Y-14.148 Z-0.989
X43.945 Y-14.045 Z-0.99
X43.808 Y-13.953 Z-0.992
X43.664 Y-13.869 Z-0.993
X43.515 Y-13.796 Z-0.995
X43.362 Y-13.733 Z-0.996
X43.204 Y-13.681 Z-0.998
X43.044 Y-13.64 Z-0.999
X42.881 Y-13.61 Z-1.001
X42.717 Y-13.591 Z-1.002
X42.552 Y-13.583 Z-1.004
X42.387 Y-13.587 Z-1.005
X42.222 Y-13.602 Z-1.007
X42.059 Y-13.628 Z-1.008
X41.899 Y-13.665 Z-1.01
X41.741 Y-13.713 Z-1.011
X41.587 Y-13.771 Z-1.013
X41.438 Y-13.84 Z-1.014
X41.293 Y-13.919 Z-1.016
X41.155 Y-14.008 Z-1.017
X41.023 Y-14.106 Z-1.019
X40.898 Y-14.212 Z-1.02
X40.781 Y-14.327 Z-1.022
X40.671 Y-14.449 Z-1.023
X40.571 Y-14.578 Z-1.025
X40.48 Y-14.714 Z-1.026
X40.398 Y-14.856 Z-1.028
X40.326 Y-15.003 Z-1.03
X40.264 Y-15.154 Z-1.031
X40.213 Y-15.309 Z-1.033
X40.173 Y-15.468 Z-1.034
X40.143 Y-15.628 Z-1.036
X40.125 Y-15.79 Z-1.037
X40.118 Y-15.953 Z-1.039
X40.122 Y-16.116 Z-1.04
X40.137 Y-16.278 Z-1.042
X40.163 Y-16.438 Z-1.043
X40.199 Y-16.596 Z-1.045
X40.247 Y-16.752 Z-1.046
X40.305 Y-16.903 Z-1.048
X40.373 Y-17.05 Z-1.049
X40.451 Y-17.193 Z-1.051
X40.539 Y-17.329 Z-1.052
X40.635 Y-17.459 Z-1.054
X40.74 Y-17.582 Z-1.055
X40.854 Y-17.697 Z-1.057
X40.974 Y-17.805 Z-1.058
X41.102 Y-17.903 Z-1.06
X41.236 Y-17.993 Z-1.061
X41.376 Y-18.073 Z-1.063
X41.521 Y-18.144 Z-1.064
X41.67 Y-18.205 Z-1.066
X41.823 Y-18.255 Z-1.067
X41.979 Y-18.294 Z-1.069
X42.137 Y-18.323 Z-1.07
X42.297 Y-18.341 Z-1.072
X42.457 Y-18.348 Z-1.073
X42.618 Y-18.344 Z-1.075
X42.777 Y-18.329 Z-1.076
X42.935 Y-18.303 Z-1.078
X43.091 Y-18.266 Z-1.079
X43.244 Y-18.219 Z-1.081
X43.394 Y-18.162 Z-1.082
X43.538 Y-18.094 Z-1.084
X43.678 Y-18.017 Z-1.085
X43.813 Y-17.931 Z-1.087
X43.94 Y-17.835 Z-1.088
X44.061 Y-17.731 Z-1.09
X44.175 Y-17.62 Z-1.091
X44.281 Y-17.5 Z-1.093
X44.378 Y-17.374 Z-1.094
X44.466 Y-17.242 Z-1.096
X44.545 Y-17.104 Z-1.097
X44.614 Y-16.961 Z-1.099
X44.673 Y-16.814 Z-1.1
X44.722 Y-16.663 Z-1.102
X44.761 Y-16.51 Z-1.103
X44.789 Y-16.354 Z-1.105
X44.806 Y-16.196 Z-1.106
X44.813 Y-16.038 Z-1.108
X44.809 Y-15.88 Z-1.109
X44.794 Y-15.723 Z-1.111
X44.768 Y-15.567 Z-1.112
X44.732 Y-15.414 Z-1.114
X44.685 Y-15.263 Z-1.115
X44.628 Y-15.116 Z-1.117
X44.561 Y-14.974 Z-1.118
X44.485 Y-14.836 Z-1.12
X44.4 Y-14.704 Z-1.121
X44.306 Y-14.578 Z-1.123
X44.203 Y-14.459 Z-1.124
X44.093 Y-14.347 Z-1.126
X43.975 Y-14.244 Z-1.127
X43.851 Y-14.148 Z-1.129
X43.72 Y-14.061 Z-1.13
X43.584 Y-13.984 Z-1.132
X43.444 Y-13.916 Z-1.134
X43.298 Y-13.858 Z-1.135
X43.15 Y-13.81 Z-1.137
X42.998 Y-13.772 Z-1.138
X42.845 Y-13.745 Z-1.14
X42.69 Y-13.728 Z-1.141
X42.534 Y-13.722 Z-1.143
X42.378 Y-13.726 Z-1.144
X42.224 Y-13.741 Z-1.146
X42.07 Y-13.767 Z-1.147
X41.919 Y-13.803 Z-1.149
X41.771 Y-13.849 Z-1.15
X41.626 Y-13.905 Z-1.152
X41.486 Y-13.971 Z-1.153
X41.35 Y-14.047 Z-1.155
X41.22 Y-14.131 Z-1.156
X41.097 Y-14.224 Z-1.158
X40.98 Y-14.325 Z-1.159
X40.87 Y-14.434 Z-1.161
X40.768 Y-14.55 Z-1.162
X40.674 Y-14.672 Z-1.164
X40.589 Y-14.801 Z-1.165
X40.513 Y-14.935 Z-1.167
X40.446 Y-15.074 Z-1.168
X40.389 Y-15.217 Z-1.17
X40.342 Y-15.363 Z-1.171
X40.305 Y-15.513 Z-1.173
X40.278 Y-15.664 Z-1.174
X40.262 Y-15.817 Z-1.176
X40.256 Y-15.97 Z-1.177
X40.261 Y-16.123 Z-1.179
X40.276 Y-16.276 Z-1.18
X40.302 Y-16.427 Z-1.182
X40.337 Y-16.576 Z-1.183
X40.383 Y-16.722 Z-1.185
X40.439 Y-16.864 Z-1.186
X40.504 Y-17.002 Z-1.188
X40.578 Y-17.135 Z-1.189
X40.662 Y-17.263 Z-1.191
X40.753 Y-17.385 Z-1.192
X40.853 Y-17.5 Z-1.194
X40.96 Y-17.608 Z-1.195
X41.075 Y-17.708 Z-1.197
X41.196 Y-17.8 Z-1.198
X41.323 Y-17.884 Z-1.2
X41.455 Y-17.958 Z-1.201
X41.592 Y-18.024 Z-1.203
X41.732 Y-18.08 Z-1.204
X41.877 Y-18.126 Z-1.206
X42.024 Y-18.162 Z-1.207
X42.173 Y-18.188 Z-1.209
X42.323 Y-18.204 Z-1.21
X42.474 Y-18.209 Z-1.212
X42.625 Y-18.204 Z-1.213
X42.775 Y-18.189 Z-1.215
X42.924 Y-18.164 Z-1.216
X43.07 Y-18.128 Z-1.218
X43.214 Y-18.083 Z-1.219
X43.354 Y-18.028 Z-1.221
X43.49 Y-17.964 Z-1.222
X43.621 Y-17.89 Z-1.224
X43.746 Y-17.808 Z-1.225
X43.866 Y-17.717 Z-1.227
X43.979 Y-17.619 Z-1.228
X44.085 Y-17.513 Z-1.23
X44.184 Y-17.4 Z-1.231
X44.274 Y-17.281 Z-1.233
X44.356 Y-17.156 Z-1.235
X44.429 Y-17.026 Z-1.236
X44.494 Y-16.891 Z-1.238
X44.548 Y-16.752 Z-1.239
X44.594 Y-16.61 Z-1.241
X44.629 Y-16.465 Z-1.242
X44.654 Y-16.319 Z-1.244
X44.669 Y-16.171 Z-1.245
X44.675 Y-16.022 Z-1.247
X44.669 Y-15.873 Z-1.248
X44.654 Y-15.726 Z-1.25
X44.629 Y-15.58 Z-1.251
X44.594 Y-15.435 Z-1.253
X44.549 Y-15.294 Z-1.254
X44.495 Y-15.156 Z-1.256
X44.431 Y-15.023 Z-1.257
X44.358 Y-14.894 Z-1.259
X44.277 Y-14.771 Z-1.26
X44.188 Y-14.653 Z-1.262
X44.091 Y-14.542 Z-1.263
X43.987 Y-14.438 Z-1.265
X43.875 Y-14.341 Z-1.266
X43.758 Y-14.252 Z-1.268
X43.635 Y-14.171 Z-1.269
X43.506 Y-14.1 Z-1.271
X43.374 Y-14.037 Z-1.272
X43.237 Y-13.983 Z-1.274
X43.097 Y-13.939 Z-1.275
X42.955 Y-13.904 Z-1.277
X42.81 Y-13.88 Z-1.278
X42.664 Y-13.865 Z-1.28
X42.518 Y-13.86 Z-1.281
X42.372 Y-13.865 Z-1.283
X42.227 Y-13.881 Z-1.284
X42.083 Y-13.906 Z-1.286
X41.941 Y-13.941 Z-1.287
X41.802 Y-13.985 Z-1.289
X41.667 Y-14.039 Z-1.29
X41.535 Y-14.102 Z-1.292
X41.409 Y-14.173 Z-1.293
X41.287 Y-14.253 Z-1.295
X41.172 Y-14.341 Z-1.296
X41.063 Y-14.437 Z-1.298
X40.96 Y-14.54 Z-1.299
X40.865 Y-14.649 Z-1.301
X40.778 Y-14.765 Z-1.302
X40.699 Y-14.886 Z-1.304
X40.629 Y-15.013 Z-1.305
X40.567 Y-15.144 Z-1.307
X40.514 Y-15.278 Z-1.308
X40.471 Y-15.416 Z-1.31
X40.437 Y-15.556 Z-1.311
X40.413 Y-15.698 Z-1.313
X40.399 Y-15.842 Z-1.314
X40.395 Y-15.986 Z-1.316
X40.4 Y-16.129 Z-1.317
X40.415 Y-16.272 Z-1.319
X40.44 Y-16.414 Z-1.32
X40.475 Y-16.553 Z-1.322
X40.519 Y-16.69 Z-1.323
X40.572 Y-16.823 Z-1.325
X40.634 Y-16.952 Z-1.326
X40.705 Y-17.076 Z-1.328
X40.784 Y-17.196 Z-1.329
X40.87 Y-17.309 Z-1.331
X40.965 Y-17.416 Z-1.332
X41.066 Y-17.517 Z-1.334
X41.174 Y-17.61 Z-1.335
X41.288 Y-17.696 Z-1.337
X41.408 Y-17.773 Z-1.339
X41.532 Y-17.842 Z-1.34
X41.661 Y-17.903 Z-1.342
X41.793 Y-17.954 Z-1.343
X41.929 Y-17.997 Z-1.345
X42.067 Y-18.029 Z-1.346
X42.207 Y-18.053 Z-1.348
X42.348 Y-18.067 Z-1.349
X42.489 Y-18.071 Z-1.351
X42.631 Y-18.065 Z-1.352
X42.771 Y-18.05 Z-1.354
X42.91 Y-18.025 Z-1.355
X43.047 Y-17.991 Z-1.357
X43.181 Y-17.947 Z-1.358
X43.312 Y-17.895 Z-1.36
X43.439 Y-17.834 Z-1.361
X43.561 Y-17.764 Z-1.363
X43.679 Y-17.686 Z-1.364
X43.79 Y-17.6 Z-1.366
X43.895 Y-17.507 Z-1.367
X43.994 Y-17.408 Z-1.369
X44.085 Y-17.301 Z-1.37
X44.169 Y-17.189 Z-1.372
X44.245 Y-17.071 Z-1.373
X44.313 Y-16.949 Z-1.375
X44.372 Y-16.822 Z-1.376
X44.423 Y-16.692 Z-1.378
X44.464 Y-16.559 Z-1.379
X44.496 Y-16.423 Z-1.381
X44.519 Y-16.285 Z-1.382
X44.532 Y-16.147 Z-1.384
X44.536 Y-16.007 Z-1.385
X44.53 Y-15.868 Z-1.387
X44.515 Y-15.73 Z-1.388
X44.49 Y-15.593 Z-1.39
X44.457 Y-15.459 Z-1.391
X44.414 Y-15.327 Z-1.393
X44.362 Y-15.198 Z-1.394
X44.301 Y-15.074 Z-1.396
X44.233 Y-14.954 Z-1.397
X44.156 Y-14.839 Z-1.399
X44.071 Y-14.729 Z-1.4
X43.98 Y-14.626 Z-1.402
X43.881 Y-14.529 Z-1.403
X43.777 Y-14.439 Z-1.405
X43.666 Y-14.357 Z-1.406
X43.551 Y-14.282 Z-1.408
X43.43 Y-14.216 Z-1.409
X43.305 Y-14.158 Z-1.411
X43.177 Y-14.109 Z-1.412
X43.046 Y-14.068 Z-1.414
X42.912 Y-14.037 Z-1.415
X42.777 Y-14.015 Z-1.417
X42.641 Y-14.002 Z-1.418
X42.504 Y-13.999 Z-1.42
X42.367 Y-14.005 Z-1.421
X42.232 Y-14.02 Z-1.423
X42.097 Y-14.044 Z-1.424
X41.965 Y-14.078 Z-1.426
X41.835 Y-14.12 Z-1.427
X41.709 Y-14.171 Z-1.429
X41.587 Y-14.231 Z-1.43
X41.469 Y-14.299 Z-1.432
X41.356 Y-14.374 Z-1.433
X41.249 Y-14.458 Z-1.435
X41.147 Y-14.548 Z-1.436
X41.052 Y-14.645 Z-1.438
X40.964 Y-14.748 Z-1.439
X40.883 Y-14.856 Z-1.441
X40.81 Y-14.97 Z-1.443
X40.745 Y-15.089 Z-1.444
X40.689 Y-15.211 Z-1.446
X40.64 Y-15.337 Z-1.447
X40.601 Y-15.466 Z-1.449
X40.57 Y-15.598 Z-1.45
X40.549 Y-15.731 Z-1.452
X40.536 Y-15.865 Z-1.453
X40.533 Y-15.999 Z-1.455
X40.539 Y-16.133 Z-1.456
X40.555 Y-16.267 Z-1.458
X40.579 Y-16.399 Z-1.459
X40.612 Y-16.529 Z-1.461
X40.654 Y-16.656 Z-1.462
X40.704 Y-16.78 Z-1.464
X40.763 Y-16.9 Z-1.465
X40.83 Y-17.016 Z-1.467
X40.905 Y-17.127 Z-1.468
X40.987 Y-17.232 Z-1.47
X41.075 Y-17.332 Z-1.471
X41.171 Y-17.425 Z-1.473
X41.272 Y-17.511 Z-1.474
X41.379 Y-17.59 Z-1.476
X41.491 Y-17.662 Z-1.477
X41.608 Y-17.725 Z-1.479
X41.728 Y-17.781 Z-1.48
X41.852 Y-17.828 Z-1.482
X41.979 Y-17.867 Z-1.483
X42.108 Y-17.896 Z-1.485
X42.239 Y-17.917 Z-1.486
X42.37 Y-17.929 Z-1.488
X42.502 Y-17.932 Z-1.489
X42.634 Y-17.926 Z-1.491
X42.765 Y-17.911 Z-1.492
X42.895 Y-17.887 Z-1.494
X43.022 Y-17.854 Z-1.495
X43.147 Y-17.812 Z-1.497
X43.269 Y-17.762 Z-1.498
X43.387 Y-17.704 Z-1.5
X43.5 Y-17.639 Z-1.501
X43.609 Y-17.565 Z-1.503
X43.713 Y-17.485 Z-1.504
X43.81 Y-17.397 Z-1.506
X43.901 Y-17.303 Z-1.507
X43.986 Y-17.204 Z-1.509
X44.064 Y-17.099 Z-1.51
X44.134 Y-16.988 Z-1.512
X44.196 Y-16.874 Z-1.513
X44.25 Y-16.755 Z-1.515
X44.296 Y-16.633 Z-1.516
X44.334 Y-16.509 Z-1.518
X44.363 Y-16.382 Z-1.519
X44.383 Y-16.254 Z-1.521
X44.395 Y-16.124 Z-1.522
X44.397 Y-15.995 Z-1.524
X44.391 Y-15.865 Z-1.525
X44.376 Y-15.736 Z-1.527
X44.352 Y-15.609 Z-1.528
X44.32 Y-15.484 Z-1.53
X44.279 Y-15.361 Z-1.531
X44.229 Y-15.242 Z-1.533
X44.172 Y-15.126 Z-1.534
X44.107 Y-15.015 Z-1.536
X44.035 Y-14.908 Z-1.537
X43.956 Y-14.807 Z-1.539
X43.87 Y-14.711 Z-1.54
X43.778 Y-14.622 Z-1.542
X43.68 Y-14.539 Z-1.544
X43.576 Y-14.463 Z-1.545
X43.468 Y-14.394 Z-1.547
X43.355 Y-14.333 Z-1.548
X43.239 Y-14.28 Z-1.55
X43.119 Y-14.235 Z-1.551
X42.997 Y-14.199 Z-1.553
X42.872 Y-14.17 Z-1.554
X42.746 Y-14.151 Z-1.556
X42.619 Y-14.14 Z-1.557
X42.492 Y-14.137 Z-1.559
X42.365 Y-14.144 Z-1.56
X42.238 Y-14.159 Z-1.562
X42.113 Y-14.183 Z-1.563
X41.991 Y-14.215 Z-1.565
X41.87 Y-14.255 Z-1.566
X41.753 Y-14.303 Z-1.568
X41.64 Y-14.36 Z-1.569
X41.531 Y-14.424 Z-1.571
X41.426 Y-14.495 Z-1.572
X41.327 Y-14.573 Z-1.574
X41.233 Y-14.657 Z-1.575
X41.145 Y-14.748 Z-1.577
X41.064 Y-14.845 Z-1.578
X40.99 Y-14.946 Z-1.58
X40.923 Y-15.053 Z-1.581
X40.863 Y-15.163 Z-1.583
X40.811 Y-15.278 Z-1.584
X40.767 Y-15.395 Z-1.586
X40.731 Y-15.515 Z-1.587
X40.704 Y-15.638 Z-1.589
X40.685 Y-15.761 Z-1.59
X40.674 Y-15.886 Z-1.592
X40.672 Y-16.011 Z-1.593
X40.679 Y-16.136 Z-1.595
X40.694 Y-16.26 Z-1.596
X40.717 Y-16.382 Z-1.598
X40.749 Y-16.503 Z-1.599
X40.789 Y-16.621 Z-1.601
X40.836 Y-16.735 Z-1.602
X40.892 Y-16.847 Z-1.604
X40.955 Y-16.954 Z-1.605
X41.025 Y-17.056 Z-1.607
X41.102 Y-17.154 Z-1.608
X41.185 Y-17.245 Z-1.61
X41.274 Y-17.331 Z-1.611
X41.369 Y-17.411 Z-1.613
X41.468 Y-17.483 Z-1.614
X41.573 Y-17.549 Z-1.616
X41.682 Y-17.608 Z-1.617
X41.794 Y-17.658 Z-1.619
X41.909 Y-17.701 Z-1.62
X42.027 Y-17.736 Z-1.622
X42.147 Y-17.763 Z-1.623
X42.269 Y-17.781 Z-1.625
X42.391 Y-17.792 Z-1.626
X42.514 Y-17.793 Z-1.628
X42.636 Y-17.787 Z-1.629
X42.758 Y-17.772 Z-1.631
X42.878 Y-17.748 Z-1.632
X42.996 Y-17.717 Z-1.634
X43.112 Y-17.678 Z-1.635
X43.224 Y-17.631 Z-1.637
X43.333 Y-17.576 Z-1.638
X43.438 Y-17.514 Z-1.64
X43.538 Y-17.445 Z-1.641
X43.634 Y-17.37 Z-1.643
X43.724 Y-17.288 Z-1.644
X43.808 Y-17.201 Z-1.646
X43.885 Y-17.107 Z-1.648
X43.957 Y-17.009 Z-1.649
X44.021 Y-16.907 Z-1.651
X44.078 Y-16.8 Z-1.652
X44.128 Y-16.69 Z-1.654
X44.169 Y-16.577 Z-1.655
X44.203 Y-16.461 Z-1.657
X44.229 Y-16.343 Z-1.658
X44.247 Y-16.224 Z-1.66
X44.257 Y-16.104 Z-1.661
X44.259 Y-15.984 Z-1.663
X44.252 Y-15.864 Z-1.664
X44.237 Y-15.745 Z-1.666
X44.214 Y-15.627 Z-1.667
X44.183 Y-15.511 Z-1.669
X44.144 Y-15.398 Z-1.67
X44.098 Y-15.287 Z-1.672
X44.044 Y-15.181 Z-1.673
X43.983 Y-15.078 Z-1.675
X43.916 Y-14.98 Z-1.676
X43.841 Y-14.886 Z-1.678
X43.761 Y-14.798 Z-1.679
X43.675 Y-14.716 Z-1.681
X43.584 Y-14.64 Z-1.682
X43.487 Y-14.57 Z-1.684
X43.387 Y-14.507 Z-1.685
X43.282 Y-14.452 Z-1.687
X43.174 Y-14.403 Z-1.688
X43.063 Y-14.362 Z-1.69
X42.949 Y-14.329 Z-1.691
X42.834 Y-14.304 Z-1.693
X42.717 Y-14.287 Z-1.694
X42.599 Y-14.277 Z-1.696
X42.481 Y-14.276 Z-1.697
X42.364 Y-14.283 Z-1.699
X42.247 Y-14.298 Z-1.7
X42.131 Y-14.321 Z-1.702
X42.018 Y-14.351 Z-1.703
X41.907 Y-14.389 Z-1.705
X41.799 Y-14.435 Z-1.706
X41.694 Y-14.488 Z-1.708
X41.594 Y-14.548 Z-1.709
X41.498 Y-14.614 Z-1.711
X41.406 Y-14.687 Z-1.712
X41.32 Y-14.766 Z-1.714
X41.24 Y-14.85 Z-1.715
X41.165 Y-14.94 Z-1.717
X41.097 Y-15.035 Z-1.718
X41.036 Y-15.133 Z-1.72
X40.981 Y-15.236 Z-1.721
X40.934 Y-15.342 Z-1.723
X40.894 Y-15.451 Z-1.724
X40.862 Y-15.563 Z-1.726
X40.837 Y-15.676 Z-1.727
X40.821 Y-15.79 Z-1.729
X40.812 Y-15.906 Z-1.73
X40.811 Y-16.021 Z-1.732
X40.818 Y-16.136 Z-1.733
X40.832 Y-16.251 Z-1.735
X40.855 Y-16.364 Z-1.736
X40.885 Y-16.475 Z-1.738
X40.923 Y-16.584 Z-1.739
X40.968 Y-16.689 Z-1.741
X41.02 Y-16.792 Z-1.742
X41.078 Y-16.89 Z-1.744
X41.144 Y-16.984 Z-1.745
X41.215 Y-17.074 Z-1.747
X41.293 Y-17.158 Z-1.748
X41.376 Y-17.237 Z-1.75
X41.464 Y-17.309 Z-1.752
X41.557 Y-17.376 Z-1.753
X41.653 Y-17.436 Z-1.755
X41.754 Y-17.489 Z-1.756
X41.858 Y-17.535 Z-1.758
X41.965 Y-17.574 Z-1.759
X42.074 Y-17.605 Z-1.761
X42.185 Y-17.629 Z-1.762
X42.297 Y-17.645 Z-1.764
X42.41 Y-17.654 Z-1.765
X42.523 Z-1.767
X42.636 Y-17.647 Z-1.768
X42.748 Y-17.633 Z-1.77
X42.859 Y-17.611 Z-1.771
X42.968 Y-17.581 Z-1.773
X43.074 Y-17.544 Z-1.774
X43.178 Y-17.5 Z-1.776
X43.278 Y-17.449 Z-1.777
X43.374 Y-17.391 Z-1.779
X43.466 Y-17.327 Z-1.78
X43.554 Y-17.256 Z-1.782
X43.636 Y-17.18 Z-1.783
X43.713 Y-17.099 Z-1.785
X43.784 Y-17.013 Z-1.786
X43.849 Y-16.922 Z-1.788
X43.907 Y-16.827 Z-1.789
X43.959 Y-16.728 Z-1.791
X44.004 Y-16.626 Z-1.792
X44.042 Y-16.521 Z-1.794
X44.072 Y-16.414 Z-1.795
X44.095 Y-16.306 Z-1.797
X44.111 Y-16.196 Z-1.798
X44.119 Y-16.085 Z-1.8
X44.12 Y-15.974 Z-1.801
X44.113 Y-15.864 Z-1.803
X44.098 Y-15.754 Z-1.804
X44.076 Y-15.646 Z-1.806
X44.047 Y-15.54 Z-1.807
X44.01 Y-15.436 Z-1.809
X43.967 Y-15.334 Z-1.81
X43.917 Y-15.236 Z-1.812
X43.86 Y-15.142 Z-1.813
X43.797 Y-15.052 Z-1.815
X43.728 Y-14.967 Z-1.816
X43.654 Y-14.886 Z-1.818
X43.574 Y-14.811 Z-1.819
X43.489 Y-14.742 Z-1.821
X43.4 Y-14.679 Z-1.822
X43.307 Y-14.621 Z-1.824
X43.21 Y-14.571 Z-1.825
X43.11 Y-14.527 Z-1.827
X43.008 Y-14.49 Z-1.828
X42.903 Y-14.461 Z-1.83
X42.797 Y-14.438 Z-1.831
X42.689 Y-14.423 Z-1.833
X42.581 Y-14.415 Z-1.834
X42.472 Z-1.836
X42.364 Y-14.422 Z-1.837
X42.257 Y-14.436 Z-1.839
X42.151 Y-14.458 Z-1.84
X42.047 Y-14.487 Z-1.842
X41.945 Y-14.523 Z-1.843
X41.846 Y-14.566 Z-1.845
X41.751 Y-14.615 Z-1.846
X41.659 Y-14.671 Z-1.848
X41.571 Y-14.733 Z-1.849
X41.487 Y-14.8 Z-1.851
X41.409 Y-14.873 Z-1.853
X41.335 Y-14.951 Z-1.854
X41.268 Y-15.034 Z-1.856
X41.206 Y-15.122 Z-1.857
X41.15 Y-15.213 Z-1.859
X41.101 Y-15.308 Z-1.86
X41.058 Y-15.405 Z-1.862
X41.022 Y-15.506 Z-1.863
X40.993 Y-15.608 Z-1.865
X40.972 Y-15.712 Z-1.866
X40.957 Y-15.818 Z-1.868
X40.95 Y-15.923 Z-1.869
Y-16.029 Z-1.871
X40.957 Y-16.135 Z-1.872
X40.971 Y-16.24 Z-1.874
X40.993 Y-16.344 Z-1.875
X41.021 Y-16.445 Z-1.877
X41.056 Y-16.545 Z-1.878
X41.098 Y-16.642 Z-1.88
X41.147 Y-16.735 Z-1.881
X41.201 Y-16.825 Z-1.883
X41.262 Y-16.911 Z-1.884
X41.328 Y-16.992 Z-1.886
X41.4 Y-17.069 Z-1.887
X41.476 Y-17.141 Z-1.889
X41.558 Y-17.207 Z-1.89
X41.643 Y-17.267 Z-1.892
X41.732 Y-17.321 Z-1.893
X41.825 Y-17.369 Z-1.895
X41.921 Y-17.411 Z-1.896
X42.019 Y-17.446 Z-1.898
X42.119 Y-17.474 Z-1.899
X42.221 Y-17.495 Z-1.901
X42.324 Y-17.509 Z-1.902
X42.428 Y-17.516 Z-1.904
X42.531 Z-1.905
X42.635 Y-17.508 Z-1.907
X42.737 Y-17.494 Z-1.908
X42.838 Y-17.473 Z-1.91
X42.938 Y-17.445 Z-1.911
X43.035 Y-17.41 Z-1.913
X43.129 Y-17.369 Z-1.914
X43.221 Y-17.322 Z-1.916
X43.308 Y-17.268 Z-1.917
X43.392 Y-17.209 Z-1.919
X43.472 Y-17.144 Z-1.92
X43.547 Y-17.074 Z-1.922
X43.616 Y-16.999 Z-1.923
X43.681 Y-16.919 Z-1.925
X43.74 Y-16.835 Z-1.926
X43.792 Y-16.748 Z-1.928
X43.839 Y-16.657 Z-1.929
X43.88 Y-16.564 Z-1.931
X43.913 Y-16.468 Z-1.932
X43.941 Y-16.37 Z-1.934
X43.961 Y-16.27 Z-1.935
X43.975 Y-16.17 Z-1.937
X43.981 Y-16.068 Z-1.938
Y-15.967 Z-1.94
X43.974 Y-15.866 Z-1.941
X43.96 Y-15.766 Z-1.943
X43.939 Y-15.667 Z-1.944
X43.911 Y-15.57 Z-1.946
X43.877 Y-15.475 Z-1.947
X43.837 Y-15.383 Z-1.949
X43.79 Y-15.294 Z-1.95
X43.738 Y-15.208 Z-1.952
X43.679 Y-15.126 Z-1.953
X43.616 Y-15.049 Z-1.955
X43.547 Y-14.976 Z-1.957
X43.474 Y-14.908 Z-1.958
X43.396 Y-14.845 Z-1.96
X43.314 Y-14.788 Z-1.961
X43.229 Y-14.736 Z-1.963
X43.14 Y-14.691 Z-1.964
X43.048 Y-14.652 Z-1.966
X42.955 Y-14.619 Z-1.967
X42.859 Y-14.592 Z-1.969
X42.762 Y-14.573 Z-1.97
X42.663 Y-14.56 Z-1.972
X42.564 Y-14.553 Z-1.973
X42.465 Y-14.554 Z-1.975
X42.367 Y-14.561 Z-1.976
X42.269 Y-14.575 Z-1.978
X42.173 Y-14.596 Z-1.979
X42.078 Y-14.623 Z-1.981
X41.985 Y-14.656 Z-1.982
X41.895 Y-14.696 Z-1.984
X41.808 Y-14.741 Z-1.985
X41.725 Y-14.793 Z-1.987
X41.645 Y-14.85 Z-1.988
X41.57 Y-14.912 Z-1.99
X41.498 Y-14.979 Z-1.991
X41.432 Y-15.051 Z-1.993
X41.371 Y-15.127 Z-1.994
X41.315 Y-15.207 Z-1.996
X41.265 Y-15.291 Z-1.997
X41.221 Y-15.377 Z-1.999
X41.183 Y-15.467 Z-2
X41.151 Y-15.558 Z-2.002
X41.125 Y-15.652 Z-2.003
X41.106 Y-15.747 Z-2.005
X41.094 Y-15.843 Z-2.006
X41.088 Y-15.939 Z-2.008
X41.089 Y-16.036 Z-2.009
X41.096 Y-16.132 Z-2.011
X41.11 Y-16.228 Z-2.012
X41.13 Y-16.322 Z-2.014
X41.156 Y-16.414 Z-2.015
X41.189 Y-16.504 Z-2.017
X41.228 Y-16.592 Z-2.018
X41.273 Y-16.677 Z-2.02
X41.323 Y-16.758 Z-2.021
X41.379 Y-16.836 Z-2.023
X41.44 Y-16.91 Z-2.024
X41.506 Y-16.979 Z-2.026
X41.576 Y-17.043 Z-2.027
X41.65 Y-17.103 Z-2.029
X41.728 Y-17.157 Z-2.03
X41.81 Y-17.206 Z-2.032
X41.895 Y-17.249 Z-2.033
X41.982 Y-17.286 Z-2.035
X42.071 Y-17.317 Z-2.036
X42.163 Y-17.342 Z-2.038
X42.255 Y-17.36 Z-2.039
X42.349 Y-17.372 Z-2.041
X42.443 Y-17.378 Z-2.042
X42.537 Y-17.377 Z-2.044
X42.631 Y-17.37 Z-2.045
X42.724 Y-17.356 Z-2.047
X42.816 Y-17.336 Z-2.048
X42.906 Y-17.31 Z-2.05
X42.994 Y-17.278 Z-2.051
X43.079 Y-17.239 Z-2.053
X43.162 Y-17.196 Z-2.054
X43.241 Y-17.146 Z-2.056
X43.317 Y-17.092 Z-2.058
X43.389 Y-17.032 Z-2.059
X43.456 Y-16.968 Z-2.061
X43.519 Y-16.9 Z-2.062
X43.577 Y-16.827 Z-2.064
X43.629 Y-16.751 Z-2.065
X43.677 Y-16.671 Z-2.067
X43.719 Y-16.588 Z-2.068
X43.755 Y-16.503 Z-2.07
X43.785 Y-16.416 Z-2.071
X43.808 Y-16.327 Z-2.073
X43.826 Y-16.236 Z-2.074
X43.838 Y-16.145 Z-2.076
X43.843 Y-16.053 Z-2.077
X43.842 Y-15.961 Z-2.079
X43.835 Y-15.87 Z-2.08
X43.821 Y-15.779 Z-2.082
X43.802 Y-15.69 Z-2.083
X43.776 Y-15.602 Z-2.085
X43.744 Y-15.517 Z-2.086
X43.707 Y-15.433 Z-2.088
X43.664 Y-15.353 Z-2.089
X43.616 Y-15.276 Z-2.091
X43.563 Y-15.202 Z-2.092
X43.505 Y-15.132 Z-2.094
X43.442 Y-15.067 Z-2.095
X43.375 Y-15.006 Z-2.097
X43.304 Y-14.949 Z-2.098
X43.23 Y-14.898 Z-2.1
X43.152 Y-14.852 Z-2.101
X43.071 Y-14.812 Z-2.103
X42.988 Y-14.777 Z-2.104
X42.903 Y-14.748 Z-2.106
X42.816 Y-14.725 Z-2.107
X42.728 Y-14.708 Z-2.109
X42.639 Y-14.696 Z-2.11
X42.55 Y-14.691 Z-2.112
X42.46 Y-14.693 Z-2.113
X42.371 Y-14.7 Z-2.115
X42.283 Y-14.713 Z-2.116
X42.196 Y-14.733 Z-2.118
X42.111 Y-14.758 Z-2.119
X42.027 Y-14.789 Z-2.121
X41.946 Y-14.825 Z-2.122
X41.868 Y-14.867 Z-2.124
X41.793 Y-14.914 Z-2.125
X41.721 Y-14.966 Z-2.127
X41.653 Y-15.023 Z-2.128
X41.59 Y-15.084 Z-2.13
X41.53 Y-15.149 Z-2.131
X41.476 Y-15.219 Z-2.133
X41.426 Y-15.291 Z-2.134
X41.381 Y-15.367 Z-2.136
X41.342 Y-15.446 Z-2.137
X41.308 Y-15.526 Z-2.139
X41.28 Y-15.609 Z-2.14
X41.258 Y-15.694 Z-2.142
X41.241 Y-15.78 Z-2.143
X41.231 Y-15.867 Z-2.145
X41.226 Y-15.954 Z-2.146
X41.227 Y-16.041 Z-2.148
X41.235 Y-16.127 Z-2.149
X41.248 Y-16.213 Z-2.151
X41.267 Y-16.298 Z-2.152
X41.291 Y-16.381 Z-2.154
X41.322 Y-16.462 Z-2.155
X41.357 Y-16.541 Z-2.157
X41.398 Y-16.617 Z-2.158
X41.444 Y-16.69 Z-2.16
X41.495 Y-16.76 Z-2.162
X41.55 Y-16.825 Z-2.163
X41.61 Y-16.887 Z-2.165
X41.674 Y-16.945 Z-2.166
X41.741 Y-16.998 Z-2.168
X41.812 Y-17.046 Z-2.169
X41.886 Y-17.089 Z-2.171
X41.962 Y-17.128 Z-2.172
X42.041 Y-17.16 Z-2.174
X42.122 Y-17.187 Z-2.175
X42.204 Y-17.209 Z-2.177
X42.288 Y-17.225 Z-2.178
X42.372 Y-17.235 Z-2.18
X42.457 Y-17.239 Z-2.181
X42.542 Y-17.238 Z-2.183
X42.626 Y-17.231 Z-2.184
X42.709 Y-17.218 Z-2.186
X42.792 Y-17.199 Z-2.187
X42.873 Y-17.175 Z-2.189
X42.951 Y-17.145 Z-2.19
X43.028 Y-17.11 Z-2.192
X43.102 Y-17.07 Z-2.193
X43.173 Y-17.026 Z-2.195
X43.24 Y-16.976 Z-2.196
X43.304 Y-16.922 Z-2.198
X43.364 Y-16.864 Z-2.199
X43.42 Y-16.802 Z-2.201
X43.472 Y-16.736 Z-2.202
X43.518 Y-16.667 Z-2.204
X43.56 Y-16.595 Z-2.205
X43.597 Y-16.521 Z-2.207
X43.629 Y-16.444 Z-2.208
X43.655 Y-16.366 Z-2.21
X43.676 Y-16.286 Z-2.211
X43.691 Y-16.204 Z-2.213
X43.701 Y-16.122 Z-2.214
X43.705 Y-16.04 Z-2.216
X43.703 Y-15.958 Z-2.217
X43.696 Y-15.876 Z-2.219
X43.683 Y-15.795 Z-2.22
X43.665 Y-15.715 Z-2.222
X43.641 Y-15.636 Z-2.223
X43.612 Y-15.56 Z-2.225
X43.578 Y-15.485 Z-2.226
X43.539 Y-15.413 Z-2.228
X43.496 Y-15.345 Z-2.229
X43.447 Y-15.279 Z-2.231
X43.395 Y-15.217 Z-2.232
X43.338 Y-15.159 Z-2.234
X43.278 Y-15.105 Z-2.235
X43.214 Y-15.055 Z-2.237
X43.147 Y-15.01 Z-2.238
X43.077 Y-14.969 Z-2.24
X43.004 Y-14.933 Z-2.241
X42.93 Y-14.903 Z-2.243
X42.853 Y-14.878 Z-2.244
X42.776 Y-14.857 Z-2.246
X42.697 Y-14.843 Z-2.247
X42.617 Y-14.834 Z-2.249
X42.537 Y-14.83 Z-2.25
X42.457 Y-14.832 Z-2.252
X42.377 Y-14.839 Z-2.253
X42.299 Y-14.851 Z-2.255
X42.221 Y-14.869 Z-2.256
X42.145 Y-14.892 Z-2.258
X42.071 Y-14.921 Z-2.259
X41.998 Y-14.954 Z-2.261
X41.929 Y-14.992 Z-2.262
X41.862 Y-15.034 Z-2.264
X41.799 Y-15.081 Z-2.266
X41.739 Y-15.133 Z-2.267
X41.682 Y-15.188 Z-2.269
X41.63 Y-15.246 Z-2.27
X41.581 Y-15.309 Z-2.272
X41.538 Y-15.374 Z-2.273
X41.498 Y-15.442 Z-2.275
X41.464 Y-15.512 Z-2.276
X41.434 Y-15.585 Z-2.278
X41.41 Y-15.659 Z-2.279
X41.391 Y-15.734 Z-2.281
X41.377 Y-15.811 Z-2.282
X41.368 Y-15.888 Z-2.284
X41.364 Y-15.966 Z-2.285
X41.366 Y-16.044 Z-2.287
X41.373 Y-16.121 Z-2.288
X41.386 Y-16.197 Z-2.29
X41.403 Y-16.273 Z-2.291
X41.426 Y-16.346 Z-2.293
X41.453 Y-16.418 Z-2.294
X41.486 Y-16.488 Z-2.296
X41.523 Y-16.556 Z-2.297
X41.564 Y-16.62 Z-2.299
X41.61 Y-16.682 Z-2.3
X41.66 Y-16.74 Z-2.302
X41.713 Y-16.795 Z-2.303
X41.771 Y-16.845 Z-2.305
X41.831 Y-16.892 Z-2.306
X41.894 Y-16.934 Z-2.308
X41.96 Y-16.972 Z-2.309
X42.029 Y-17.005 Z-2.311
X42.099 Y-17.034 Z-2.312
X42.171 Y-17.057 Z-2.314
X42.244 Y-17.076 Z-2.315
X42.319 Y-17.089 Z-2.317
X42.394 Y-17.098 Z-2.318
X42.469 Y-17.101 Z-2.32
X42.544 Y-17.099 Z-2.321
X42.619 Y-17.092 Z-2.323
X42.693 Y-17.08 Z-2.324
X42.766 Y-17.063 Z-2.326
X42.837 Y-17.041 Z-2.327
X42.907 Y-17.014 Z-2.329
X42.975 Y-16.982 Z-2.33
X43.04 Y-16.946 Z-2.332
X43.103 Y-16.906 Z-2.333
X43.162 Y-16.861 Z-2.335
X43.218 Y-16.813 Z-2.336
X43.271 Y-16.761 Z-2.338
X43.32 Y-16.705 Z-2.339
X43.365 Y-16.647 Z-2.341
X43.406 Y-16.585 Z-2.342
X43.443 Y-16.521 Z-2.344
X43.475 Y-16.455 Z-2.345
X43.502 Y-16.387 Z-2.347
X43.525 Y-16.317 Z-2.348
X43.543 Y-16.246 Z-2.35
X43.556 Y-16.174 Z-2.351
X43.563 Y-16.101 Z-2.353
X43.566 Y-16.028 Z-2.354
X43.564 Y-15.956 Z-2.356
X43.557 Y-15.883 Z-2.357
X43.545 Y-15.811 Z-2.359
X43.529 Y-15.741 Z-2.36
X43.507 Y-15.672 Z-2.362
X43.481 Y-15.604 Z-2.363
X43.45 Y-15.539 Z-2.365
X43.415 Y-15.476 Z-2.367
X43.376 Y-15.415 Z-2.368
X43.333 Y-15.358 Z-2.37
X43.286 Y-15.303 Z-2.371
X43.235 Y-15.252 Z-2.373
X43.182 Y-15.205 Z-2.374
X43.125 Y-15.161 Z-2.376
X43.065 Y-15.122 Z-2.377
X43.003 Y-15.087 Z-2.379
X42.939 Y-15.056 Z-2.38
X42.873 Y-15.03 Z-2.382
X42.805 Y-15.008 Z-2.383
X42.736 Y-14.991 Z-2.385
X42.667 Y-14.978 Z-2.386
X42.596 Y-14.971 Z-2.388
X42.526 Y-14.968 Z-2.389
X42.455 Y-14.97 Z-2.391
X42.385 Y-14.977 Z-2.392
X42.316 Y-14.989 Z-2.394
X42.248 Y-15.005 Z-2.395
X42.181 Y-15.026 Z-2.397
X42.116 Y-15.052 Z-2.398
X42.052 Y-15.082 Z-2.4
X41.992 Y-15.116 Z-2.401
X41.933 Y-15.154 Z-2.403
X41.878 Y-15.196 Z-2.404
X41.825 Y-15.241 Z-2.406
X41.776 Y-15.29 Z-2.407
X41.73 Y-15.342 Z-2.409
X41.688 Y-15.397 Z-2.41
X41.65 Y-15.455 Z-2.412
X41.616 Y-15.515 Z-2.413
X41.587 Y-15.577 Z-2.415
X41.561 Y-15.641 Z-2.416
X41.54 Y-15.706 Z-2.418
X41.524 Y-15.773 Z-2.419
X41.512 Y-15.84 Z-2.421
X41.505 Y-15.908 Z-2.422
X41.503 Y-15.977 Z-2.424
X41.505 Y-16.045 Z-2.425
X41.512 Y-16.112 Z-2.427
X41.523 Y-16.179 Z-2.428
X41.539 Y-16.245 Z-2.43
X41.56 Y-16.31 Z-2.431
X41.585 Y-16.373 Z-2.433
X41.614 Y-16.434 Z-2.434
X41.647 Y-16.493 Z-2.436
X41.683 Y-16.549 Z-2.437
X41.724 Y-16.602 Z-2.439
X41.768 Y-16.653 Z-2.44
X41.816 Y-16.7 Z-2.442
X41.866 Y-16.744 Z-2.443
X41.919 Y-16.785 Z-2.445
X41.975 Y-16.821 Z-2.446
X42.033 Y-16.854 Z-2.448
X42.093 Y-16.883 Z-2.449
X42.155 Y-16.907 Z-2.451
X42.218 Y-16.927 Z-2.452
X42.282 Y-16.942 Z-2.454
X42.348 Y-16.954 Z-2.455
X42.413 Y-16.96 Z-2.457
X42.479 Y-16.963 Z-2.458
X42.545 Y-16.96 Z-2.46
X42.61 Y-16.953 Z-2.461
X42.675 Y-16.942 Z-2.463
X42.738 Y-16.927 Z-2.464
X42.8 Y-16.907 Z-2.466
X42.861 Y-16.883 Z-2.467
X42.92 Y-16.855 Z-2.469
X42.977 Y-16.823 Z-2.471
X43.031 Y-16.787 Z-2.472
X43.082 Y-16.748 Z-2.474
X43.131 Y-16.705 Z-2.475
X43.177 Y-16.659 Z-2.477
X43.219 Y-16.61 Z-2.478
X43.258 Y-16.559 Z-2.48
X43.293 Y-16.505 Z-2.481
X43.324 Y-16.449 Z-2.483
X43.352 Y-16.391 Z-2.484
X43.375 Y-16.331 Z-2.486
X43.394 Y-16.27 Z-2.487
X43.409 Y-16.208 Z-2.489
X43.42 Y-16.146 Z-2.49
X43.426 Y-16.082 Z-2.492
X43.428 Y-16.019 Z-2.493
X43.426 Y-15.955 Z-2.495
X43.419 Y-15.892 Z-2.496
X43.408 Y-15.83 Z-2.498
X43.393 Y-15.769 Z-2.499
X43.373 Y-15.709 Z-2.501
X43.35 Y-15.651 Z-2.502
X43.323 Y-15.594 Z-2.504
X43.292 Y-15.54 Z-2.505
X43.257 Y-15.487 Z-2.507
X43.219 Y-15.438 Z-2.508
X43.178 Y-15.391 Z-2.51
X43.134 Y-15.347 Z-2.511
X43.087 Y-15.306 Z-2.513
X43.037 Y-15.269 Z-2.514
X42.985 Y-15.235 Z-2.516
X42.931 Y-15.205 Z-2.517
X42.875 Y-15.179 Z-2.519
X42.818 Y-15.157 Z-2.52
X42.759 Y-15.139 Z-2.522
X42.699 Y-15.124 Z-2.523
X42.639 Y-15.114 Z-2.525
X42.578 Y-15.108 Z-2.526
X42.517 Y-15.107 Z-2.528
X42.456 Y-15.109 Z-2.529
X42.395 Y-15.116 Z-2.531
X42.335 Y-15.127 Z-2.532
X42.276 Y-15.141 Z-2.534
X42.219 Y-15.16 Z-2.535
X42.162 Y-15.183 Z-2.537
X42.108 Y-15.209 Z-2.538
X42.056 Y-15.239 Z-2.54
X42.006 Y-15.272 Z-2.541
X41.958 Y-15.309 Z-2.543
X41.913 Y-15.349 Z-2.544
X41.871 Y-15.391 Z-2.546
X41.832 Y-15.437 Z-2.547
X41.796 Y-15.484 Z-2.549
X41.764 Y-15.535 Z-2.55
X41.735 Y-15.587 Z-2.552
X41.71 Y-15.64 Z-2.553
X41.689 Y-15.696 Z-2.555
X41.671 Y-15.752 Z-2.556
X41.658 Y-15.81 Z-2.558
X41.648 Y-15.868 Z-2.559
X41.643 Y-15.927 Z-2.561
X41.641 Y-15.985 Z-2.562
X41.644 Y-16.044 Z-2.564
X41.65 Y-16.102 Z-2.565
X41.661 Y-16.16 Z-2.567
X41.675 Y-16.216 Z-2.568
X41.693 Y-16.272 Z-2.57
X41.715 Y-16.326 Z-2.572
X41.741 Y-16.378 Z-2.573
X41.769 Y-16.428 Z-2.575
X41.802 Y-16.476 Z-2.576
X41.837 Y-16.522 Z-2.578
X41.875 Y-16.565 Z-2.579
X41.916 Y-16.605 Z-2.581
X41.96 Y-16.642 Z-2.582
X42.006 Y-16.677 Z-2.584
X42.054 Y-16.707 Z-2.585
X42.104 Y-16.735 Z-2.587
X42.156 Y-16.759 Z-2.588
X42.209 Y-16.779 Z-2.59
X42.264 Y-16.796 Z-2.591
X42.319 Y-16.809 Z-2.593
X42.375 Y-16.818 Z-2.594
X42.431 Y-16.823 Z-2.596
X42.487 Y-16.824 Z-2.597
X42.544 Y-16.821 Z-2.599
X42.599 Y-16.815 Z-2.6
X42.655 Y-16.805 Z-2.602
X42.709 Y-16.791 Z-2.603
X42.762 Y-16.773 Z-2.605
X42.814 Y-16.752 Z-2.606
X42.864 Y-16.728 Z-2.608
X42.912 Y-16.7 Z-2.609
X42.958 Y-16.669 Z-2.611
X43.001 Y-16.635 Z-2.612
X43.043 Y-16.598 Z-2.614
X43.081 Y-16.559 Z-2.615
X43.117 Y-16.517 Z-2.617
X43.149 Y-16.472 Z-2.618
X43.179 Y-16.426 Z-2.62
X43.205 Y-16.378 Z-2.621
X43.228 Y-16.328 Z-2.623
X43.247 Y-16.277 Z-2.624
X43.263 Y-16.225 Z-2.626
X43.275 Y-16.172 Z-2.627
X43.283 Y-16.119 Z-2.629
X43.288 Y-16.065 Z-2.63
X43.289 Y-16.011 Z-2.632
X43.287 Y-15.957 Z-2.633
X43.28 Y-15.904 Z-2.635
X43.271 Y-15.851 Z-2.636
X43.257 Y-15.799 Z-2.638
X43.24 Y-15.748 Z-2.639
X43.22 Y-15.699 Z-2.641
X43.196 Y-15.651 Z-2.642
X43.169 Y-15.605 Z-2.644
X43.14 Y-15.561 Z-2.645
X43.107 Y-15.519 Z-2.647
X43.072 Y-15.48 Z-2.648
X43.034 Y-15.443 Z-2.65
X42.993 Y-15.409 Z-2.651
X42.951 Y-15.378 Z-2.653
X42.907 Y-15.35 Z-2.654
X42.861 Y-15.325 Z-2.656
X42.813 Y-15.303 Z-2.657
X42.764 Y-15.285 Z-2.659
X42.714 Y-15.27 Z-2.66
X42.664 Y-15.259 Z-2.662
X42.612 Y-15.251 Z-2.663
X42.561 Y-15.246 Z-2.665
X42.509 Y-15.245 Z-2.666
X42.458 Y-15.248 Z-2.668
X42.407 Y-15.254 Z-2.669
X42.356 Y-15.264 Z-2.671
X42.307 Y-15.277 Z-2.672
X42.258 Y-15.293 Z-2.674
X42.211 Y-15.313 Z-2.676
X42.165 Y-15.335 Z-2.677
X42.121 Y-15.361 Z-2.679
X42.08 Y-15.39 Z-2.68
X42.04 Y-15.421 Z-2.682
X42.002 Y-15.455 Z-2.683
X41.967 Y-15.491 Z-2.685
X41.935 Y-15.53 Z-2.686
X41.905 Y-15.57 Z-2.688
X41.879 Y-15.613 Z-2.689
X41.855 Y-15.657 Z-2.691
X41.834 Y-15.702 Z-2.692
X41.817 Y-15.749 Z-2.694
X41.803 Y-15.797 Z-2.695
X41.792 Y-15.845 Z-2.697
X41.785 Y-15.894 Z-2.698
X41.781 Y-15.943 Z-2.7
X41.78 Y-15.992 Z-2.701
X41.783 Y-16.042 Z-2.703
X41.789 Y-16.09 Z-2.704
X41.798 Y-16.138 Z-2.706
X41.81 Y-16.186 Z-2.707
X41.826 Y-16.232 Z-2.709
X41.845 Y-16.277 Z-2.71
X41.867 Y-16.32 Z-2.712
X41.891 Y-16.362 Z-2.713
X41.919 Y-16.402 Z-2.715
X41.949 Y-16.44 Z-2.716
X41.981 Y-16.475 Z-2.718
X42.016 Y-16.508 Z-2.719
X42.053 Y-16.539 Z-2.721
X42.091 Y-16.567 Z-2.722
X42.132 Y-16.592 Z-2.724
X42.174 Y-16.615 Z-2.725
X42.217 Y-16.634 Z-2.727
X42.262 Y-16.651 Z-2.728
X42.307 Y-16.664 Z-2.73
X42.353 Y-16.674 Z-2.731
X42.4 Y-16.681 Z-2.733
X42.447 Y-16.685 Z-2.734
X42.494 Z-2.736
X42.541 Y-16.683 Z-2.737
X42.587 Y-16.677 Z-2.739
X42.633 Y-16.668 Z-2.74
X42.678 Y-16.656 Z-2.742
X42.722 Y-16.641 Z-2.743
X42.764 Y-16.623 Z-2.745
X42.805 Y-16.602 Z-2.746
X42.845 Y-16.578 Z-2.748
X42.883 Y-16.552 Z-2.749
X42.919 Y-16.523 Z-2.751
X42.953 Y-16.492 Z-2.752
X42.984 Y-16.459 Z-2.754
X43.013 Y-16.424 Z-2.755
X43.04 Y-16.387 Z-2.757
X43.064 Y-16.349 Z-2.758
X43.085 Y-16.309 Z-2.76
X43.103 Y-16.268 Z-2.761
X43.119 Y-16.225 Z-2.763
X43.131 Y-16.182 Z-2.764
X43.141 Y-16.138 Z-2.766
X43.147 Y-16.094 Z-2.767
X43.15 Y-16.049 Z-2.769
X43.151 Y-16.005 Z-2.77
X43.148 Y-15.96 Z-2.772
X43.142 Y-15.916 Z-2.773
X43.134 Y-15.873 Z-2.775
X43.122 Y-15.83 Z-2.776
X43.108 Y-15.789 Z-2.778
X43.09 Y-15.748 Z-2.78
X43.07 Y-15.709 Z-2.781
X43.048 Y-15.672 Z-2.783
X43.023 Y-15.636 Z-2.784
X42.996 Y-15.602 Z-2.786
X42.966 Y-15.57 Z-2.787
X42.935 Y-15.54 Z-2.789
X42.901 Y-15.513 Z-2.79
X42.866 Y-15.488 Z-2.792
X42.83 Y-15.465 Z-2.793
X42.792 Y-15.445 Z-2.795
X42.753 Y-15.428 Z-2.796
X42.712 Y-15.414 Z-2.798
X42.671 Y-15.402 Z-2.799
X42.63 Y-15.393 Z-2.801
X42.588 Y-15.387 Z-2.802
X42.546 Y-15.384 Z-2.804
X42.503 Z-2.805
X42.461 Y-15.387 Z-2.807
X42.42 Y-15.392 Z-2.808
X42.379 Y-15.401 Z-2.81
X42.339 Y-15.412 Z-2.811
X42.299 Y-15.426 Z-2.813
X42.261 Y-15.442 Z-2.814
X42.224 Y-15.461 Z-2.816
X42.189 Y-15.482 Z-2.817
X42.155 Y-15.506 Z-2.819
X42.123 Y-15.532 Z-2.82
X42.093 Y-15.56 Z-2.822
X42.065 Y-15.59 Z-2.823
X42.039 Y-15.621 Z-2.825
X42.016 Y-15.655 Z-2.826
X41.994 Y-15.689 Z-2.828
X41.976 Y-15.725 Z-2.829
X41.959 Y-15.762 Z-2.831
X41.946 Y-15.8 Z-2.832
X41.935 Y-15.839 Z-2.834
X41.927 Y-15.878 Z-2.835
X41.921 Y-15.918 Z-2.837
X41.919 Y-15.958 Z-2.838
Y-15.998 Z-2.84
X41.921 Y-16.037 Z-2.841
X41.927 Y-16.077 Z-2.843
X41.935 Y-16.115 Z-2.844
X41.945 Y-16.153 Z-2.846
X41.959 Y-16.19 Z-2.847
X41.974 Y-16.226 Z-2.849
X41.992 Y-16.261 Z-2.85
X42.013 Y-16.294 Z-2.852
X42.035 Y-16.326 Z-2.853
X42.059 Y-16.356 Z-2.855
X42.086 Y-16.384 Z-2.856
X42.114 Y-16.41 Z-2.858
X42.144 Y-16.435 Z-2.859
X42.175 Y-16.457 Z-2.861
X42.208 Y-16.477 Z-2.862
X42.242 Y-16.494 Z-2.864
X42.277 Y-16.509 Z-2.865
X42.313 Y-16.522 Z-2.867
X42.349 Y-16.532 Z-2.868
X42.386 Y-16.539 Z-2.87
X42.424 Y-16.544 Z-2.871
X42.461 Y-16.547 Z-2.873
X42.499 Z-2.874
X42.536 Y-16.544 Z-2.876
X42.573 Y-16.539 Z-2.877
X42.609 Y-16.531 Z-2.879
X42.645 Y-16.521 Z-2.881
X42.68 Y-16.508 Z-2.882
X42.713 Y-16.494 Z-2.884
X42.746 Y-16.477 Z-2.885
X42.777 Y-16.457 Z-2.887
X42.807 Y-16.436 Z-2.888
X42.835 Y-16.413 Z-2.89
X42.861 Y-16.388 Z-2.891
X42.886 Y-16.361 Z-2.893
X42.908 Y-16.333 Z-2.894
X42.929 Y-16.304 Z-2.896
X42.947 Y-16.273 Z-2.897
X42.964 Y-16.241 Z-2.899
X42.978 Y-16.208 Z-2.9
X42.989 Y-16.175 Z-2.902
X42.999 Y-16.14 Z-2.903
X43.006 Y-16.106 Z-2.905
X43.01 Y-16.071 Z-2.906
X43.012 Y-16.035 Z-2.908
Y-16 Z-2.909
X43.009 Y-15.966 Z-2.911
X43.004 Y-15.931 Z-2.912
X42.997 Y-15.897 Z-2.914
X42.987 Y-15.864 Z-2.915
X42.975 Y-15.831 Z-2.917
X42.961 Y-15.8 Z-2.918
X42.945 Y-15.769 Z-2.92
X42.927 Y-15.74 Z-2.921
X42.907 Y-15.713 Z-2.923
X42.886 Y-15.686 Z-2.924
X42.862 Y-15.662 Z-2.926
X42.837 Y-15.639 Z-2.927
X42.811 Y-15.618 Z-2.929
X42.783 Y-15.599 Z-2.93
X42.754 Y-15.582 Z-2.932
X42.724 Y-15.567 Z-2.933
X42.694 Y-15.554 Z-2.935
X42.662 Y-15.543 Z-2.936
X42.63 Y-15.534 Z-2.938
X42.598 Y-15.528 Z-2.939
X42.565 Y-15.524 Z-2.941
X42.532 Y-15.522 Z-2.942
X42.5 Y-15.523 Z-2.944
X42.467 Y-15.525 Z-2.945
X42.435 Y-15.53 Z-2.947
X42.403 Y-15.537 Z-2.948
X42.372 Y-15.546 Z-2.95
X42.342 Y-15.557 Z-2.951
X42.313 Y-15.571 Z-2.953
X42.285 Y-15.586 Z-2.954
X42.258 Y-15.603 Z-2.956
X42.232 Y-15.621 Z-2.957
X42.208 Y-15.642 Z-2.959
X42.185 Y-15.664 Z-2.96
X42.164 Y-15.687 Z-2.962
X42.144 Y-15.712 Z-2.963
X42.127 Y-15.738 Z-2.965
X42.111 Y-15.764 Z-2.966
X42.097 Y-15.792 Z-2.968
